app/src/main/assets/luts/acros.cube
TITLE "Generated by Resolve"
LUT_3D_SIZE 9
0 0 0
0.0223697 0.0223697 0.0223697
0.049897 0.049897 0.049897
0.0980087 0.0980087 0.0980087
0.161837 0.161837 0.161837
0.225864 0.225864 0.225864
0.298375 0.298375 0.298375
0.391562 0.391562 0.391562
0.465629 0.465629 0.465629
0.0682536 0.0682536 0.0682536
0.090074 0.090074 0.090074
0.120745 0.120745 0.120745
0.165759 0.165759 0.165759
0.220539 0.220539 0.220539
0.2851 0.2851 0.2851
0.362493 0.362493 0.362493
0.452674 0.452674 0.452674
0.515709 0.515709 0.515709
0.16846 0.16846 0.16846
0.189181 0.189181 0.189181
0.219059 0.219059 0.219059
0.259358 0.259358 0.259358
0.306691 0.306691 0.306691
0.366827 0.366827 0.366827
0.435004 0.435004 0.435004
0.511193 0.511193 0.511193
0.564935 0.564935 0.564935
0.306142 0.306142 0.306142
0.325734 0.325734 0.325734
0.348547 0.348547 0.348547
0.379385 0.379385 0.379385
0.418921 0.418921 0.418921
0.467201 0.467201 0.467201
0.523339 0.523339 0.523339
0.585031 0.585031 0.585031
0.624613 0.624613 0.624613
0.465293 0.465293 0.465293
0.477012 0.477012 0.477012
0.492821 0.492821 0.492821
0.514717 0.514717 0.514717
0.544472 0.544472 0.544472
0.580804 0.580804 0.580804
0.623423 0.623423 0.623423
0.671107 0.671107 0.671107
0.692424 0.692424 0.692424
0.61593 0.61593 0.61593
0.624598 0.624598 0.624598
0.635126 0.635126 0.635126
0.650446 0.650446 0.650446
0.671046 0.671046 0.671046
0.696788 0.696788 0.696788
0.727581 0.727581 0.727581
0.761456 0.761456 0.761456
0.765286 0.765286 0.765286
0.752544 0.752544 0.752544
0.758679 0.758679 0.758679
0.766079 0.766079 0.766079
0.776654 0.776654 0.776654
0.791119 0.791119 0.791119
0.808347 0.808347 0.808347
0.830655 0.830655 0.830655
0.851255 0.851255 0.851255
0.83566 0.83566 0.83566
0.841947 0.841947 0.841947
0.847181 0.847181 0.847181
0.854032 0.854032 0.854032
0.862623 0.862623 0.862623
0.872755 0.872755 0.872755
0.887221 0.887221 0.887221
0.905699 0.905699 0.905699
0.923186 0.923186 0.923186
0.905135 0.905135 0.905135
0.856519 0.856519 0.856519
0.859205 0.859205 0.859205
0.862272 0.862272 0.862272
0.866987 0.866987 0.866987
0.873625 0.873625 0.873625
0.882811 0.882811 0.882811
0.895903 0.895903 0.895903
0.917266 0.917266 0.917266
0.946273 0.946273 0.946273
0.0110628 0.0110628 0.0110628
0.0387732 0.0387732 0.0387732
0.0717327 0.0717327 0.0717327
0.126024 0.126024 0.126024
0.188113 0.188113 0.188113
0.250172 0.250172 0.250172
0.324025 0.324025 0.324025
0.411978 0.411978 0.411978
0.475944 0.475944 0.475944
0.0928664 0.0928664 0.0928664
0.115648 0.115648 0.115648
0.150225 0.150225 0.150225
0.195941 0.195941 0.195941
0.249775 0.249775 0.249775
0.313863 0.313863 0.313863
0.38909 0.38909 0.38909
0.471794 0.471794 0.471794
0.525597 0.525597 0.525597
0.20325 0.20325 0.20325
0.221744 0.221744 0.221744
0.252277 0.252277 0.252277
0.291112 0.291112 0.291112
0.337514 0.337514 0.337514
0.394827 0.394827 0.394827
0.459785 0.459785 0.459785
0.530785 0.530785 0.530785
0.574701 0.574701 0.574701
0.338964 0.338964 0.338964
0.357809 0.357809 0.357809
0.379965 0.379965 0.379965
0.408988 0.408988 0.408988
0.446311 0.446311 0.446311
0.492149 0.492149 0.492149
0.544808 0.544808 0.544808
0.60267 0.60267 0.60267
0.634226 0.634226 0.634226
0.488624 0.488624 0.488624
0.501259 0.501259 0.501259
0.516106 0.516106 0.516106
0.53753 0.53753 0.53753
0.565515 0.565515 0.565515
0.59939 0.59939 0.59939
0.640208 0.640208 0.640208
0.684138 0.684138 0.684138
0.702419 0.702419 0.702419
0.628229 0.628229 0.628229
0.636683 0.636683 0.636683
0.647013 0.647013 0.647013
0.663035 0.663035 0.663035
0.682872 0.682872 0.682872
0.707225 0.707225 0.707225
0.737408 0.737408 0.737408
0.76997 0.76997 0.76997
0.771939 0.771939 0.771939
0.757275 0.757275 0.757275
0.763638 0.763638 0.763638
0.77113 0.77113 0.77113
0.78175 0.78175 0.78175
0.79585 0.79585 0.79585
0.813993 0.813993 0.813993
0.835615 0.835615 0.835615
0.855222 0.855222 0.855222
0.839231 0.839231 0.839231
0.84416 0.84416 0.84416
0.849546 0.849546 0.849546
0.855772 0.855772 0.855772
0.864088 0.864088 0.864088
0.875425 0.875425 0.875425
0.889845 0.889845 0.889845
0.907607 0.907607 0.907607
0.925566 0.925566 0.925566
0.90634 0.90634 0.90634
0.857252 0.857252 0.857252
0.860182 0.860182 0.860182
0.863645 0.863645 0.863645
0.868345 0.868345 0.868345
0.875135 0.875135 0.875135
0.884398 0.884398 0.884398
0.897368 0.897368 0.897368
0.919051 0.919051 0.919051
0.948241 0.948241 0.948241
0.0240482 0.0240482 0.0240482
0.0543679 0.0543679 0.0543679
0.0950942 0.0950942 0.0950942
0.156069 0.156069 0.156069
0.216236 0.216236 0.216236
0.279393 0.279393 0.279393
0.355383 0.355383 0.355383
0.440986 0.440986 0.440986
0.496056 0.496056 0.496056
0.124773 0.124773 0.124773
0.148287 0.148287 0.148287
0.183032 0.183032 0.183032
0.231449 0.231449 0.231449
0.285252 0.285252 0.285252
0.349279 0.349279 0.349279
0.422248 0.422248 0.422248
0.497948 0.497948 0.497948
0.544427 0.544427 0.544427
0.238727 0.238727 0.238727
0.2598 0.2598 0.2598
0.289616 0.289616 0.289616
0.328252 0.328252 0.328252
0.374319 0.374319 0.374319
0.428367 0.428367 0.428367
0.488807 0.488807 0.488807
0.554131 0.554131 0.554131
0.591714 0.591714 0.591714
0.371038 0.371038 0.371038
0.390661 0.390661 0.390661
0.411429 0.411429 0.411429
0.440635 0.440635 0.440635
0.476509 0.476509 0.476509
0.518975 0.518975 0.518975
0.568566 0.568566 0.568566
0.622415 0.622415 0.622415
0.649271 0.649271 0.649271
0.510597 0.510597 0.510597
0.523964 0.523964 0.523964
0.537881 0.537881 0.537881
0.558862 0.558862 0.558862
0.586496 0.586496 0.586496
0.619043 0.619043 0.619043
0.657404 0.657404 0.657404
0.698848 0.698848 0.698848
0.714275 0.714275 0.714275
0.640299 0.640299 0.640299
0.649104 0.649104 0.649104
0.659785 0.659785 0.659785
0.675441 0.675441 0.675441
0.695109 0.695109 0.695109
0.71873 0.71873 0.71873
0.748501 0.748501 0.748501
0.779995 0.779995 0.779995
0.778943 0.778943 0.778943
0.761776 0.761776 0.761776
0.768353 0.768353 0.768353
0.776318 0.776318 0.776318
0.787366 0.787366 0.787366
0.801953 0.801953 0.801953
0.819776 0.819776 0.819776
0.840818 0.840818 0.840818
0.859648 0.859648 0.859648
0.842435 0.842435 0.842435
0.845685 0.845685 0.845685
0.850858 0.850858 0.850858
0.856947 0.856947 0.856947
0.865599 0.865599 0.865599
0.876966 0.876966 0.876966
0.891936 0.891936 0.891936
0.91046 0.91046 0.91046
0.927794 0.927794 0.927794
0.907164 0.907164 0.907164
0.858274 0.858274 0.858274
0.861097 0.861097 0.861097
0.864576 0.864576 0.864576
0.869627 0.869627 0.869627
0.876646 0.876646 0.876646
0.885954 0.885954 0.885954
0.899077 0.899077 0.899077
0.921187 0.921187 0.921187
0.950057 0.950057 0.950057
0.0433356 0.0433356 0.0433356
0.0810101 0.0810101 0.0810101
0.132052 0.132052 0.132052
0.197269 0.197269 0.197269
0.255329 0.255329 0.255329
0.322301 0.322301 0.322301
0.398535 0.398535 0.398535
0.477745 0.477745 0.477745
0.523766 0.523766 0.523766
0.167117 0.167117 0.167117
0.191775 0.191775 0.191775
0.229847 0.229847 0.229847
0.278965 0.278965 0.278965
0.333394 0.333394 0.333394
0.395163 0.395163 0.395163
0.46334 0.46334 0.46334
0.531395 0.531395 0.531395
0.568734 0.568734 0.568734
0.281956 0.281956 0.281956
0.305364 0.305364 0.305364
0.336324 0.336324 0.336324
0.373602 0.373602 0.373602
0.417807 0.417807 0.417807
0.468208 0.468208 0.468208
0.52459 0.52459 0.52459
0.583246 0.583246 0.583246
0.613886 0.613886 0.613886
0.407416 0.407416 0.407416
0.427726 0.427726 0.427726
0.449592 0.449592 0.449592
0.477394 0.477394 0.477394
0.512154 0.512154 0.512154
0.551553 0.551553 0.551553
0.597559 0.597559 0.597559
0.645594 0.645594 0.645594
0.667552 0.667552 0.667552
0.536141 0.536141 0.536141
0.549371 0.549371 0.549371
0.564095 0.564095 0.564095
0.585412 0.585412 0.585412
0.611521 0.611521 0.611521
0.641917 0.641917 0.641917
0.677943 0.677943 0.677943
0.716426 0.716426 0.716426
0.727413 0.727413 0.727413
0.654673 0.654673 0.654673
0.663874 0.663874 0.663874
0.675196 0.675196 0.675196
0.690623 0.690623 0.690623
0.710262 0.710262 0.710262
0.733883 0.733883 0.733883
0.762539 0.762539 0.762539
0.792767 0.792767 0.792767
0.787015 0.787015 0.787015
0.766903 0.766903 0.766903
0.773831 0.773831 0.773831
0.781933 0.781933 0.781933
0.793652 0.793652 0.793652
0.80824 0.80824 0.80824
0.826474 0.826474 0.826474
0.846983 0.846983 0.846983
0.865217 0.865217 0.865217
0.846922 0.846922 0.846922
0.84567 0.84567 0.84567
0.850935 0.850935 0.850935
0.857832 0.857832 0.857832
0.866484 0.866484 0.866484
0.878462 0.878462 0.878462
0.894072 0.894072 0.894072
0.912993 0.912993 0.912993
0.930785 0.930785 0.930785
0.90869 0.90869 0.90869
0.85948 0.85948 0.85948
0.862058 0.862058 0.862058
0.866026 0.866026 0.866026
0.870802 0.870802 0.870802
0.878141 0.878141 0.878141
0.887617 0.887617 0.887617
0.90132 0.90132 0.90132
0.923613 0.923613 0.923613
0.952453 0.952453 0.952453
0.0741436 0.0741436 0.0741436
0.11928 0.11928 0.11928
0.178393 0.178393 0.178393
0.243549 0.243549 0.243549
0.306264 0.306264 0.306264
0.375494 0.375494 0.375494
0.448737 0.448737 0.448737
0.516823 0.516823 0.516823
0.554345 0.554345 0.554345
0.218585 0.218585 0.218585
0.24741 0.24741 0.24741
0.289296 0.289296 0.289296
0.33637 0.33637 0.33637
0.38967 0.38967 0.38967
0.447105 0.447105 0.447105
0.507683 0.507683 0.507683
0.566934 0.566934 0.566934
0.59556 0.59556 0.59556
0.32958 0.32958 0.32958
0.355352 0.355352 0.355352
0.388815 0.388815 0.388815
0.424628 0.424628 0.424628
0.466407 0.466407 0.466407
0.512718 0.512718 0.512718
0.562753 0.562753 0.562753
0.613916 0.613916 0.613916
0.636774 0.636774 0.636774
0.443854 0.443854 0.443854
0.467491 0.467491 0.467491
0.490135 0.490135 0.490135
0.517617 0.517617 0.517617
0.550973 0.550973 0.550973
0.587839 0.587839 0.587839
0.629419 0.629419 0.629419
0.671946 0.671946 0.671946
0.686503 0.686503 0.686503
0.561318 0.561318 0.561318
0.576471 0.576471 0.576471
0.592432 0.592432 0.592432
0.613504 0.613504 0.613504
0.639323 0.639323 0.639323
0.668666 0.668666 0.668666
0.70219 0.70219 0.70219
0.73724 0.73724 0.73724
0.741146 0.741146 0.741146
0.669581 0.669581 0.669581
0.679454 0.679454 0.679454
0.692058 0.692058 0.692058
0.707347 0.707347 0.707347
0.727886 0.727886 0.727886
0.751675 0.751675 0.751675
0.778714 0.778714 0.778714
0.805142 0.805142 0.805142
0.796094 0.796094 0.796094
0.769177 0.769177 0.769177
0.777173 0.777173 0.777173
0.786404 0.786404 0.786404
0.798733 0.798733 0.798733
0.814511 0.814511 0.814511
0.833021 0.833021 0.833021
0.853727 0.853727 0.853727
0.871977 0.871977 0.871977
0.852003 0.852003 0.852003
0.844022 0.844022 0.844022
0.850019 0.850019 0.850019
0.857145 0.857145 0.857145
0.866957 0.866957 0.866957
0.879698 0.879698 0.879698
0.895232 0.895232 0.895232
0.915038 0.915038 0.915038
0.933822 0.933822 0.933822
0.910292 0.910292 0.910292
0.85977 0.85977 0.85977
0.862654 0.862654 0.862654
0.866529 0.866529 0.866529
0.871962 0.871962 0.871962
0.879469 0.879469 0.879469
0.889082 0.889082 0.889082
0.903639 0.903639 0.903639
0.926665 0.926665 0.926665
0.955581 0.955581 0.955581
0.115953 0.115953 0.115953
0.170794 0.170794 0.170794
0.243977 0.243977 0.243977
0.309071 0.309071 0.309071
0.373236 0.373236 0.373236
0.438605 0.438605 0.438605
0.504433 0.504433 0.504433
0.559243 0.559243 0.559243
0.587182 0.587182 0.587182
0.277974 0.277974 0.277974
0.312154 0.312154 0.312154
0.356268 0.356268 0.356268
0.403082 0.403082 0.403082
0.452201 0.452201 0.452201
0.503807 0.503807 0.503807
0.557214 0.557214 0.557214
0.605509 0.605509 0.605509
0.624384 0.624384 0.624384
0.376593 0.376593 0.376593
0.407019 0.407019 0.407019
0.441718 0.441718 0.441718
0.479072 0.479072 0.479072
0.5196 0.5196 0.5196
0.561303 0.561303 0.561303
0.605829 0.605829 0.605829
0.648905 0.648905 0.648905
0.66183 0.66183 0.66183
0.478477 0.478477 0.478477
0.505379 0.505379 0.505379
0.530709 0.530709 0.530709
0.559823 0.559823 0.559823
0.592218 0.592218 0.592218
0.626413 0.626413 0.626413
0.663615 0.663615 0.663615
0.701534 0.701534 0.701534
0.706218 0.706218 0.706218
0.583444 0.583444 0.583444
0.601678 0.601678 0.601678
0.619959 0.619959 0.619959
0.642741 0.642741 0.642741
0.669062 0.669062 0.669062
0.697353 0.697353 0.697353
0.729137 0.729137 0.729137
0.760052 0.760052 0.760052
0.756176 0.756176 0.756176
0.681483 0.681483 0.681483
0.693919 0.693919 0.693919
0.70721 0.70721 0.70721
0.725536 0.725536 0.725536
0.746685 0.746685 0.746685
0.769574 0.769574 0.769574
0.79559 0.79559 0.79559
0.818448 0.818448 0.818448
0.805951 0.805951 0.805951
0.767315 0.767315 0.767315
0.77583 0.77583 0.77583
0.786526 0.786526 0.786526
0.80119 0.80119 0.80119
0.818097 0.818097 0.818097
0.837339 0.837339 0.837339
0.859388 0.859388 0.859388
0.878035 0.878035 0.878035
0.857755 0.857755 0.857755
0.838285 0.838285 0.838285
0.845014 0.845014 0.845014
0.852964 0.852964 0.852964
0.863798 0.863798 0.863798
0.877836 0.877836 0.877836
0.89482 0.89482 0.89482
0.915221 0.915221 0.915221
0.935668 0.935668 0.935668
0.912032 0.912032 0.912032
0.858824 0.858824 0.858824
0.862028 0.862028 0.862028
0.866056 0.866056 0.866056
0.872053 0.872053 0.872053
0.88011 0.88011 0.88011
0.890654 0.890654 0.890654
0.905684 0.905684 0.905684
0.93019 0.93019 0.93019
0.959823 0.959823 0.959823
0.185016 0.185016 0.185016
0.258564 0.258564 0.258564
0.333013 0.333013 0.333013
0.393942 0.393942 0.393942
0.454185 0.454185 0.454185
0.511498 0.511498 0.511498
0.566796 0.566796 0.566796
0.608911 0.608911 0.608911
0.622049 0.622049 0.622049
0.339544 0.339544 0.339544
0.376364 0.376364 0.376364
0.424735 0.424735 0.424735
0.472694 0.472694 0.472694
0.519249 0.519249 0.519249
0.564904 0.564904 0.564904
0.610864 0.610864 0.610864
0.648997 0.648997 0.648997
0.655283 0.655283 0.655283
0.418952 0.418952 0.418952
0.452964 0.452964 0.452964
0.49369 0.49369 0.49369
0.533928 0.533928 0.533928
0.574136 0.574136 0.574136
0.613108 0.613108 0.613108
0.653635 0.653635 0.653635
0.68896 0.68896 0.68896
0.688151 0.688151 0.688151
0.505257 0.505257 0.505257
0.536278 0.536278 0.536278
0.567971 0.567971 0.567971
0.600732 0.600732 0.600732
0.635325 0.635325 0.635325
0.668894 0.668894 0.668894
0.704356 0.704356 0.704356
0.733516 0.733516 0.733516
0.728313 0.728313 0.728313
0.594247 0.594247 0.594247
0.618814 0.618814 0.618814
0.642451 0.642451 0.642451
0.669123 0.669123 0.669123
0.697917 0.697917 0.697917
0.726711 0.726711 0.726711
0.756222 0.756222 0.756222
0.781003 0.781003 0.781003
0.771832 0.771832 0.771832
0.676844 0.676844 0.676844
0.693034 0.693034 0.693034
0.710796 0.710796 0.710796
0.732754 0.732754 0.732754
0.75697 0.75697 0.75697
0.782208 0.782208 0.782208
0.807782 0.807782 0.807782
0.830014 0.830014 0.830014
0.816724 0.816724 0.816724
0.753948 0.753948 0.753948
0.765408 0.765408 0.765408
0.778546 0.778546 0.778546
0.796216 0.796216 0.796216
0.816327 0.816327 0.816327
0.837812 0.837812 0.837812
0.861769 0.861769 0.861769
0.882979 0.882979 0.882979
0.862547 0.862547 0.862547
0.823194 0.823194 0.823194
0.831006 0.831006 0.831006
0.840726 0.840726 0.840726
0.853986 0.853986 0.853986
0.870146 0.870146 0.870146
0.889525 0.889525 0.889525
0.912108 0.912108 0.912108
0.935454 0.935454 0.935454
0.913909 0.913909 0.913909
0.854932 0.854932 0.854932
0.858824 0.858824 0.858824
0.863157 0.863157 0.863157
0.869642 0.869642 0.869642
0.878828 0.878828 0.878828
0.8907 0.8907 0.8907
0.90721 0.90721 0.90721
0.933349 0.933349 0.933349
0.965988 0.965988 0.965988
0.297063 0.297063 0.297063
0.36289 0.36289 0.36289
0.429862 0.429862 0.429862
0.490272 0.490272 0.490272
0.5449 0.5449 0.5449
0.594079 0.594079 0.594079
0.637522 0.637522 0.637522
0.664683 0.664683 0.664683
0.665705 0.665705 0.665705
0.410452 0.410452 0.410452
0.426291 0.426291 0.426291
0.482734 0.482734 0.482734
0.539239 0.539239 0.539239
0.588037 0.588037 0.588037
0.630594 0.630594 0.630594
0.66891 0.66891 0.66891
0.696651 0.696651 0.696651
0.692958 0.692958 0.692958
0.460777 0.460777 0.460777
0.474403 0.474403 0.474403
0.523079 0.523079 0.523079
0.576913 0.576913 0.576913
0.622538 0.622538 0.622538
0.66247 0.66247 0.66247
0.698833 0.698833 0.698833
0.727108 0.727108 0.727108
0.720851 0.720851 0.720851
0.504967 0.504967 0.504967
0.528313 0.528313 0.528313
0.570794 0.570794 0.570794
0.618189 0.618189 0.618189
0.660533 0.660533 0.660533
0.698512 0.698512 0.698512
0.732738 0.732738 0.732738
0.760555 0.760555 0.760555
0.754818 0.754818 0.754818
0.559167 0.559167 0.559167
0.58732 0.58732 0.58732
0.623667 0.623667 0.623667
0.662486 0.662486 0.662486
0.700893 0.700893 0.700893
0.736461 0.736461 0.736461
0.7691 0.7691 0.7691
0.796948 0.796948 0.796948
0.790677 0.790677 0.790677
0.623835 0.623835 0.623835
0.649165 0.649165 0.649165
0.678889 0.678889 0.678889
0.711223 0.711223 0.711223
0.744274 0.744274 0.744274
0.77731 0.77731 0.77731
0.808392 0.808392 0.808392
0.836484 0.836484 0.836484
0.828016 0.828016 0.828016
0.701274 0.701274 0.701274
0.72015 0.72015 0.72015
0.740139 0.740139 0.740139
0.76463 0.76463 0.76463
0.79234 0.79234 0.79234
0.821439 0.821439 0.821439
0.85124 0.85124 0.85124
0.879591 0.879591 0.879591
0.866896 0.866896 0.866896
0.778897 0.778897 0.778897
0.789822 0.789822 0.789822
0.802762 0.802762 0.802762
0.820386 0.820386 0.820386
0.84213 0.84213 0.84213
0.867552 0.867552 0.867552
0.895491 0.895491 0.895491
0.927611 0.927611 0.927611
0.91693 0.91693 0.91693
0.838361 0.838361 0.838361
0.842954 0.842954 0.842954
0.848951 0.848951 0.848951
0.857572 0.857572 0.857572
0.869093 0.869093 0.869093
0.883787 0.883787 0.883787
0.904021 0.904021 0.904021
0.935637 0.935637 0.935637
0.976272 0.976272 0.976272
0.421561 0.421561 0.421561
0.42388 0.42388 0.42388
0.438972 0.438972 0.438972
0.512627 0.512627 0.512627
0.579095 0.579095 0.579095
0.631418 0.631418 0.631418
0.674601 0.674601 0.674601
0.711696 0.711696 0.711696
0.725948 0.725948 0.725948
0.456947 0.456947 0.456947
0.456825 0.456825 0.456825
0.457389 0.457389 0.457389
0.503594 0.503594 0.503594
0.577646 0.577646 0.577646
0.633524 0.633524 0.633524
0.680903 0.680903 0.680903
0.721752 0.721752 0.721752
0.742977 0.742977 0.742977
0.48275 0.48275 0.48275
0.4813 0.4813 0.4813
0.481773 0.481773 0.481773
0.515541 0.515541 0.515541
0.586679 0.586679 0.586679
0.642802 0.642802 0.642802
0.690455 0.690455 0.690455
0.731975 0.731975 0.731975
0.76054 0.76054 0.76054
0.509804 0.509804 0.509804
0.508827 0.508827 0.508827
0.508202 0.508202 0.508202
0.540764 0.540764 0.540764
0.604273 0.604273 0.604273
0.658564 0.658564 0.658564
0.705165 0.705165 0.705165
0.747097 0.747097 0.747097
0.78024 0.78024 0.78024
0.538323 0.538323 0.538323
0.537438 0.537438 0.537438
0.541024 0.541024 0.541024
0.575555 0.575555 0.575555
0.631373 0.631373 0.631373
0.681224 0.681224 0.681224
0.726665 0.726665 0.726665
0.767971 0.767971 0.767971
0.802411 0.802411 0.802411
0.570047 0.570047 0.570047
0.568887 0.568887 0.568887
0.585962 0.585962 0.585962
0.621424 0.621424 0.621424
0.668177 0.668177 0.668177
0.711727 0.711727 0.711727
0.754116 0.754116 0.754116
0.794949 0.794949 0.794949
0.830625 0.830625 0.830625
0.613687 0.613687 0.613687
0.627192 0.627192 0.627192
0.645594 0.645594 0.645594
0.677989 0.677989 0.677989
0.713512 0.713512 0.713512
0.750835 0.750835 0.750835
0.790204 0.790204 0.790204
0.830976 0.830976 0.830976
0.8636 0.8636 0.8636
0.697902 0.697902 0.697902
0.710475 0.710475 0.710475
0.726253 0.726253 0.726253
0.748012 0.748012 0.748012
0.774182 0.774182 0.774182
0.804501 0.804501 0.804501
0.840299 0.840299 0.840299
0.882536 0.882536 0.882536
0.912413 0.912413 0.912413
0.81059 0.81059 0.81059
0.815061 0.815061 0.815061
0.821317 0.821317 0.821317
0.830152 0.830152 0.830152
0.841779 0.841779 0.841779
0.859083 0.859083 0.859083
0.883452 0.883452 0.883452
0.921935 0.921935 0.921935
1 1 1
