app/src/main/assets/luts/acros.cube
TITLE "Generated by Resolve"
LUT_3D_SIZE 5
0 0 0
0.049897 0.049897 0.049897
0.161837 0.161837 0.161837
0.298375 0.298375 0.298375
0.465629 0.465629 0.465629
0.16846 0.16846 0.16846
0.219059 0.219059 0.219059
0.306691 0.306691 0.306691
0.435004 0.435004 0.435004
0.564935 0.564935 0.564935
0.465293 0.465293 0.465293
0.492821 0.492821 0.492821
0.544472 0.544472 0.544472
0.623423 0.623423 0.623423
0.692424 0.692424 0.692424
0.752544 0.752544 0.752544
0.766079 0.766079 0.766079
0.791119 0.791119 0.791119
0.830655 0.830655 0.830655
0.83566 0.83566 0.83566
0.856519 0.856519 0.856519
0.862272 0.862272 0.862272
0.873625 0.873625 0.873625
0.895903 0.895903 0.895903
0.946273 0.946273 0.946273
0.0240482 0.0240482 0.0240482
0.0950942 0.0950942 0.0950942
0.216236 0.216236 0.216236
0.355383 0.355383 0.355383
0.496056 0.496056 0.496056
0.238727 0.238727 0.238727
0.289616 0.289616 0.289616
0.374319 0.374319 0.374319
0.488807 0.488807 0.488807
0.591714 0.591714 0.591714
0.510597 0.510597 0.510597
0.537881 0.537881 0.537881
0.586496 0.586496 0.586496
0.657404 0.657404 0.657404
0.714275 0.714275 0.714275
0.761776 0.761776 0.761776
0.776318 0.776318 0.776318
0.801953 0.801953 0.801953
0.840818 0.840818 0.840818
0.842435 0.842435 0.842435
0.858274 0.858274 0.858274
0.864576 0.864576 0.864576
0.876646 0.876646 0.876646
0.899077 0.899077 0.899077
0.950057 0.950057 0.950057
0.0741436 0.0741436 0.0741436
0.178393 0.178393 0.178393
0.306264 0.306264 0.306264
0.448737 0.448737 0.448737
0.554345 0.554345 0.554345
0.32958 0.32958 0.32958
0.388815 0.388815 0.388815
0.466407 0.466407 0.466407
0.562753 0.562753 0.562753
0.636774 0.636774 0.636774
0.561318 0.561318 0.561318
0.592432 0.592432 0.592432
0.639323 0.639323 0.639323
0.70219 0.70219 0.70219
0.741146 0.741146 0.741146
0.769177 0.769177 0.769177
0.786404 0.786404 0.786404
0.814511 0.814511 0.814511
0.853727 0.853727 0.853727
0.852003 0.852003 0.852003
0.85977 0.85977 0.85977
0.866529 0.866529 0.866529
0.879469 0.879469 0.879469
0.903639 0.903639 0.903639
0.955581 0.955581 0.955581
0.185016 0.185016 0.185016
0.333013 0.333013 0.333013
0.454185 0.454185 0.454185
0.566796 0.566796 0.566796
0.622049 0.622049 0.622049
0.418952 0.418952 0.418952
0.49369 0.49369 0.49369
0.574136 0.574136 0.574136
0.653635 0.653635 0.653635
0.688151 0.688151 0.688151
0.594247 0.594247 0.594247
0.642451 0.642451 0.642451
0.697917 0.697917 0.697917
0.756222 0.756222 0.756222
0.771832 0.771832 0.771832
0.753948 0.753948 0.753948
0.778546 0.778546 0.778546
0.816327 0.816327 0.816327
0.861769 0.861769 0.861769
0.862547 0.862547 0.862547
0.854932 0.854932 0.854932
0.863157 0.863157 0.863157
0.878828 0.878828 0.878828
0.90721 0.90721 0.90721
0.965988 0.965988 0.965988
0.421561 0.421561 0.421561
0.438972 0.438972 0.438972
0.579095 0.579095 0.579095
0.674601 0.674601 0.674601
0.725948 0.725948 0.725948
0.48275 0.48275 0.48275
0.481773 0.481773 0.481773
0.586679 0.586679 0.586679
0.690455 0.690455 0.690455
0.76054 0.76054 0.76054
0.538323 0.538323 0.538323
0.541024 0.541024 0.541024
0.631373 0.631373 0.631373
0.726665 0.726665 0.726665
0.802411 0.802411 0.802411
0.613687 0.613687 0.613687
0.645594 0.645594 0.645594
0.713512 0.713512 0.713512
0.790204 0.790204 0.790204
0.8636 0.8636 0.8636
0.81059 0.81059 0.81059
0.821317 0.821317 0.821317
0.841779 0.841779 0.841779
0.883452 0.883452 0.883452
1 1 1
