app/src/main/assets/luts/acros.cube
TITLE "Generated by Resolve"
LUT_3D_SIZE 33
0 0 0
0.009308 0.009308 0.009308
0.013077 0.013077 0.013077
0.0172122 0.0172122 0.0172122
0.0223697 0.0223697 0.0223697
0.0275425 0.0275425 0.0275425
0.0332647 0.0332647 0.0332647
0.0410163 0.0410163 0.0410163
0.049897 0.049897 0.049897
0.0606699 0.0606699 0.0606699
0.0721141 0.0721141 0.0721141
0.0844282 0.0844282 0.0844282
0.0980087 0.0980087 0.0980087
0.111986 0.111986 0.111986
0.128237 0.128237 0.128237
0.144183 0.144183 0.144183
0.161837 0.161837 0.161837
0.178439 0.178439 0.178439
0.194064 0.194064 0.194064
0.209445 0.209445 0.209445
0.225864 0.225864 0.225864
0.243122 0.243122 0.243122
0.260014 0.260014 0.260014
0.278721 0.278721 0.278721
0.298375 0.298375 0.298375
0.321111 0.321111 0.321111
0.343282 0.343282 0.343282
0.367086 0.367086 0.367086
0.391562 0.391562 0.391562
0.415381 0.415381 0.415381
0.437034 0.437034 0.437034
0.451682 0.451682 0.451682
0.465629 0.465629 0.465629
0.0281376 0.0281376 0.0281376
0.0373083 0.0373083 0.0373083
0.0417334 0.0417334 0.0417334
0.0460365 0.0460365 0.0460365
0.051194 0.051194 0.051194
0.0566415 0.0566415 0.0566415
0.062974 0.062974 0.062974
0.0711223 0.0711223 0.0711223
0.0812543 0.0812543 0.0812543
0.0918441 0.0918441 0.0918441
0.103975 0.103975 0.103975
0.116976 0.116976 0.116976
0.130755 0.130755 0.130755
0.144411 0.144411 0.144411
0.157671 0.157671 0.157671
0.171084 0.171084 0.171084
0.185397 0.185397 0.185397
0.200351 0.200351 0.200351
0.214908 0.214908 0.214908
0.230701 0.230701 0.230701
0.248447 0.248447 0.248447
0.266102 0.266102 0.266102
0.284367 0.284367 0.284367
0.303944 0.303944 0.303944
0.325002 0.325002 0.325002
0.346639 0.346639 0.346639
0.370352 0.370352 0.370352
0.394308 0.394308 0.394308
0.418067 0.418067 0.418067
0.440772 0.440772 0.440772
0.460716 0.460716 0.460716
0.474418 0.474418 0.474418
0.487312 0.487312 0.487312
0.0399176 0.0399176 0.0399176
0.0501259 0.0501259 0.0501259
0.054078 0.054078 0.054078
0.057969 0.057969 0.057969
0.0627909 0.0627909 0.0627909
0.0684367 0.0684367 0.0684367
0.0746624 0.0746624 0.0746624
0.0832532 0.0832532 0.0832532
0.0933394 0.0933394 0.0933394
0.103426 0.103426 0.103426
0.115679 0.115679 0.115679
0.12781 0.12781 0.12781
0.140703 0.140703 0.140703
0.153628 0.153628 0.153628
0.166583 0.166583 0.166583
0.179583 0.179583 0.179583
0.194903 0.194903 0.194903
0.209094 0.209094 0.209094
0.224292 0.224292 0.224292
0.24097 0.24097 0.24097
0.258671 0.258671 0.258671
0.2766 0.2766 0.2766
0.294453 0.294453 0.294453
0.314458 0.314458 0.314458
0.335454 0.335454 0.335454
0.357 0.357 0.357
0.381003 0.381003 0.381003
0.405035 0.405035 0.405035
0.427817 0.427817 0.427817
0.450278 0.450278 0.450278
0.469871 0.469871 0.469871
0.483497 0.483497 0.483497
0.495689 0.495689 0.495689
0.0536202 0.0536202 0.0536202
0.0630961 0.0630961 0.0630961
0.0665751 0.0665751 0.0665751
0.0708171 0.0708171 0.0708171
0.074815 0.074815 0.074815
0.0805066 0.0805066 0.0805066
0.0876478 0.0876478 0.0876478
0.0962997 0.0962997 0.0962997
0.106203 0.106203 0.106203
0.116808 0.116808 0.116808
0.127871 0.127871 0.127871
0.139467 0.139467 0.139467
0.151629 0.151629 0.151629
0.164508 0.164508 0.164508
0.177661 0.177661 0.177661
0.191363 0.191363 0.191363
0.205234 0.205234 0.205234
0.220829 0.220829 0.220829
0.236088 0.236088 0.236088
0.25243 0.25243 0.25243
0.270237 0.270237 0.270237
0.28867 0.28867 0.28867
0.307622 0.307622 0.307622
0.327291 0.327291 0.327291
0.347738 0.347738 0.347738
0.370016 0.370016 0.370016
0.394141 0.394141 0.394141
0.41651 0.41651 0.41651
0.439292 0.439292 0.439292
0.461601 0.461601 0.461601
0.479927 0.479927 0.479927
0.493385 0.493385 0.493385
0.505318 0.505318 0.505318
0.0682536 0.0682536 0.0682536
0.0771801 0.0771801 0.0771801
0.0806439 0.0806439 0.0806439
0.0850538 0.0850538 0.0850538
0.090074 0.090074 0.090074
0.0953689 0.0953689 0.0953689
0.102602 0.102602 0.102602
0.11136 0.11136 0.11136
0.120745 0.120745 0.120745
0.130983 0.130983 0.130983
0.142336 0.142336 0.142336
0.15404 0.15404 0.15404
0.165759 0.165759 0.165759
0.17847 0.17847 0.17847
0.192569 0.192569 0.192569
0.206348 0.206348 0.206348
0.220539 0.220539 0.220539
0.235294 0.235294 0.235294
0.250935 0.250935 0.250935
0.26775 0.26775 0.26775
0.2851 0.2851 0.2851
0.303395 0.303395 0.303395
0.322591 0.322591 0.322591
0.341924 0.341924 0.341924
0.362493 0.362493 0.362493
0.384787 0.384787 0.384787
0.407584 0.407584 0.407584
0.430198 0.430198 0.430198
0.452674 0.452674 0.452674
0.47393 0.47393 0.47393
0.491402 0.491402 0.491402
0.504753 0.504753 0.504753
0.515709 0.515709 0.515709
0.087129 0.087129 0.087129
0.0954299 0.0954299 0.0954299
0.0986343 0.0986343 0.0986343
0.103395 0.103395 0.103395
0.108217 0.108217 0.108217
0.114153 0.114153 0.114153
0.121691 0.121691 0.121691
0.129366 0.129366 0.129366
0.138552 0.138552 0.138552
0.149722 0.149722 0.149722
0.160983 0.160983 0.160983
0.172259 0.172259 0.172259
0.184283 0.184283 0.184283
0.197208 0.197208 0.197208
0.210498 0.210498 0.210498
0.223987 0.223987 0.223987
0.238117 0.238117 0.238117
0.253025 0.253025 0.253025
0.269062 0.269062 0.269062
0.284871 0.284871 0.284871
0.301808 0.301808 0.301808
0.32018 0.32018 0.32018
0.339452 0.339452 0.339452
0.358846 0.358846 0.358846
0.379446 0.379446 0.379446
0.400458 0.400458 0.400458
0.422065 0.422065 0.422065
0.444221 0.444221 0.444221
0.466316 0.466316 0.466316
0.486961 0.486961 0.486961
0.50399 0.50399 0.50399
0.51696 0.51696 0.51696
0.527001 0.527001 0.527001
0.111574 0.111574 0.111574
0.118563 0.118563 0.118563
0.121828 0.121828 0.121828
0.125719 0.125719 0.125719
0.130816 0.130816 0.130816
0.136645 0.136645 0.136645
0.143847 0.143847 0.143847
0.1523 0.1523 0.1523
0.161776 0.161776 0.161776
0.172335 0.172335 0.172335
0.182879 0.182879 0.182879
0.194171 0.194171 0.194171
0.206073 0.206073 0.206073
0.218509 0.218509 0.218509
0.231128 0.231128 0.231128
0.243626 0.243626 0.243626
0.258198 0.258198 0.258198
0.27364 0.27364 0.27364
0.289555 0.289555 0.289555
0.305135 0.305135 0.305135
0.322026 0.322026 0.322026
0.339422 0.339422 0.339422
0.357977 0.357977 0.357977
0.377356 0.377356 0.377356
0.397024 0.397024 0.397024
0.417212 0.417212 0.417212
0.437919 0.437919 0.437919
0.459495 0.459495 0.459495
0.480827 0.480827 0.480827
0.50071 0.50071 0.50071
0.51809 0.51809 0.51809
0.529763 0.529763 0.529763
0.538903 0.538903 0.538903
0.138613 0.138613 0.138613
0.14493 0.14493 0.14493
0.148013 0.148013 0.148013
0.152178 0.152178 0.152178
0.157641 0.157641 0.157641
0.164065 0.164065 0.164065
0.171283 0.171283 0.171283
0.1794 0.1794 0.1794
0.189288 0.189288 0.189288
0.1991 0.1991 0.1991
0.208759 0.208759 0.208759
0.219425 0.219425 0.219425
0.230838 0.230838 0.230838
0.24271 0.24271 0.24271
0.254688 0.254688 0.254688
0.26743 0.26743 0.26743
0.28217 0.28217 0.28217
0.296925 0.296925 0.296925
0.311864 0.311864 0.311864
0.326604 0.326604 0.326604
0.343175 0.343175 0.343175
0.36051 0.36051 0.36051
0.378347 0.378347 0.378347
0.396201 0.396201 0.396201
0.415518 0.415518 0.415518
0.435157 0.435157 0.435157
0.455604 0.455604 0.455604
0.476219 0.476219 0.476219
0.495933 0.495933 0.495933
0.515633 0.515633 0.515633
0.532036 0.532036 0.532036
0.542947 0.542947 0.542947
0.551202 0.551202 0.551202
0.16846 0.16846 0.16846
0.176577 0.176577 0.176577
0.180438 0.180438 0.180438
0.184543 0.184543 0.184543
0.189181 0.189181 0.189181
0.195056 0.195056 0.195056
0.20206 0.20206 0.20206
0.210147 0.210147 0.210147
0.219059 0.219059 0.219059
0.228336 0.228336 0.228336
0.237842 0.237842 0.237842
0.247898 0.247898 0.247898
0.259358 0.259358 0.259358
0.270191 0.270191 0.270191
0.281697 0.281697 0.281697
0.293736 0.293736 0.293736
0.306691 0.306691 0.306691
0.321126 0.321126 0.321126
0.335531 0.335531 0.335531
0.350851 0.350851 0.350851
0.366827 0.366827 0.366827
0.38294 0.38294 0.38294
0.399451 0.399451 0.399451
0.416907 0.416907 0.416907
0.435004 0.435004 0.435004
0.454215 0.454215 0.454215
0.473503 0.473503 0.473503
0.4925 0.4925 0.4925
0.511193 0.511193 0.511193
0.530556 0.530556 0.530556
0.546624 0.546624 0.546624
0.557031 0.557031 0.557031
0.564935 0.564935 0.564935
0.200839 0.200839 0.200839
0.208301 0.208301 0.208301
0.211383 0.211383 0.211383
0.215183 0.215183 0.215183
0.221103 0.221103 0.221103
0.227176 0.227176 0.227176
0.233997 0.233997 0.233997
0.241367 0.241367 0.241367
0.250111 0.250111 0.250111
0.25922 0.25922 0.25922
0.267887 0.267887 0.267887
0.277562 0.277562 0.277562
0.287556 0.287556 0.287556
0.298009 0.298009 0.298009
0.309041 0.309041 0.309041
0.321233 0.321233 0.321233
0.333806 0.333806 0.333806
0.34641 0.34641 0.34641
0.360983 0.360983 0.360983
0.375799 0.375799 0.375799
0.390387 0.390387 0.390387
0.405081 0.405081 0.405081
0.421225 0.421225 0.421225
0.438422 0.438422 0.438422
0.45623 0.45623 0.45623
0.474205 0.474205 0.474205
0.49221 0.49221 0.49221
0.510369 0.510369 0.510369
0.528939 0.528939 0.528939
0.546487 0.546487 0.546487
0.56199 0.56199 0.56199
0.571893 0.571893 0.571893
0.579217 0.579217 0.579217
0.234089 0.234089 0.234089
0.242161 0.242161 0.242161
0.245975 0.245975 0.245975
0.249989 0.249989 0.249989
0.255146 0.255146 0.255146
0.261418 0.261418 0.261418
0.267979 0.267979 0.267979
0.275029 0.275029 0.275029
0.282322 0.282322 0.282322
0.29041 0.29041 0.29041
0.298894 0.298894 0.298894
0.307652 0.307652 0.307652
0.317235 0.317235 0.317235
0.327382 0.327382 0.327382
0.338125 0.338125 0.338125
0.34931 0.34931 0.34931
0.361181 0.361181 0.361181
0.37377 0.37377 0.37377
0.387243 0.387243 0.387243
0.400671 0.400671 0.400671
0.41474 0.41474 0.41474
0.429877 0.429877 0.429877
0.44538 0.44538 0.44538
0.461311 0.461311 0.461311
0.477577 0.477577 0.477577
0.494606 0.494606 0.494606
0.511833 0.511833 0.511833
0.529839 0.529839 0.529839
0.547311 0.547311 0.547311
0.563973 0.563973 0.563973
0.578241 0.578241 0.578241
0.587228 0.587228 0.587228
0.594232 0.594232 0.594232
0.269032 0.269032 0.269032
0.277729 0.277729 0.277729
0.281529 0.281529 0.281529
0.285405 0.285405 0.285405
0.289784 0.289784 0.289784
0.295277 0.295277 0.295277
0.301167 0.301167 0.301167
0.308186 0.308186 0.308186
0.315221 0.315221 0.315221
0.322225 0.322225 0.322225
0.330571 0.330571 0.330571
0.339208 0.339208 0.339208
0.34789 0.34789 0.34789
0.357733 0.357733 0.357733
0.367864 0.367864 0.367864
0.377997 0.377997 0.377997
0.389487 0.389487 0.389487
0.401709 0.401709 0.401709
0.414115 0.414115 0.414115
0.427024 0.427024 0.427024
0.44097 0.44097 0.44097
0.455146 0.455146 0.455146
0.469169 0.469169 0.469169
0.484077 0.484077 0.484077
0.499855 0.499855 0.499855
0.516472 0.516472 0.516472
0.532906 0.532906 0.532906
0.549691 0.549691 0.549691
0.565896 0.565896 0.565896
0.581567 0.581567 0.581567
0.594583 0.594583 0.594583
0.603449 0.603449 0.603449
0.609552 0.609552 0.609552
0.306142 0.306142 0.306142
0.313771 0.313771 0.313771
0.317205 0.317205 0.317205
0.321035 0.321035 0.321035
0.325734 0.325734 0.325734
0.330892 0.330892 0.330892
0.336446 0.336446 0.336446
0.342153 0.342153 0.342153
0.348547 0.348547 0.348547
0.35584 0.35584 0.35584
0.363836 0.363836 0.363836
0.371099 0.371099 0.371099
0.379385 0.379385 0.379385
0.388678 0.388678 0.388678
0.398291 0.398291 0.398291
0.408423 0.408423 0.408423
0.418921 0.418921 0.418921
0.430503 0.430503 0.430503
0.442161 0.442161 0.442161
0.454063 0.454063 0.454063
0.467201 0.467201 0.467201
0.480522 0.480522 0.480522
0.494209 0.494209 0.494209
0.508156 0.508156 0.508156
0.523339 0.523339 0.523339
0.538384 0.538384 0.538384
0.553582 0.553582 0.553582
0.570108 0.570108 0.570108
0.585031 0.585031 0.585031
0.600366 0.600366 0.600366
0.612558 0.612558 0.612558
0.619837 0.619837 0.619837
0.624613 0.624613 0.624613
0.345129 0.345129 0.345129
0.352987 0.352987 0.352987
0.355917 0.355917 0.355917
0.35935 0.35935 0.35935
0.363027 0.363027 0.363027
0.367239 0.367239 0.367239
0.372061 0.372061 0.372061
0.377798 0.377798 0.377798
0.383795 0.383795 0.383795
0.390524 0.390524 0.390524
0.397116 0.397116 0.397116
0.403738 0.403738 0.403738
0.411795 0.411795 0.411795
0.420371 0.420371 0.420371
0.429648 0.429648 0.429648
0.438972 0.438972 0.438972
0.448936 0.448936 0.448936
0.459937 0.459937 0.459937
0.471229 0.471229 0.471229
0.482704 0.482704 0.482704
0.494347 0.494347 0.494347
0.507149 0.507149 0.507149
0.519966 0.519966 0.519966
0.533318 0.533318 0.533318
0.547097 0.547097 0.547097
0.56112 0.56112 0.56112
0.57586 0.57586 0.57586
0.590997 0.590997 0.590997
0.606058 0.606058 0.606058
0.620035 0.620035 0.620035
0.631052 0.631052 0.631052
0.636545 0.636545 0.636545
0.64065 0.64065 0.64065
0.384298 0.384298 0.384298
0.391165 0.391165 0.391165
0.393606 0.393606 0.393606
0.396597 0.396597 0.396597
0.400229 0.400229 0.400229
0.404288 0.404288 0.404288
0.409018 0.409018 0.409018
0.41416 0.41416 0.41416
0.419501 0.419501 0.419501
0.425193 0.425193 0.425193
0.431113 0.431113 0.431113
0.438178 0.438178 0.438178
0.445731 0.445731 0.445731
0.453544 0.453544 0.453544
0.46183 0.46183 0.46183
0.470756 0.470756 0.470756
0.480659 0.480659 0.480659
0.490852 0.490852 0.490852
0.501198 0.501198 0.501198
0.511604 0.511604 0.511604
0.522713 0.522713 0.522713
0.534447 0.534447 0.534447
0.546792 0.546792 0.546792
0.559228 0.559228 0.559228
0.57174 0.57174 0.57174
0.585382 0.585382 0.585382
0.599237 0.599237 0.599237
0.613321 0.613321 0.613321
0.627207 0.627207 0.627207
0.640528 0.640528 0.640528
0.649317 0.649317 0.649317
0.653834 0.653834 0.653834
0.657969 0.657969 0.657969
0.42446 0.42446 0.42446
0.430411 0.430411 0.430411
0.432624 0.432624 0.432624
0.435309 0.435309 0.435309
0.438376 0.438376 0.438376
0.442161 0.442161 0.442161
0.446525 0.446525 0.446525
0.451286 0.451286 0.451286
0.456275 0.456275 0.456275
0.461601 0.461601 0.461601
0.467277 0.467277 0.467277
0.47335 0.47335 0.47335
0.480171 0.480171 0.480171
0.487434 0.487434 0.487434
0.495262 0.495262 0.495262
0.503532 0.503532 0.503532
0.512612 0.512612 0.512612
0.521675 0.521675 0.521675
0.530739 0.530739 0.530739
0.540658 0.540658 0.540658
0.551141 0.551141 0.551141
0.562051 0.562051 0.562051
0.573541 0.573541 0.573541
0.585367 0.585367 0.585367
0.597589 0.597589 0.597589
0.609934 0.609934 0.609934
0.623026 0.623026 0.623026
0.636057 0.636057 0.636057
0.648966 0.648966 0.648966
0.660365 0.660365 0.660365
0.66804 0.66804 0.66804
0.671687 0.671687 0.671687
0.674861 0.674861 0.674861
0.465293 0.465293 0.465293
0.469886 0.469886 0.469886
0.471672 0.471672 0.471672
0.474174 0.474174 0.474174
0.477012 0.477012 0.477012
0.480385 0.480385 0.480385
0.484489 0.484489 0.484489
0.488716 0.488716 0.488716
0.492821 0.492821 0.492821
0.497154 0.497154 0.497154
0.50251 0.50251 0.50251
0.508293 0.508293 0.508293
0.514717 0.514717 0.514717
0.521569 0.521569 0.521569
0.528756 0.528756 0.528756
0.536477 0.536477 0.536477
0.544472 0.544472 0.544472
0.553048 0.553048 0.553048
0.561929 0.561929 0.561929
0.571221 0.571221 0.571221
0.580804 0.580804 0.580804
0.59089 0.59089 0.59089
0.601541 0.601541 0.601541
0.61265 0.61265 0.61265
0.623423 0.623423 0.623423
0.634989 0.634989 0.634989
0.647486 0.647486 0.647486
0.659327 0.659327 0.659327
0.671107 0.671107 0.671107
0.681559 0.681559 0.681559
0.687358 0.687358 0.687358
0.690379 0.690379 0.690379
0.692424 0.692424 0.692424
0.504158 0.504158 0.504158
0.508614 0.508614 0.508614
0.510597 0.510597 0.510597
0.512947 0.512947 0.512947
0.515572 0.515572 0.515572
0.518639 0.518639 0.518639
0.521813 0.521813 0.521813
0.525216 0.525216 0.525216
0.529046 0.529046 0.529046
0.533944 0.533944 0.533944
0.538979 0.538979 0.538979
0.544549 0.544549 0.544549
0.550271 0.550271 0.550271
0.556619 0.556619 0.556619
0.563073 0.563073 0.563073
0.569787 0.569787 0.569787
0.577203 0.577203 0.577203
0.584741 0.584741 0.584741
0.592905 0.592905 0.592905
0.601221 0.601221 0.601221
0.609735 0.609735 0.609735
0.619501 0.619501 0.619501
0.629023 0.629023 0.629023
0.638605 0.638605 0.638605
0.649454 0.649454 0.649454
0.660868 0.660868 0.660868
0.671809 0.671809 0.671809
0.682353 0.682353 0.682353
0.693111 0.693111 0.693111
0.70277 0.70277 0.70277
0.70753 0.70753 0.70753
0.709667 0.709667 0.709667
0.711162 0.711162 0.711162
0.542489 0.542489 0.542489
0.546548 0.546548 0.546548
0.548424 0.548424 0.548424
0.550484 0.550484 0.550484
0.552987 0.552987 0.552987
0.555581 0.555581 0.555581
0.558434 0.558434 0.558434
0.561593 0.561593 0.561593
0.565652 0.565652 0.565652
0.569818 0.569818 0.569818
0.574228 0.574228 0.574228
0.578866 0.578866 0.578866
0.584192 0.584192 0.584192
0.589837 0.589837 0.589837
0.595956 0.595956 0.595956
0.602228 0.602228 0.602228
0.608881 0.608881 0.608881
0.615991 0.615991 0.615991
0.623407 0.623407 0.623407
0.631144 0.631144 0.631144
0.63946 0.63946 0.63946
0.648173 0.648173 0.648173
0.65655 0.65655 0.65655
0.665583 0.665583 0.665583
0.675349 0.675349 0.675349
0.685878 0.685878 0.685878
0.695506 0.695506 0.695506
0.705364 0.705364 0.705364
0.715053 0.715053 0.715053
0.723308 0.723308 0.723308
0.727855 0.727855 0.727855
0.728939 0.728939 0.728939
0.728985 0.728985 0.728985
0.579965 0.579965 0.579965
0.583413 0.583413 0.583413
0.584787 0.584787 0.584787
0.586542 0.586542 0.586542
0.5888 0.5888 0.5888
0.591379 0.591379 0.591379
0.594308 0.594308 0.594308
0.597391 0.597391 0.597391
0.600778 0.600778 0.600778
0.604639 0.604639 0.604639
0.608743 0.608743 0.608743
0.613077 0.613077 0.613077
0.617746 0.617746 0.617746
0.623133 0.623133 0.623133
0.628748 0.628748 0.628748
0.634424 0.634424 0.634424
0.640375 0.640375 0.640375
0.64686 0.64686 0.64686
0.65359 0.65359 0.65359
0.660639 0.660639 0.660639
0.668421 0.668421 0.668421
0.676265 0.676265 0.676265
0.684215 0.684215 0.684215
0.692561 0.692561 0.692561
0.701762 0.701762 0.701762
0.711131 0.711131 0.711131
0.720104 0.720104 0.720104
0.729046 0.729046 0.729046
0.737957 0.737957 0.737957
0.745327 0.745327 0.745327
0.748241 0.748241 0.748241
0.748531 0.748531 0.748531
0.747204 0.747204 0.747204
0.61593 0.61593 0.61593
0.61941 0.61941 0.61941
0.620951 0.620951 0.620951
0.622614 0.622614 0.622614
0.624598 0.624598 0.624598
0.626825 0.626825 0.626825
0.629145 0.629145 0.629145
0.63183 0.63183 0.63183
0.635126 0.635126 0.635126
0.638697 0.638697 0.638697
0.642359 0.642359 0.642359
0.646174 0.646174 0.646174
0.650446 0.650446 0.650446
0.654963 0.654963 0.654963
0.660029 0.660029 0.660029
0.665522 0.665522 0.665522
0.671046 0.671046 0.671046
0.676936 0.676936 0.676936
0.68333 0.68333 0.68333
0.68986 0.68986 0.68986
0.696788 0.696788 0.696788
0.703685 0.703685 0.703685
0.711177 0.711177 0.711177
0.719448 0.719448 0.719448
0.727581 0.727581 0.727581
0.735866 0.735866 0.735866
0.744396 0.744396 0.744396
0.753002 0.753002 0.753002
0.761456 0.761456 0.761456
0.768414 0.768414 0.768414
0.769177 0.769177 0.769177
0.768154 0.768154 0.768154
0.765286 0.765286 0.765286
0.650904 0.650904 0.650904
0.654261 0.654261 0.654261
0.65565 0.65565 0.65565
0.657053 0.657053 0.657053
0.658686 0.658686 0.658686
0.660456 0.660456 0.660456
0.66302 0.66302 0.66302
0.665873 0.665873 0.665873
0.668849 0.668849 0.668849
0.672084 0.672084 0.672084
0.675425 0.675425 0.675425
0.679271 0.679271 0.679271
0.683299 0.683299 0.683299
0.687526 0.687526 0.687526
0.691768 0.691768 0.691768
0.696422 0.696422 0.696422
0.701289 0.701289 0.701289
0.706859 0.706859 0.706859
0.71252 0.71252 0.71252
0.718685 0.718685 0.718685
0.724758 0.724758 0.724758
0.731044 0.731044 0.731044
0.738445 0.738445 0.738445
0.745892 0.745892 0.745892
0.753658 0.753658 0.753658
0.761166 0.761166 0.761166
0.769085 0.769085 0.769085
0.776791 0.776791 0.776791
0.783978 0.783978 0.783978
0.789014 0.789014 0.789014
0.789425 0.789425 0.789425
0.787213 0.787213 0.787213
0.782986 0.782986 0.782986
0.685618 0.685618 0.685618
0.688609 0.688609 0.688609
0.689723 0.689723 0.689723
0.691081 0.691081 0.691081
0.69276 0.69276 0.69276
0.694728 0.694728 0.694728
0.696773 0.696773 0.696773
0.699123 0.699123 0.699123
0.701701 0.701701 0.701701
0.704524 0.704524 0.704524
0.707561 0.707561 0.707561
0.710765 0.710765 0.710765
0.714412 0.714412 0.714412
0.718425 0.718425 0.718425
0.722545 0.722545 0.722545
0.726741 0.726741 0.726741
0.731334 0.731334 0.731334
0.736156 0.736156 0.736156
0.741634 0.741634 0.741634
0.74728 0.74728 0.74728
0.753323 0.753323 0.753323
0.759518 0.759518 0.759518
0.765728 0.765728 0.765728
0.772641 0.772641 0.772641
0.779416 0.779416 0.779416
0.786633 0.786633 0.786633
0.794568 0.794568 0.794568
0.801541 0.801541 0.801541
0.807691 0.807691 0.807691
0.810346 0.810346 0.810346
0.809903 0.809903 0.809903
0.805844 0.805844 0.805844
0.800259 0.800259 0.800259
0.719875 0.719875 0.719875
0.722438 0.722438 0.722438
0.723384 0.723384 0.723384
0.724529 0.724529 0.724529
0.725872 0.725872 0.725872
0.727443 0.727443 0.727443
0.729473 0.729473 0.729473
0.731624 0.731624 0.731624
0.734081 0.734081 0.734081
0.736767 0.736767 0.736767
0.739773 0.739773 0.739773
0.742931 0.742931 0.742931
0.746029 0.746029 0.746029
0.74963 0.74963 0.74963
0.753689 0.753689 0.753689
0.757885 0.757885 0.757885
0.762127 0.762127 0.762127
0.766537 0.766537 0.766537
0.770916 0.770916 0.770916
0.775998 0.775998 0.775998
0.781323 0.781323 0.781323
0.787121 0.787121 0.787121
0.793149 0.793149 0.793149
0.799405 0.799405 0.799405
0.805753 0.805753 0.805753
0.812543 0.812543 0.812543
0.81915 0.81915 0.81915
0.825223 0.825223 0.825223
0.830381 0.830381 0.830381
0.832456 0.832456 0.832456
0.829282 0.829282 0.829282
0.824857 0.824857 0.824857
0.818051 0.818051 0.818051
0.752544 0.752544 0.752544
0.755032 0.755032 0.755032
0.7561 0.7561 0.7561
0.757275 0.757275 0.757275
0.758679 0.758679 0.758679
0.760189 0.760189 0.760189
0.761898 0.761898 0.761898
0.763912 0.763912 0.763912
0.766079 0.766079 0.766079
0.768505 0.768505 0.768505
0.771008 0.771008 0.771008
0.773709 0.773709 0.773709
0.776654 0.776654 0.776654
0.780163 0.780163 0.780163
0.783734 0.783734 0.783734
0.78735 0.78735 0.78735
0.791119 0.791119 0.791119
0.795102 0.795102 0.795102
0.799329 0.799329 0.799329
0.803479 0.803479 0.803479
0.808347 0.808347 0.808347
0.813748 0.813748 0.813748
0.819608 0.819608 0.819608
0.825132 0.825132 0.825132
0.830655 0.830655 0.830655
0.836378 0.836378 0.836378
0.842084 0.842084 0.842084
0.847532 0.847532 0.847532
0.851255 0.851255 0.851255
0.851637 0.851637 0.851637
0.848463 0.848463 0.848463
0.843046 0.843046 0.843046
0.83566 0.83566 0.83566
0.782666 0.782666 0.782666
0.784787 0.784787 0.784787
0.785733 0.785733 0.785733
0.78677 0.78677 0.78677
0.787976 0.787976 0.787976
0.789288 0.789288 0.789288
0.790921 0.790921 0.790921
0.792676 0.792676 0.792676
0.794568 0.794568 0.794568
0.796841 0.796841 0.796841
0.799207 0.799207 0.799207
0.801846 0.801846 0.801846
0.804746 0.804746 0.804746
0.807782 0.807782 0.807782
0.810513 0.810513 0.810513
0.813519 0.813519 0.813519
0.817502 0.817502 0.817502
0.821408 0.821408 0.821408
0.824933 0.824933 0.824933
0.829038 0.829038 0.829038
0.833646 0.833646 0.833646
0.838376 0.838376 0.838376
0.843168 0.843168 0.843168
0.848219 0.848219 0.848219
0.853086 0.853086 0.853086
0.858305 0.858305 0.858305
0.863569 0.863569 0.863569
0.867613 0.867613 0.867613
0.870909 0.870909 0.870909
0.871672 0.871672 0.871672
0.867048 0.867048 0.867048
0.861295 0.861295 0.861295
0.85333 0.85333 0.85333
0.807645 0.807645 0.807645
0.809873 0.809873 0.809873
0.810834 0.810834 0.810834
0.811734 0.811734 0.811734
0.812757 0.812757 0.812757
0.813855 0.813855 0.813855
0.815076 0.815076 0.815076
0.8168 0.8168 0.8168
0.81886 0.81886 0.81886
0.821103 0.821103 0.821103
0.823392 0.823392 0.823392
0.825788 0.825788 0.825788
0.82826 0.82826 0.82826
0.830747 0.830747 0.830747
0.833387 0.833387 0.833387
0.836698 0.836698 0.836698
0.840116 0.840116 0.840116
0.84361 0.84361 0.84361
0.847257 0.847257 0.847257
0.850919 0.850919 0.850919
0.854917 0.854917 0.854917
0.859174 0.859174 0.859174
0.864012 0.864012 0.864012
0.868788 0.868788 0.868788
0.872831 0.872831 0.872831
0.877836 0.877836 0.877836
0.882506 0.882506 0.882506
0.886625 0.886625 0.886625
0.889891 0.889891 0.889891
0.889967 0.889967 0.889967
0.885954 0.885954 0.885954
0.879606 0.879606 0.879606
0.870527 0.870527 0.870527
0.828229 0.828229 0.828229
0.829892 0.829892 0.829892
0.830594 0.830594 0.830594
