app/src/main/assets/luts/astia.cube
TITLE "Generated by Resolve"
LUT_3D_SIZE 33
0 0 0
0.0344854 0.0037995 0.000289921
0.0475776 0.00450141 0.000122072
0.0632334 0.00430304 0.000793469
0.0795758 0.00549325 0.000411994
0.102556 0.00772107 0.000488289
0.129686 0.00799573 0.000640879
0.160906 0.0102083 0.000335698
0.19472 0.0133211 0.000335698
0.236027 0.0151369 0.00030518
0.281071 0.016022 0.000213626
0.324636 0.0166629 0.000244144
0.371466 0.0168002 1.5259e-05
0.421668 0.0167544 0
0.474006 0.0170443 7.62951e-05
0.527504 0.0158694 0.000259403
0.583093 0.0149538 0.000213626
0.631235 0.0139162 0.000503548
0.672358 0.0138705 0.00129702
0.711238 0.0139162 0.00285344
0.753079 0.0123751 0.0119631
0.792462 0.0129854 0.0201572
0.8309 0.0113375 0.0344244
0.868818 0.0113985 0.0528878
0.906325 0.00950637 0.072694
0.945434 0.00813306 0.0975662
0.98114 0.00706493 0.130785
0.999573 0.00375372 0.167666
0.999741 0.00628672 0.212726
0.999527 0.000213626 0.264912
0.999924 0.000808728 0.321218
0.999969 0 0.331563
0.999573 6.10361e-05 0.333501
0.00975052 0.0436408 0.00216678
0.0458228 0.0452277 0.000167849
0.061738 0.046128 4.57771e-05
0.0775158 0.0480354 0.000518807
0.100923 0.0480659 0.000122072
0.126192 0.0496223 0.000183108
0.152895 0.0502937 4.57771e-05
0.187137 0.0504768 0.000366217
0.225727 0.0523384 9.15541e-05
0.27013 0.0528267 0.000183108
0.313985 0.0540322 0.000198367
0.360418 0.0538796 9.15541e-05
0.407218 0.0536812 0.000350958
0.452018 0.055314 0.000396735
0.497139 0.0560922 0.000274662
0.541711 0.0568246 0.000488289
0.587198 0.0568551 0.000122072
0.629053 0.0584726 0.000122072
0.6701 0.0585946 0.000137331
0.710063 0.0586099 6.10361e-05
0.749859 0.0593881 0.000457771
0.78648 0.0601816 0.00337224
0.822522 0.0601816 0.014847
0.859632 0.0593881 0.0320897
0.896544 0.0584268 0.0516213
0.93576 0.0559548 0.0778973
0.978744 0.054078 0.108415
0.994873 0.049424 0.142321
0.999496 0.0417945 0.184405
0.99968 0.0330205 0.236591
0.999786 0.0218967 0.28542
0.999573 0.0128481 0.306203
0.99971 0.014435 0.305089
0.0138399 0.0602121 0.00120546
0.0505989 0.0628367 0.000793469
0.0665599 0.0636912 0.000564584
0.0844129 0.0643778 0.000457771
0.106966 0.0652476 0.000366217
0.132525 0.0655985 0.000122072
0.161746 0.0657664 6.10361e-05
0.195544 0.0678416 0.000350958
0.236271 0.0694591 0.00030518
0.279255 0.0683909 0.000274662
0.325002 0.0703899 9.15541e-05
0.368765 0.0698711 0
0.409201 0.0716716 3.0518e-05
0.453361 0.0727245 6.10361e-05
0.498116 0.0734874 0.00015259
0.543343 0.0742809 0.00015259
0.586587 0.076463 0
0.629664 0.0769818 0.000122072
0.669856 0.0766613 6.10361e-05
0.709041 0.0768597 7.62951e-05
0.746517 0.0798505 0.000137331
0.783642 0.0807965 0.00077821
0.820813 0.0794995 0.0112917
0.857542 0.0797284 0.0245212
0.894621 0.0798657 0.0433204
0.933028 0.0779278 0.0708171
0.975219 0.0755779 0.099382
0.993469 0.0708629 0.132036
0.999512 0.0627909 0.175555
0.999512 0.0504768 0.228183
0.999771 0.0406958 0.273915
0.999619 0.0336004 0.297108
0.999619 0.0296025 0.296071
0.0171511 0.0832532 0.00137331
0.0563821 0.082948 0.000320439
0.071458 0.0843214 0.000244144
0.0913405 0.0848554 0.000122072
0.11339 0.0853742 7.62951e-05
0.139162 0.0860914 0.000167849
0.170214 0.0868849 0.000335698
0.20621 0.0882277 0.000274662
0.247288 0.0887312 0.000122072
0.289754 0.0890669 0.000259403
0.330236 0.0904402 0.000442512
0.369436 0.0922713 0
0.411933 0.0939498 0.00015259
0.455619 0.0943465 0.000198367
0.500633 0.0955367 0.000350958
0.544945 0.0975052 0.00030518
0.586572 0.0988479 4.57771e-05
0.630808 0.0988327 0.000183108
0.669612 0.0992599 0.000106813
0.707424 0.101259 1.5259e-05
0.743877 0.103777 0
0.781445 0.105196 0
0.818891 0.104936 0.00407416
0.855924 0.104891 0.0151217
0.892775 0.104585 0.0354772
0.929946 0.10425 0.060914
0.972641 0.10222 0.0864881
0.993164 0.0961624 0.120897
0.999542 0.0878309 0.165789
0.999817 0.0780499 0.215412
0.999786 0.0662394 0.262074
0.999619 0.0566567 0.288029
0.999573 0.052491 0.287129
0.0226596 0.10898 0.000244144
0.0598154 0.109255 3.0518e-05
0.0757458 0.110307 4.57771e-05
0.0961776 0.112398 9.15541e-05
0.120226 0.113008 0.000122072
0.148058 0.112337 0.000244144
0.177401 0.112749 0.000335698
0.214389 0.114076 9.15541e-05
0.253452 0.114031 0.00030518
0.293629 0.114168 0.000274662
0.333913 0.115572 0
0.373907 0.117769 4.57771e-05
0.4159 0.119997 0.000259403
0.459068 0.119417 0.000350958
0.502998 0.122072 0.000320439
0.546715 0.123949 0.000228885
0.590219 0.124514 0.000183108
0.631006 0.124773 0.000167849
0.670024 0.126787 1.5259e-05
0.707149 0.129641 0
0.743526 0.131868 0
0.78024 0.133349 4.57771e-05
0.816831 0.133776 0.000411994
0.853147 0.134066 0.00965896
0.889342 0.133989 0.0252079
0.927092 0.134173 0.0488746
0.968566 0.131533 0.0751812
0.993576 0.126329 0.11107
0.999695 0.118517 0.153536
0.999863 0.109102 0.201694
0.999496 0.0961471 0.251255
0.999344 0.0852827 0.280156
0.999756 0.0790265 0.277989
0.0281987 0.141054 0.000167849
0.0669566 0.142702 0.000198367
0.0820478 0.143282 0.00030518
0.103548 0.144106 0.000167849
0.126589 0.144518 0.00030518
0.153231 0.144625 0.000457771
0.185489 0.144533 0.000457771
0.222309 0.144045 0.000518807
0.260182 0.145144 0.000167849
0.299611 0.147036 3.0518e-05
0.340215 0.148241 4.57771e-05
0.380667 0.149294 0.000228885
0.422034 0.149599 0.000289921
0.464347 0.149752 9.15541e-05
0.507591 0.151919 6.10361e-05
0.550622 0.153735 4.57771e-05
0.59234 0.155337 3.0518e-05
0.632288 0.156695 1.5259e-05
0.670237 0.159152 0
0.705989 0.160861 0.000137331
0.741955 0.162478 0.000137331
0.778317 0.164706 0
0.81445 0.167269 0
0.850935 0.168002 0.00332647
0.887266 0.168048 0.0161746
0.9243 0.166735 0.0363165
0.963088 0.164706 0.0632639
0.996078 0.161212 0.0964065
0.999817 0.153964 0.138613
0.999542 0.142596 0.187137
0.999268 0.129305 0.241337
0.999451 0.119265 0.267109
0.999725 0.111116 0.266423
0.0323339 0.182788 0.000122072
0.0722972 0.181781 7.62951e-05
0.0911421 0.181323 3.0518e-05
0.111254 0.181003 6.10361e-05
0.132555 0.181353 0.000183108
0.160678 0.180072 0.000579843
0.192523 0.180194 0.000946059
0.229862 0.179675 0.000518807
0.268772 0.180194 0
0.306538 0.18262 1.5259e-05
0.346609 0.183139 9.15541e-05
0.38706 0.183566 0.000183108
0.428565 0.184482 9.15541e-05
0.471199 0.185702 0
0.513283 0.18703 0
0.554849 0.18735 0
0.594736 0.189685 0
0.633097 0.192874 0
0.669886 0.196643 3.0518e-05
0.705425 0.198169 0.00015259
0.741878 0.199695 7.62951e-05
0.777935 0.201801 0
0.812375 0.205264 3.0518e-05
0.848859 0.206165 0.000213626
0.884565 0.206287 0.00706493
0.922011 0.204898 0.0222782
0.960006 0.202609 0.0493477
0.99765 0.200504 0.0799115
0.999298 0.193057 0.121126
0.999405 0.181842 0.171801
0.999283 0.168643 0.228534
0.999634 0.157076 0.251331
0.99968 0.146685 0.253803
0.0399786 0.228153 0.000106813
0.0817884 0.225132 0.000335698
0.0995651 0.224018 0.000427253
0.118471 0.222873 0.000244144
0.142489 0.223072 0.000137331
0.169986 0.223133 6.10361e-05
0.201724 0.222324 6.10361e-05
0.239475 0.221469 0.000213626
0.277562 0.223423 0.000167849
0.315877 0.224216 0.000213626
0.354849 0.223911 0.000259403
0.394095 0.225055 3.0518e-05
0.434195 0.226596 0.000122072
0.474937 0.227771 0.000122072
0.516487 0.228214 0.000137331
0.557931 0.229465 0
0.596735 0.232242 0
0.634272 0.235721 7.62951e-05
0.670619 0.238773 0.000198367
0.705257 0.239887 9.15541e-05
0.742184 0.242725 0.000137331
0.777096 0.245426 0.000137331
0.811643 0.247501 0.000213626
0.845487 0.248157 0.000320439
0.8813 0.248188 0.00161746
0.917998 0.248096 0.0128023
0.957107 0.247318 0.0334783
0.991974 0.243519 0.0664225
0.99968 0.235477 0.103288
0.999405 0.225483 0.155947
0.999512 0.212299 0.211902
0.999817 0.198871 0.23505
0.999725 0.18529 0.241321
0.045182 0.278538 0.000167849
0.0886854 0.276356 0.000366217
0.105806 0.275929 0.000274662
0.127306 0.274907 0.000396735
0.152316 0.273487 0.000610361
0.181247 0.272831 0.000457771
0.214237 0.271763 0.000442512
0.249378 0.271931 0.000366217
0.287114 0.273014 0.000167849
0.326055 0.27216 7.62951e-05
0.363592 0.271809 1.5259e-05
0.401587 0.272114 0.000137331
0.441596 0.274418 0.000518807
0.48069 0.274601 0.000427253
0.521431 0.275105 0.000198367
0.562188 0.276127 0
0.600412 0.278187 6.10361e-05
0.636606 0.281987 0.00030518
0.671763 0.283864 0.000183108
0.706767 0.285969 1.5259e-05
0.742031 0.288182 4.57771e-05
0.77673 0.290089 0.000106813
0.810117 0.291371 0.000106813
0.842557 0.292561 4.57771e-05
0.877943 0.292897 7.62951e-05
0.915373 0.29279 0.00582895
0.954681 0.290608 0.0235599
0.98587 0.286091 0.0515602
0.999542 0.27924 0.0881819
0.99942 0.271046 0.137835
0.999756 0.257618 0.19408
0.999786 0.243198 0.219898
0.999374 0.23125 0.223957
0.0538338 0.330602 0.000854505
0.0952163 0.329 0.0010071
0.115908 0.32639 0.00047303
0.138491 0.323964 4.57771e-05
0.163226 0.323339 0.00030518
0.191897 0.322942 0.00030518
0.224491 0.323339 0.00015259
0.261524 0.321965 0.00030518
0.298756 0.321828 0.000228885
0.335958 0.321813 0.00015259
0.371267 0.321157 4.57771e-05
0.409934 0.321675 0.000228885
0.449332 0.321859 0.000411994
0.489372 0.321798 0.000701915
0.527291 0.323064 0.000198367
0.565728 0.325475 0.000213626
0.603937 0.327245 0.000350958
0.639246 0.328054 0.000289921
0.674266 0.330068 0.000122072
0.708858 0.332189 6.10361e-05
0.742733 0.334279 0.000228885
0.776516 0.335119 7.62951e-05
0.809125 0.336431 0
0.842832 0.337728 7.62951e-05
0.87718 0.338521 0.000350958
0.913314 0.337087 0.000885023
0.952193 0.334676 0.0133059
0.982818 0.330236 0.0361639
0.999298 0.324086 0.0739452
0.999359 0.317266 0.121782
0.999466 0.304936 0.172717
0.999557 0.289494 0.202594
0.9991 0.275425 0.20763
0.0620279 0.383139 0.000411994
0.108766 0.379583 0.00047303
0.127581 0.378729 0.000457771
0.148104 0.377386 0.000198367
0.173892 0.376364 0.00015259
0.204654 0.375845 0.000396735
0.238636 0.374517 0.00030518
0.27393 0.373495 0.000198367
0.310109 0.37258 0.00015259
0.344991 0.372229 3.0518e-05
0.380713 0.371908 1.5259e-05
0.418006 0.371008 0.000106813
0.456703 0.370703 0.000381476
0.495552 0.371023 0.000335698
0.534874 0.371939 0.000213626
0.573022 0.372259 0.000183108
0.608301 0.374624 7.62951e-05
0.642145 0.377722 3.0518e-05
0.67686 0.37789 1.5259e-05
0.710262 0.379004 0.000228885
0.743236 0.380255 0.000274662
0.777157 0.381964 0.000106813
0.809934 0.382376 0.000213626
0.842496 0.382437 0.000228885
0.875181 0.3823 0
0.910842 0.382574 0.000122072
0.949645 0.379721 0.00402838
0.983871 0.374701 0.0276493
0.99971 0.369024 0.0637827
0.999588 0.36141 0.109392
0.999161 0.34963 0.155444
0.999496 0.334325 0.185718
0.99913 0.319478 0.193057
0.0743114 0.43389 0.00030518
0.122225 0.430808 0.000228885
0.141115 0.429831 0.000106813
0.163409 0.428504 0.000122072
0.188296 0.427359 0.000228885
0.218738 0.425605 0.000396735
0.251728 0.423438 0.000457771
0.285893 0.423209 0.000259403
0.3205 0.422843 0.000167849
0.354772 0.422492 0.000106813
0.390967 0.421683 0.000213626
0.427924 0.421149 0.000228885
0.46537 0.42121 7.62951e-05
0.503944 0.421012 0.000198367
0.541466 0.420981 0.000244144
0.577874 0.420676 3.0518e-05
0.611887 0.422705 0.000259403
0.646723 0.423621 0.000213626
0.680705 0.42385 7.62951e-05
0.71194 0.42501 0.000137331
0.744915 0.426398 0.000167849
0.777737 0.42742 0.000213626
0.809628 0.42771 0.000228885
0.841566 0.427268 6.10361e-05
0.87483 0.427131 0.000259403
0.909422 0.426551 0.000762951
0.946914 0.423331 0.00262455
0.986374 0.41828 0.0205386
0.997879 0.412436 0.0525978
0.999374 0.404562 0.0946975
0.99942 0.393256 0.141405
0.999634 0.379294 0.171893
0.999893 0.36289 0.177859
0.0879683 0.487144 0.000457771
0.135195 0.482841 6.10361e-05
0.154925 0.482231 0.000228885
0.176699 0.481621 0.000396735
0.204776 0.479896 0.00030518
0.236011 0.478019 0.000122072
0.267094 0.477104 0.000213626
0.299596 0.475883 0.000274662
0.33315 0.474571 9.15541e-05
0.367742 0.473487 7.62951e-05
0.402564 0.472923 0.000289921
0.438788 0.471778 0.000213626
0.475486 0.471321 0.000137331
0.512413 0.471641 9.15541e-05
0.547997 0.471168 3.0518e-05
0.583062 0.470771 6.10361e-05
0.616968 0.470481 0.000213626
0.649851 0.470878 0.000244144
0.682292 0.471229 0.000137331
0.714946 0.471977 6.10361e-05
0.746868 0.472389 3.0518e-05
0.77821 0.47277 3.0518e-05
0.809674 0.472953 4.57771e-05
0.841703 0.472389 0.000244144
0.873976 0.471824 0.000228885
0.907881 0.469429 0.000457771
0.944823 0.465843 0.00224308
0.985901 0.461677 0.0102541
0.997009 0.455253 0.0395209
0.999329 0.448081 0.0838636
0.99942 0.436866 0.137133
0.999725 0.42179 0.159716
0.999435 0.404593 0.163745
0.103853 0.539132 0.00077821
0.153674 0.536599 0.000228885
0.17435 0.535317 1.5259e-05
0.198505 0.533852 4.57771e-05
0.224994 0.532128 7.62951e-05
0.252384 0.53077 0.00015259
0.28191 0.529625 0.000198367
0.313863 0.527367 7.62951e-05
0.346807 0.525368 0.000106813
0.379858 0.524712 0.000457771
0.41384 0.523384 0.000381476
0.448081 0.521828 9.15541e-05
0.48452 0.520958 6.10361e-05
0.520714 0.520226 3.0518e-05
0.556237 0.519936 0
0.589212 0.519646 0.000137331
0.621714 0.519478 0.000183108
0.653956 0.518364 1.5259e-05
0.686 0.518624 0
0.717739 0.518563 1.5259e-05
0.748669 0.51809 6.10361e-05
0.779507 0.518471 9.15541e-05
0.810361 0.518105 0.000167849
0.841459 0.517555 0.000213626
0.873289 0.516106 0.000183108
0.907317 0.513512 0.000137331
0.944549 0.5093 0.0021973
0.979095 0.50454 0.010071
0.999237 0.499428 0.0323186
0.9991 0.491508 0.0760052
0.999298 0.480644 0.132601
0.999741 0.463676 0.144991
0.999435 0.447028 0.148531
0.123751 0.589868 0.000289921
0.172244 0.58674 0.000183108
0.191012 0.58526 0.000137331
0.212924 0.584024 0.000122072
0.239078 0.582971 9.15541e-05
0.267384 0.581704 4.57771e-05
0.297063 0.57966 3.0518e-05
0.328283 0.577844 4.57771e-05
0.359335 0.575875 0.000198367
0.391608 0.573861 0.000259403
0.423926 0.571923 9.15541e-05
0.458762 0.570901 1.5259e-05
0.494804 0.57055 4.57771e-05
0.529412 0.568719 7.62951e-05
0.563272 0.567651 0.000228885
0.595712 0.56788 0.00047303
0.627115 0.566979 0.000320439
0.657923 0.566445 0.000137331
0.688396 0.566751 1.5259e-05
0.719554 0.56582 0
0.750637 0.564965 1.5259e-05
0.780957 0.564172 7.62951e-05
0.8112 0.562936 3.0518e-05
0.842039 0.561227 6.10361e-05
0.873823 0.55877 0.000122072
0.907118 0.55552 0.000122072
0.944366 0.551888 0.00180056
0.978408 0.547845 0.00955215
0.999496 0.542031 0.0310063
0.99971 0.534173 0.0721294
0.999283 0.522332 0.118318
0.999695 0.506401 0.133669
0.999405 0.490745 0.141482
0.141772 0.63859 0.00015259
0.186725 0.635935 0.000442512
0.208011 0.633799 0.000289921
0.231739 0.631724 0.000137331
0.256916 0.630152 4.57771e-05
0.283055 0.629602 6.10361e-05
0.311192 0.628824 0.000167849
0.341711 0.626261 0.000595102
0.372793 0.623987 0.000793469
0.403662 0.622293 0.000350958
0.436225 0.620813 9.15541e-05
0.469703 0.61976 6.10361e-05
0.503243 0.617975 0.000106813
0.537133 0.615915 0.000198367
0.569482 0.614725 0.000335698
0.601572 0.613458 0.000335698
0.632975 0.612634 0.00015259
0.662913 0.612039 4.57771e-05
0.692714 0.611215 6.10361e-05
0.72282 0.610147 0.000335698
0.752834 0.609033 0.000228885
0.7832 0.607507 3.0518e-05
0.813184 0.605676 0.000228885
0.842847 0.603265 0.000289921
0.873808 0.600732 0.000274662
0.907378 0.597482 0.000274662
0.94551 0.593286 0.00030518
0.981262 0.589212 0.00582895
0.99736 0.583642 0.0282902
0.999283 0.57554 0.0672923
0.999664 0.564401 0.105241
0.999451 0.549722 0.124819
0.999268 0.533883 0.131304
0.160128 0.681407 9.15541e-05
0.208972 0.677638 0.000213626
0.227909 0.676295 0.000244144
0.249149 0.675517 0.000274662
0.273182 0.674708 0.000320439
0.298955 0.673487 0.000350958
0.326024 0.671626 0.000289921
0.354788 0.669535 0.000183108
0.385275 0.667491 0.000137331
0.4168 0.665354 9.15541e-05
0.447654 0.663874 6.10361e-05
0.47924 0.662623 9.15541e-05
0.511589 0.661723 0.000198367
0.544015 0.659953 0.00030518
0.57673 0.65774 0.000320439
0.607248 0.656535 0.000213626
0.63743 0.655421 0.00015259
0.667079 0.654261 0.000198367
0.696193 0.652583 0.000183108
0.725109 0.650828 7.62951e-05
0.754589 0.648875 1.5259e-05
0.78349 0.647486 6.10361e-05
0.81265 0.646235 0.000106813
0.843397 0.644022 3.0518e-05
0.87509 0.641138 6.10361e-05
0.908934 0.637186 7.62951e-05
0.9458 0.632654 0.000610361
0.983749 0.62945 0.00575265
0.996231 0.623041 0.0255741
0.999435 0.615061 0.0639963
0.999664 0.604181 0.10042
0.999527 0.59086 0.114824
0.999542 0.576852 0.12076
0.181689 0.720119 0.000518807
0.228092 0.717632 0.000656138
0.24625 0.716594 0.000534066
0.267292 0.71545 0.000381476
0.289464 0.713924 0.000335698
0.313756 0.71252 0.000320439
0.339895 0.710903 0.000259403
0.367163 0.709422 0.000137331
0.396246 0.708019 7.62951e-05
0.426551 0.706294 0.000289921
0.458076 0.704311 0.000549325
0.489693 0.702831 0.000610361
0.521279 0.701152 0.00047303
0.552193 0.699535 0.000167849
0.582223 0.697902 7.62951e-05
0.611658 0.696391 0.000106813
0.641169 0.695018 0.000106813
0.670436 0.693568 6.10361e-05
0.698802 0.691569 1.5259e-05
0.727504 0.689586 0
0.756542 0.687388 1.5259e-05
0.785718 0.685496 3.0518e-05
0.815167 0.683467 1.5259e-05
0.845106 0.680995 0
0.875685 0.678431 3.0518e-05
0.909148 0.675074 3.0518e-05
0.945663 0.671183 4.57771e-05
0.980331 0.666773 0.00370794
0.999069 0.661036 0.0205081
0.999573 0.65275 0.0617533
0.999817 0.643168 0.0999161
0.999191 0.629618 0.109361
0.99968 0.615488 0.117617
0.198352 0.757382 0.000549325
0.245991 0.754849 0.000503548
0.262715 0.753857 0.000396735
0.281743 0.752667 0.000274662
0.303166 0.751598 0.000122072
0.326314 0.750515 0.000167849
0.350973 0.749493 0.000320439
0.37789 0.748058 0.000503548
0.407111 0.745953 0.000686656
0.437659 0.743679 0.000808728
0.466819 0.741833 0.000640879
0.496925 0.739925 0.000503548
0.526955 0.738338 0.000427253
0.557717 0.736675 0.000320439
0.587366 0.734524 0.000137331
0.616693 0.733028 3.0518e-05
0.644968 0.732387 7.62951e-05
0.673121 0.730724 7.62951e-05
0.701595 0.728771 6.10361e-05
0.72929 0.726726 3.0518e-05
0.757839 0.724941 0
0.787091 0.72311 1.5259e-05
0.816037 0.720638 0
0.845792 0.71783 4.57771e-05
0.87715 0.714549 7.62951e-05
0.909941 0.711177 1.5259e-05
0.947906 0.707729 0.000183108
0.980743 0.703029 0.00329595
0.998688 0.696635 0.0225834
0.999451 0.689036 0.0594186
0.999512 0.67921 0.0939193
0.999573 0.666697 0.105287
0.999664 0.652338 0.113405
0.217929 0.793744 0.000549325
0.259861 0.791318 0.000579843
0.276341 0.790433 0.000595102
0.294835 0.789532 0.000564584
0.315358 0.78883 0.000442512
0.337942 0.788113 0.000274662
0.362631 0.786908 0.000167849
0.388678 0.785077 0.00015259
0.416526 0.783215 0.000137331
0.444389 0.781277 0.000213626
0.473823 0.779385 0.00030518
0.503731 0.777523 0.000167849
0.534722 0.775784 1.5259e-05
0.563333 0.774014 0
0.592462 0.772351 1.5259e-05
0.619623 0.771145 0.00015259
0.647593 0.769497 0.000213626
0.675944 0.767422 0.000259403
0.703624 0.76556 0.000183108
0.731838 0.763775 0
0.759945 0.761761 0.000183108
0.788678 0.759533 0.000244144
0.81796 0.757046 4.57771e-05
0.84741 0.753979 4.57771e-05
0.878477 0.750866 6.10361e-05
0.911955 0.747036 0.000259403
0.948943 0.742367 0.000534066
0.985763 0.737819 0.00383001
0.997101 0.731823 0.0233616
0.999115 0.724727 0.0608225
0.999512 0.71458 0.0879377
0.999542 0.703853 0.101091
0.999496 0.686381 0.113603
0.232792 0.829587 0.000518807
0.274296 0.827497 0.000289921
0.290211 0.826856 0.000274662
0.30811 0.826047 0.000259403
0.328573 0.825116 0.000259403
0.349996 0.823865 0.00030518
0.373312 0.82237 0.000350958
0.39852 0.820783 0.000381476
0.425071 0.819303 0.000335698
0.452827 0.817945 0.000274662
0.481743 0.816083 0.000137331
0.511757 0.814221 1.5259e-05
0.540154 0.812314 7.62951e-05
0.568536 0.810422 0.000198367
0.595926 0.809491 0.00015259
0.623774 0.808927 1.5259e-05
0.650141 0.806348 0.000106813
0.677653 0.803815 0.000167849
0.70634 0.801617 0.000122072
0.734295 0.799527 0.000274662
0.762036 0.79736 0.000457771
0.790463 0.795102 0.000381476
0.818998 0.792706 0.000274662
0.848341 0.789563 1.5259e-05
0.879454 0.785794 0.000244144
0.912993 0.781765 0.000259403
0.948974 0.77734 0.000411994
0.982544 0.773114 0.00317388
0.99884 0.767407 0.0217288
0.999496 0.760159 0.0629435
0.999023 0.750744 0.0856184
0.999176 0.737438 0.10013
0.999237 0.717266 0.110811
0.246708 0.865202 0.000122072
0.287053 0.863569 0.000122072
0.3028 0.862898 0.000167849
0.319783 0.861784 0.000244144
0.338933 0.860609 0.000350958
0.360678 0.85919 0.00047303
0.383413 0.858045 0.000381476
0.407782 0.856733 0.000198367
0.434043 0.855192 1.5259e-05
0.46067 0.853788 1.5259e-05
0.488579 0.852293 0
0.516091 0.850828 4.57771e-05
0.544762 0.849165 0.000122072
0.572274 0.847669 0.000122072
0.599832 0.845899 6.10361e-05
0.626841 0.843473 3.0518e-05
0.653727 0.841016 1.5259e-05
0.681102 0.839948 0.000137331
0.708675 0.838651 0.000228885
0.735683 0.835889 0.000244144
0.763165 0.833204 0.00030518
0.791424 0.830732 0.000518807
0.820218 0.827359 0.000213626
0.84947 0.823972 9.15541e-05
0.879591 0.820829 0.000183108
0.914061 0.816617 0.00015259
0.950637 0.81265 0.00158694
0.982422 0.807797 0.00790417
0.999359 0.802411 0.0277409
0.999268 0.795773 0.0610513
0.999191 0.78529 0.0845197
0.999496 0.768719 0.0970779
0.99913 0.747311 0.110124
0.258701 0.900511 0.000350958
0.2963 0.89839 0.000366217
0.311269 0.897429 0.000366217
0.328542 0.896422 0.000350958
0.346822 0.895445 0.00030518
0.366995 0.894469 0.000228885
0.389151 0.893309 0.000183108
0.413184 0.892195 0.000183108
0.438529 0.89102 0.000244144
0.465492 0.889906 0.00030518
0.492164 0.888395 0.000228885
0.519905 0.886763 0.000122072
0.547448 0.8851 6.10361e-05
0.57528 0.883238 3.0518e-05
0.602243 0.881315 3.0518e-05
0.62858 0.879194 7.62951e-05
0.65565 0.877638 0.000213626
0.683986 0.876371 0.00047303
0.709743 0.873823 0.000289921
0.735851 0.870954 0.000106813
0.764492 0.868193 0.00047303
0.792538 0.86537 0.000381476
0.82005 0.86244 1.5259e-05
0.849729 0.859373 9.15541e-05
0.88127 0.856138 7.62951e-05
0.914702 0.852918 0.000228885
0.951476 0.848447 0.00105287
0.986526 0.843565 0.0099794
0.997528 0.837629 0.0322271
0.999619 0.829862 0.0635996
0.999588 0.81651 0.0821088
0.999908 0.799023 0.0970779
0.999084 0.776394 0.108217
0.265354 0.936248 0.00015259
0.304006 0.934112 7.62951e-05
0.31783 0.933272 7.62951e-05
0.333898 0.932372 7.62951e-05
0.351934 0.931411 7.62951e-05
0.372534 0.930327 9.15541e-05
0.394049 0.929488 0.000198367
0.417838 0.928435 0.000320439
0.44303 0.92755 0.000442512
0.468452 0.926421 0.000518807
0.495781 0.925277 0.00062562
0.522576 0.923995 0.000518807
0.549355 0.922545 0.000228885
0.576379 0.920913 6.10361e-05
0.602716 0.918578 4.57771e-05
0.629511 0.916243 1.5259e-05
0.656947 0.913588 1.5259e-05
0.683467 0.911528 6.10361e-05
0.70988 0.909407 0.000167849
0.737102 0.906813 0.000213626
0.764767 0.904189 0.000183108
0.792218 0.901305 4.57771e-05
0.820935 0.898665 0
0.850599 0.896223 0
0.881132 0.892927 0
0.915267 0.88864 0
0.951537 0.883803 0.00140383
0.982651 0.878706 0.0103609
0.998978 0.87158 0.0351263
0.999054 0.862089 0.0654765
0.999542 0.846067 0.0822614
0.999161 0.828153 0.0944533
0.999237 0.804669 0.107485
0.270848 0.976684 0.000640879
0.307881 0.974487 0.000381476
0.322576 0.973739 0.000274662
0.339132 0.972854 0.000167849
0.356039 0.972152 0.000183108
0.374914 0.971252 0.000183108
0.395697 0.970352 0.000167849
0.418647 0.969055 0.000259403
0.443931 0.967178 0.000457771
0.470817 0.965362 0.000656138
0.497398 0.963638 0.000595102
0.524956 0.961929 0.000442512
0.55259 0.959915 0.00030518
0.579202 0.958022 0.000137331
0.606378 0.955947 1.5259e-05
0.6318 0.953384 9.15541e-05
0.657954 0.950988 0.000198367
0.683925 0.949035 0.000320439
0.710277 0.946838 0.000320439
0.736828 0.943923 0.000228885
0.764202 0.941543 0.000274662
0.791897 0.939391 0.000350958
0.819593 0.936385 0.000137331
0.84799 0.932326 3.0518e-05
0.877958 0.927749 0.000183108
0.910796 0.922774 0.000991836
0.945449 0.91696 0.00486763
0.979767 0.910048 0.0133822
0.996567 0.901396 0.033463
0.998993 0.890211 0.0594186
0.999176 0.874617 0.0786603
0.998917 0.856321 0.092958
0.998795 0.832319 0.107515
0.270085 0.996246 0.00047303
0.306416 0.995819 0.000411994
0.319814 0.995758 0.000335698
0.33547 0.995697 0.000244144
0.353216 0.995727 0.000122072
0.372885 0.995743 7.62951e-05
0.393805 0.995926 0.000183108
