app/src/main/assets/luts/astia.cube
TITLE "Generated by Resolve"
LUT_3D_SIZE 9
0 0 0
0.0795758 0.00549325 0.000411994
0.19472 0.0133211 0.000335698
0.371466 0.0168002 1.5259e-05
0.583093 0.0149538 0.000213626
0.753079 0.0123751 0.0119631
0.906325 0.00950637 0.072694
0.999741 0.00628672 0.212726
0.999573 6.10361e-05 0.333501
0.0226596 0.10898 0.000244144
0.120226 0.113008 0.000122072
0.253452 0.114031 0.00030518
0.4159 0.119997 0.000259403
0.590219 0.124514 0.000183108
0.743526 0.131868 0
0.889342 0.133989 0.0252079
0.999695 0.118517 0.153536
0.999756 0.0790265 0.277989
0.045182 0.278538 0.000167849
0.152316 0.273487 0.000610361
0.287114 0.273014 0.000167849
0.441596 0.274418 0.000518807
0.600412 0.278187 6.10361e-05
0.742031 0.288182 4.57771e-05
0.877943 0.292897 7.62951e-05
0.999542 0.27924 0.0881819
0.999374 0.23125 0.223957
0.0879683 0.487144 0.000457771
0.204776 0.479896 0.00030518
0.33315 0.474571 9.15541e-05
0.475486 0.471321 0.000137331
0.616968 0.470481 0.000213626
0.746868 0.472389 3.0518e-05
0.873976 0.471824 0.000228885
0.997009 0.455253 0.0395209
0.999435 0.404593 0.163745
0.160128 0.681407 9.15541e-05
0.273182 0.674708 0.000320439
0.385275 0.667491 0.000137331
0.511589 0.661723 0.000198367
0.63743 0.655421 0.00015259
0.754589 0.648875 1.5259e-05
0.87509 0.641138 6.10361e-05
0.996231 0.623041 0.0255741
0.999542 0.576852 0.12076
0.232792 0.829587 0.000518807
0.328573 0.825116 0.000259403
0.425071 0.819303 0.000335698
0.540154 0.812314 7.62951e-05
0.650141 0.806348 0.000106813
0.762036 0.79736 0.000457771
0.879454 0.785794 0.000244144
0.99884 0.767407 0.0217288
0.999237 0.717266 0.110811
0.270848 0.976684 0.000640879
0.356039 0.972152 0.000183108
0.443931 0.967178 0.000457771
0.55259 0.959915 0.00030518
0.657954 0.950988 0.000198367
0.764202 0.941543 0.000274662
0.877958 0.927749 0.000183108
0.996567 0.901396 0.033463
0.998795 0.832319 0.107515
0.210758 0.99971 0.000503548
0.286931 0.999756 0.000213626
0.371954 0.999634 0.000503548
0.478141 0.999649 1.5259e-05
0.589242 0.999649 0.000289921
0.697765 0.999741 0.000122072
0.815244 0.999786 9.15541e-05
0.957229 0.999771 0.0331731
0.995407 0.956237 0.0876783
0.264591 0.999588 0.196185
0.290883 0.999863 0.187427
0.324575 0.999634 0.179278
0.371847 0.999893 0.166827
0.439689 0.999802 0.152071
0.521737 0.999466 0.138079
0.622156 0.999832 0.123384
0.756848 0.999802 0.113542
0.987655 0.99942 0.108339
0.000183108 0.00561532 0.0738842
0.0973983 0.0106203 0.0847181
0.237217 0.013489 0.0878309
0.431296 0.0128786 0.0947585
0.630762 0.00962844 0.110231
0.786984 0.00610361 0.147692
0.932128 0.00108339 0.230488
0.999542 0.00166323 0.35169
0.999222 0 0.403967
0.00996414 0.129641 0.142733
0.124254 0.12694 0.124727
0.275456 0.126482 0.105989
0.449119 0.125078 0.096437
0.621469 0.126558 0.0985428
0.769863 0.130907 0.128023
0.910445 0.12874 0.195956
0.999161 0.107057 0.302235
0.999802 0.0781872 0.375433
0.0276188 0.304814 0.143221
0.147494 0.293706 0.117479
0.299428 0.287785 0.0958724
0.46128 0.285832 0.0788739
0.621454 0.287816 0.0769665
0.761669 0.290349 0.102861
0.895399 0.289265 0.158755
0.999603 0.270024 0.25066
0.999557 0.227665 0.334874
0.0693217 0.498604 0.140032
0.198199 0.488426 0.111147
0.335958 0.481529 0.0857252
0.485313 0.47538 0.0682689
0.630411 0.472953 0.0637369
0.759228 0.468818 0.0844434
0.885863 0.462562 0.127443
0.999054 0.443549 0.207553
0.999481 0.397604 0.286137
0.137545 0.673899 0.143664
0.259907 0.666621 0.114824
0.378027 0.660029 0.0932174
0.513375 0.652888 0.0729229
0.642161 0.645441 0.0651713
0.759823 0.638621 0.0732433
0.882155 0.628565 0.105333
0.997955 0.610071 0.17409
0.99968 0.567834 0.249973
0.208804 0.815976 0.148699
0.312322 0.810575 0.124437
0.415488 0.805112 0.103761
0.535088 0.80032 0.0825666
0.652644 0.792218 0.0712749
0.765087 0.78439 0.0720684
0.883619 0.772778 0.0975509
0.999496 0.754452 0.161837
0.999527 0.703548 0.226825
0.245426 0.959197 0.150988
0.336904 0.955627 0.130953
0.432624 0.950774 0.113573
0.546761 0.944198 0.0948348
0.656077 0.935821 0.0823682
0.764645 0.926711 0.0822156
0.879744 0.913375 0.10341
0.997436 0.887831 0.156146
0.999573 0.819867 0.208453
0.181109 0.999695 0.119036
0.264851 0.999817 0.100954
0.356008 1 0.0825971
0.466453 0.999573 0.0598917
0.584573 0.999695 0.0463264
0.696773 0.999817 0.0421912
0.813245 0.999802 0.0504768
0.95967 0.99971 0.0884871
0.996216 0.943252 0.168856
0.25182 0.999908 0.267903
0.28716 0.999878 0.264759
0.322179 0.999619 0.258091
0.369543 0.999786 0.246464
0.437003 0.99971 0.228763
0.519677 0.999771 0.211597
0.619806 0.999969 0.19202
0.757122 0.999664 0.174945
0.987289 0.999634 0.147814
0.000793469 0.0106661 0.161044
0.109804 0.013962 0.190723
0.27042 0.0149691 0.214908
0.47866 0.0105898 0.249302
0.665095 0.00830091 0.281544
0.813947 0.00624094 0.330312
0.953811 0 0.396399
0.99968 0.000106813 0.49865
0.99971 0.00157168 0.517723
0.00213626 0.149477 0.336355
0.123476 0.143557 0.314641
0.289097 0.137484 0.294591
0.475868 0.135836 0.282185
0.646799 0.135576 0.287572
0.789776 0.136248 0.315633
0.928405 0.130861 0.366552
0.999603 0.105516 0.447883
0.999802 0.0971389 0.490166
0.0104067 0.328038 0.371725
0.140536 0.315007 0.337026
0.304616 0.307149 0.304982
0.477974 0.301961 0.283757
0.638239 0.29984 0.275975
0.775891 0.297917 0.291936
0.908141 0.292256 0.326741
0.999405 0.266926 0.397894
0.999176 0.239292 0.4495
0.0458534 0.511452 0.373693
0.183032 0.500603 0.336767
0.331792 0.490532 0.305287
0.491325 0.482948 0.280278
0.638239 0.475425 0.264607
0.767712 0.469352 0.267659
0.893797 0.460075 0.293111
0.999268 0.438895 0.349325
0.999908 0.401404 0.4056
0.108156 0.672099 0.365881
0.242206 0.664729 0.330312
0.36878 0.656825 0.303761
0.511421 0.648737 0.274678
0.644251 0.640711 0.257572
0.765347 0.632136 0.251728
0.888731 0.621378 0.266407
0.99942 0.602014 0.31426
0.999435 0.564263 0.368505
0.174197 0.806683 0.35816
0.288746 0.802014 0.330983
0.40058 0.796338 0.302449
0.529534 0.789425 0.274861
0.650523 0.783291 0.252094
0.767452 0.774136 0.241749
0.886763 0.762783 0.253361
0.999268 0.745418 0.296101
0.999405 0.694102 0.338735
0.212284 0.945968 0.346609
0.313085 0.941665 0.323644
0.417105 0.93669 0.301579
0.537179 0.929915 0.275471
0.652644 0.923461 0.254032
0.76289 0.913558 0.2439
0.87921 0.899168 0.247791
0.997253 0.875334 0.275242
0.999496 0.807324 0.309285
0.146242 0.999847 0.288502
0.23621 0.999649 0.267399
0.33341 0.999527 0.244785
0.451453 0.99942 0.217731
0.575723 0.999878 0.193774
0.69192 0.999908 0.180804
0.813947 0.998962 0.177783
0.960754 0.997742 0.197208
0.997192 0.930831 0.253346
0.221561 0.999695 0.339239
0.263005 0.999466 0.335958
0.308812 0.99942 0.332418
0.368795 0.999893 0.327245
0.434043 0.999588 0.311269
0.517723 0.999802 0.291096
0.619348 0.999741 0.266712
0.754864 0.999908 0.240345
0.988144 0.999817 0.195163
0.00419623 0.0158846 0.299977
0.125078 0.0164645 0.361975
0.309606 0.0157626 0.411444
0.529824 0.00918593 0.458091
0.700862 0.00796521 0.48629
0.84033 0.00927749 0.524071
0.972747 0.00308232 0.575341
0.999786 0.000122072 0.656825
0.99971 0.0315251 0.633326
0.000183108 0.183948 0.572168
0.114565 0.170886 0.541375
0.306233 0.159716 0.517037
0.501747 0.156893 0.49723
0.670115 0.155169 0.493202
0.810483 0.151507 0.509102
0.94548 0.142123 0.543084
0.999405 0.112001 0.605676
0.999664 0.138857 0.609155
6.10361e-05 0.36083 0.611337
0.121355 0.345251 0.568856
0.304692 0.334768 0.527794
0.490837 0.325689 0.498817
0.655299 0.318608 0.482933
0.791165 0.312932 0.483543
0.92076 0.301625 0.504448
0.999649 0.272679 0.555947
0.999802 0.27039 0.572183
0.0148775 0.530495 0.605493
0.151614 0.518105 0.567514
0.321141 0.507179 0.529107
0.493355 0.494743 0.49485
0.646265 0.486641 0.468833
0.776577 0.476463 0.459892
0.903334 0.463401 0.470039
0.999832 0.438239 0.50779
0.999451 0.416266 0.533883
0.0634165 0.673411 0.589746
0.201373 0.666102 0.555581
0.349233 0.655848 0.520073
0.506355 0.647898 0.484993
0.645228 0.639368 0.456977
0.769116 0.630152 0.440604
0.895354 0.617929 0.441215
0.999405 0.597269 0.467613
0.999435 0.563882 0.497108
0.122438 0.800641 0.570123
0.250919 0.79498 0.53994
0.376272 0.789532 0.509468
0.516762 0.782086 0.476783
0.647135 0.774975 0.446555
0.76817 0.765469 0.427268
0.891646 0.753613 0.424231
0.999878 0.737087 0.446403
0.999695 0.682963 0.463447
0.157809 0.931868 0.545327
0.271839 0.927474 0.520439
0.387976 0.922911 0.493812
0.518715 0.916899 0.464637
0.643336 0.908644 0.435767
0.759258 0.898894 0.416403
0.87686 0.885115 0.404547
0.996811 0.861418 0.407858
0.99939 0.794873 0.421988
0.0955215 0.999603 0.469383
0.190875 0.999786 0.446891
0.298848 0.999969 0.421454
0.423835 0.999512 0.391043
0.561105 0.99971 0.364172
0.684642 0.999619 0.339223
0.808988 0.999237 0.320958
0.960632 0.99147 0.323491
0.998978 0.915297 0.354452
0.174899 0.999771 0.433295
0.219608 0.999893 0.425498
0.272084 0.999863 0.417441
0.341985 0.99971 0.410208
0.429297 0.999802 0.402686
0.514336 0.999863 0.384543
0.615671 0.999695 0.357961
0.755489 0.999603 0.323613
0.9879 0.999939 0.253712
0.00527962 0.0233616 0.500298
0.139391 0.0272831 0.575692
0.348913 0.0242924 0.641657
0.572244 0.0193332 0.684352
0.730434 0.0209049 0.696498
0.864439 0.022797 0.718181
0.986709 0.0152743 0.746914
0.999939 0.00244144 0.800778
0.999863 0.0708019 0.728649
0.000350958 0.232303 0.806104
0.0936904 0.215061 0.777218
0.310872 0.203159 0.741512
0.521843 0.19353 0.71284
0.690867 0.188159 0.698283
0.828199 0.180774 0.698756
0.96202 0.164019 0.713115
0.999863 0.128679 0.753231
0.999908 0.195392 0.705409
0.000289921 0.400015 0.820615
0.0859846 0.381674 0.787732
0.293431 0.370184 0.744869
0.49752 0.356741 0.708751
0.666499 0.345205 0.682185
0.800809 0.335683 0.669261
0.933211 0.319158 0.674159
0.999954 0.287327 0.70248
0.999832 0.320653 0.679911
0.00177005 0.554055 0.804685
0.104738 0.540368 0.770031
0.293294 0.527916 0.73051
0.485954 0.515328 0.690166
0.648554 0.503151 0.660227
0.78439 0.490349 0.644022
0.913237 0.473808 0.638773
0.999725 0.445258 0.655985
0.999954 0.444404 0.648951
0.0122377 0.681971 0.78407
0.144945 0.672877 0.749981
0.313558 0.664942 0.712261
0.487922 0.654521 0.674434
0.642374 0.644053 0.642527
0.773434 0.633738 0.619852
0.902068 0.619348 0.606363
0.999893 0.598077 0.615228
0.999771 0.568795 0.613886
0.0520027 0.800397 0.757107
0.186587 0.794659 0.727077
0.33637 0.78883 0.692378
0.494575 0.780362 0.65832
0.639826 0.772045 0.624598
0.767437 0.762631 0.599908
0.895613 0.751064 0.584085
0.999634 0.730953 0.582162
0.99968 0.676783 0.577371
0.0805829 0.917327 0.7178
0.202136 0.913298 0.691295
0.337774 0.908797 0.662303
0.486076 0.902098 0.629801
0.624445 0.895064 0.597299
0.749447 0.884733 0.569818
0.871305 0.871168 0.548287
0.998474 0.846159 0.534005
0.999237 0.781064 0.534707
0.0214847 0.999954 0.633463
0.118624 0.999603 0.612955
0.240269 0.999878 0.585733
0.385077 0.999542 0.554253
0.535256 0.999771 0.52105
0.670787 0.998535 0.491615
0.803296 0.998245 0.466148
0.958801 0.979416 0.450568
0.998917 0.898238 0.458412
0.103853 0.999573 0.538247
0.152346 0.999496 0.528634
0.214023 0.999588 0.516869
0.294774 0.999908 0.503609
0.392111 0.999619 0.489616
0.504707 0.999756 0.479957
0.611948 0.99968 0.456916
0.753262 0.999969 0.418814
0.98854 0.999863 0.322042
0.00428778 0.0473793 0.747829
0.144732 0.0539712 0.828977
0.383154 0.0556802 0.891249
0.597162 0.057145 0.886824
0.752438 0.0597848 0.881224
0.881987 0.0567636 0.885298
0.994125 0.0450752 0.896406
0.999939 0.0169528 0.92781
0.999756 0.118303 0.820584
0.000564584 0.295094 0.987778
0.0446479 0.27628 0.971038
0.29192 0.261494 0.930251
0.524727 0.250568 0.891722
0.701274 0.23888 0.869322
0.840055 0.22591 0.859541
0.974655 0.205783 0.859831
0.99968 0.165515 0.884779
0.999969 0.237201 0.796963
0.000732433 0.44625 0.986648
0.027451 0.428779 0.971069
0.244251 0.41416 0.927672
0.484184 0.399527 0.884153
0.667704 0.384878 0.852583
0.810407 0.370321 0.834531
0.945632 0.349447 0.826871
0.999893 0.311559 0.843412
0.999741 0.348028 0.77438
0.000732433 0.583185 0.978866
0.0337224 0.571038 0.95407
0.231785 0.557549 0.913008
0.460868 0.543755 0.866194
0.644175 0.530632 0.831067
0.78764 0.514229 0.808347
0.921096 0.494331 0.792645
0.99968 0.462516 0.799374
0.999939 0.469139 0.746288
0.000350958 0.696757 0.959045
0.0553902 0.687099 0.933394
0.239307 0.678981 0.894224
0.451698 0.668025 0.849775
0.630259 0.655711 0.812604
0.77174 0.64419 0.78526
0.907454 0.627283 0.764004
0.999939 0.603662 0.760266
0.999527 0.584527 0.719066
0.00418097 0.80441 0.936416
0.0805829 0.799283 0.910338
0.254566 0.79295 0.871702
0.451331 0.78529 0.83064
0.62237 0.774502 0.793088
0.761379 0.763073 0.761776
0.891844 0.748119 0.735866
0.999496 0.722026 0.715358
0.999451 0.67599 0.688899
0.00376898 0.901625 0.882963
0.0839857 0.897826 0.858
0.242908 0.893324 0.825101
0.422965 0.886992 0.788052
0.589151 0.879942 0.752178
0.729473 0.870298 0.717327
0.860029 0.855299 0.688609
0.996918 0.831388 0.66212
0.999542 0.769955 0.644358
0.00292973 0.997299 0.793072
0.0179141 0.999313 0.776028
0.138323 0.999893 0.751263
0.311513 0.999039 0.711986
0.488136 0.995102 0.673747
0.647501 0.993103 0.637201
0.790692 0.982696 0.604242
0.953445 0.961028 0.577173
0.999619 0.879484 0.567117
0.0194705 0.999542 0.659739
0.052079 0.999527 0.648569
0.115129 0.999542 0.635035
0.212589 0.999649 0.613901
0.329595 0.999756 0.5935
0.462699 0.999786 0.573617
0.604364 0.999985 0.559045
0.749187 0.999084 0.518456
0.989837 0.99968 0.402914
0.000549325 0.109834 0.994995
0.100801 0.127901 0.999924
0.364782 0.133715 0.999908
0.597421 0.133272 0.999786
0.76083 0.132006 0.999405
0.893233 0.127016 0.999237
0.997208 0.109468 0.999298
0.999939 0.0897383 0.999496
0.999878 0.173037 0.915297
0.000274662 0.369436 0.999924
0.000488289 0.353307 0.999741
0.209735 0.338003 0.999969
0.498619 0.324498 0.999985
0.698421 0.309667 0.999786
0.845182 0.292485 0.99823
0.980667 0.269001 0.994369
0.999847 0.233051 0.99678
0.999832 0.276402 0.899046
0.000717174 0.506554 0.999817
0.000656138 0.491264 0.999603
0.127703 0.476081 0.999741
0.432746 0.458808 0.999481
0.653742 0.44152 0.998199
0.809735 0.422889 0.989746
0.952514 0.39884 0.982544
0.999451 0.356878 0.985992
0.999908 0.371939 0.877134
0.000335698 0.6206 0.999878
0.00134279 0.60856 0.999802
0.0875715 0.597299 0.999954
0.38883 0.583108 0.999588
0.619135 0.568399 0.993469
0.781231 0.551736 0.977295
0.925719 0.530221 0.955123
0.99968 0.486976 0.946303
1 0.478767 0.850813
9.15541e-05 0.71519 0.999649
0.00047303 0.708415 0.999954
0.0878462 0.69984 0.999786
0.361852 0.689555 0.999405
0.594186 0.676341 0.991775
0.757366 0.660746 0.958633
0.900649 0.640635 0.925475
1 0.607004 0.900603
0.999802 0.584512 0.822385
0.00030518 0.796185 0.999863
0.00196841 0.793256 0.999878
0.0771038 0.787579 0.999863
0.331823 0.779812 0.995941
0.560357 0.76994 0.960967
0.727642 0.757275 0.922225
0.870756 0.740353 0.884459
0.997467 0.711772 0.853544
0.999359 0.679683 0.791867
0 0.881682 0.999786
0.00462348 0.878035 0.998611
0.0690623 0.87425 0.9906
0.295216 0.869108 0.958556
0.514458 0.861784 0.913207
0.68751 0.852338 0.871794
0.836728 0.838148 0.836789
0.988052 0.814099 0.799939
0.999939 0.761959 0.75819
0.000167849 0.968811 0.945449
0.000411994 0.969909 0.938979
0.0218357 0.974914 0.924224
0.166888 0.980957 0.88632
0.392935 0.976715 0.837476
0.597543 0.969818 0.793927
0.76321 0.959594 0.753521
0.939834 0.937407 0.715434
0.999298 0.861311 0.685466
0.000396735 0.999863 0.801877
0.000259403 0.999725 0.795727
0.00561532 0.999786 0.784482
0.0602731 0.999847 0.763638
0.203113 0.999619 0.732219
0.375647 0.999542 0.696406
0.55996 0.999786 0.667018
0.740246 0.999405 0.638422
0.989868 0.999985 0.506676
0.000534066 0.279988 1
0.00170901 0.310964 0.999954
0.213565 0.288182 0.999786
0.536736 0.274937 0.999207
0.740826 0.271275 0.999939
0.884199 0.260914 0.999741
0.997711 0.233051 0.99939
0.999924 0.193851 0.999313
0.999878 0.246754 0.999207
0.000381476 0.479576 0.999939
0.00047303 0.471489 0.999969
0.0100862 0.459052 0.999893
0.357961 0.433371 0.999496
0.644785 0.415579 0.999741
0.820218 0.391485 0.999573
0.9635 0.358587 0.999741
0.999832 0.305226 0.999298
0.999939 0.325277 0.997848
0.000854505 0.564843 0.999893
0.000137331 0.558968 0.999695
0.0012665 0.549508 0.999619
0.218692 0.534554 0.999619
0.563912 0.515923 0.999619
0.767636 0.493065 0.998886
0.921492 0.459266 0.999283
0.999771 0.406149 0.999802
0.999725 0.402731 0.997177
0.00047303 0.640345 0.999741
0.000488289 0.635157 0.999969
0.000549325 0.628473 0.99971
0.122087 0.617761 0.999985
0.483406 0.603143 0.999954
0.71487 0.582544 0.999527
0.880354 0.556374 0.99942
0.999466 0.51017 0.999512
0.999847 0.492119 0.986725
0.000640879 0.709453 0.999969
0.000549325 0.70454 0.99971
0.000350958 0.699336 0.999908
0.0423438 0.692226 0.999725
0.407141 0.679744 0.999985
0.66656 0.663172 0.999512
0.844312 0.641581 0.999557
0.993164 0.607095 0.999283
0.999786 0.581567 0.963424
0.000183108 0.775372 0.999985
0.000335698 0.772168 0.999969
0.000335698 0.768948 1
0.0428779 0.763729 0.999878
0.34696 0.754559 0.999741
0.624308 0.742657 0.999969
0.809079 0.725002 0.999496
0.983413 0.697551 0.999954
0.999664 0.665019 0.925551
0.000183108 0.846754 0.999908
0.000213626 0.844312 0.999634
0.000595102 0.842435 0.999756
0.0166934 0.840101 0.999893
0.278706 0.833219 0.999664
0.56672 0.824659 0.999924
0.770809 0.811978 0.999527
0.954055 0.787045 0.98024
0.999649 0.750576 0.878492
0.000183108 0.92958 0.999939
9.15541e-05 0.929015 0.999908
0.00030518 0.92871 0.999954
0.000198367 0.92813 0.999954
0.123201 0.936858 0.999863
0.443519 0.931685 0.994629
0.689784 0.921096 0.955657
0.900542 0.901946 0.899672
0.999664 0.845685 0.830518
6.10361e-05 0.985977 0.98645
1.5259e-05 0.987243 0.981277
0.000289921 0.9879 0.97322
1.5259e-05 0.988266 0.963455
1.5259e-05 0.991119 0.949996
0.11223 0.99968 0.90985
0.411627 0.999649 0.846769
0.696056 0.999802 0.789319
0.992554 0.999878 0.661601
0.000488289 0.448371 0.999756
0.000335698 0.452873 0.999786
0.000427253 0.457313 0.999817
0.0481575 0.461448 0.999725
0.399054 0.473564 0.999969
0.642344 0.481392 0.999954
0.808698 0.474723 0.998947
0.962966 0.447883 0.999237
0.999756 0.354528 0.999496
0.000732433 0.512673 0.999741
0.000228885 0.513359 0.999908
0.000259403 0.514916 1
0.000335698 0.516167 0.999817
0.195605 0.520836 0.99939
0.535744 0.533333 0.999756
0.74023 0.529015 0.999634
0.90782 0.50988 0.999283
1 0.422385 0.999481
0.000686656 0.566369 0.999985
0.000350958 0.565362 0.999634
0.000228885 0.564858 1
0.000656138 0.562341 0.999893
0.0955673 0.562081 0.999924
0.474876 0.5664 0.999863
0.695689 0.568109 0.999954
0.868589 0.555642 0.99913
0.999741 0.49305 0.99939
0.000320439 0.621912 0.999802
0.000503548 0.619669 0.999939
0.000457771 0.618219 0.99968
0.000854505 0.613825 0.999954
0.0462806 0.609186 0.999786
0.418189 0.606409 1
0.664866 0.608927 0.999344
0.839979 0.599405 0.999893
0.999481 0.558831 0.999313
0.000595102 0.678264 0.999725
0.000274662 0.675715 0.999557
0.000335698 0.672648 0.999954
0.000366217 0.666865 0.999847
0.0195315 0.660685 0.999939
0.364782 0.653925 0.999893
0.637507 0.654047 0.999832
0.818692 0.64564 0.999557
0.998657 0.612345 0.999496
0.000244144 0.738643 0.999878
0.000503548 0.736797 1
0.000457771 0.731777 0.999878
0.000289921 0.72575 0.999664
9.15541e-05 0.719203 0.999969
0.325078 0.710384 0.999405
0.620432 0.706157 0.999924
0.80763 0.698177 0.999634
0.999954 0.664836 0.99942
0.000656138 0.804593 0.999893
0.000411994 0.802258 0.999985
0.00015259 0.798825 0.999969
0.000411994 0.792615 0.999985
0.00814832 0.785824 0.999954
0.275532 0.7776 0.999985
0.597147 0.76701 0.999985
0.804746 0.760128 0.999252
0.999634 0.71458 0.999908
0.000518807 0.894331 1
0.000137331 0.891051 0.999939
0.000274662 0.888685 0.999985
0.00030518 0.884382 0.999969
0.0009308 0.879622 0.999786
0.160876 0.871641 0.999771
0.53576 0.861845 0.99968
0.795529 0.845701 0.999878
0.999878 0.798154 0.999695
0 0.973785 1
0 0.973785 1
0.000259403 0.973602 1
0.000976577 0.973083 1
0.000976577 0.973083 1
0.000976577 0.973083 1
0.0189822 0.986023 0.999786
0.492912 0.999893 0.999664
1 1 1
