app/src/main/assets/luts/astia.cube
TITLE "Generated by Resolve"
LUT_3D_SIZE 5
0 0 0
0.19472 0.0133211 0.000335698
0.583093 0.0149538 0.000213626
0.906325 0.00950637 0.072694
0.999573 6.10361e-05 0.333501
0.045182 0.278538 0.000167849
0.287114 0.273014 0.000167849
0.600412 0.278187 6.10361e-05
0.877943 0.292897 7.62951e-05
0.999374 0.23125 0.223957
0.160128 0.681407 9.15541e-05
0.385275 0.667491 0.000137331
0.63743 0.655421 0.00015259
0.87509 0.641138 6.10361e-05
0.999542 0.576852 0.12076
0.270848 0.976684 0.000640879
0.443931 0.967178 0.000457771
0.657954 0.950988 0.000198367
0.877958 0.927749 0.000183108
0.998795 0.832319 0.107515
0.264591 0.999588 0.196185
0.324575 0.999634 0.179278
0.439689 0.999802 0.152071
0.622156 0.999832 0.123384
0.987655 0.99942 0.108339
0.000793469 0.0106661 0.161044
0.27042 0.0149691 0.214908
0.665095 0.00830091 0.281544
0.953811 0 0.396399
0.99971 0.00157168 0.517723
0.0104067 0.328038 0.371725
0.304616 0.307149 0.304982
0.638239 0.29984 0.275975
0.908141 0.292256 0.326741
0.999176 0.239292 0.4495
0.108156 0.672099 0.365881
0.36878 0.656825 0.303761
0.644251 0.640711 0.257572
0.888731 0.621378 0.266407
0.999435 0.564263 0.368505
0.212284 0.945968 0.346609
0.417105 0.93669 0.301579
0.652644 0.923461 0.254032
0.87921 0.899168 0.247791
0.999496 0.807324 0.309285
0.221561 0.999695 0.339239
0.308812 0.99942 0.332418
0.434043 0.999588 0.311269
0.619348 0.999741 0.266712
0.988144 0.999817 0.195163
0.00527962 0.0233616 0.500298
0.348913 0.0242924 0.641657
0.730434 0.0209049 0.696498
0.986709 0.0152743 0.746914
0.999863 0.0708019 0.728649
0.000289921 0.400015 0.820615
0.293431 0.370184 0.744869
0.666499 0.345205 0.682185
0.933211 0.319158 0.674159
0.999832 0.320653 0.679911
0.0122377 0.681971 0.78407
0.313558 0.664942 0.712261
0.642374 0.644053 0.642527
0.902068 0.619348 0.606363
0.999771 0.568795 0.613886
0.0805829 0.917327 0.7178
0.337774 0.908797 0.662303
0.624445 0.895064 0.597299
0.871305 0.871168 0.548287
0.999237 0.781064 0.534707
0.103853 0.999573 0.538247
0.214023 0.999588 0.516869
0.392111 0.999619 0.489616
0.611948 0.99968 0.456916
0.98854 0.999863 0.322042
0.000549325 0.109834 0.994995
0.364782 0.133715 0.999908
0.76083 0.132006 0.999405
0.997208 0.109468 0.999298
0.999878 0.173037 0.915297
0.000717174 0.506554 0.999817
0.127703 0.476081 0.999741
0.653742 0.44152 0.998199
0.952514 0.39884 0.982544
0.999908 0.371939 0.877134
9.15541e-05 0.71519 0.999649
0.0878462 0.69984 0.999786
0.594186 0.676341 0.991775
0.900649 0.640635 0.925475
0.999802 0.584512 0.822385
0 0.881682 0.999786
0.0690623 0.87425 0.9906
0.514458 0.861784 0.913207
0.836728 0.838148 0.836789
0.999939 0.761959 0.75819
0.000396735 0.999863 0.801877
0.00561532 0.999786 0.784482
0.203113 0.999619 0.732219
0.55996 0.999786 0.667018
0.989868 0.999985 0.506676
0.000488289 0.448371 0.999756
0.000427253 0.457313 0.999817
0.399054 0.473564 0.999969
0.808698 0.474723 0.998947
0.999756 0.354528 0.999496
0.000686656 0.566369 0.999985
0.000228885 0.564858 1
0.0955673 0.562081 0.999924
0.695689 0.568109 0.999954
0.999741 0.49305 0.99939
0.000595102 0.678264 0.999725
0.000335698 0.672648 0.999954
0.0195315 0.660685 0.999939
0.637507 0.654047 0.999832
0.998657 0.612345 0.999496
0.000656138 0.804593 0.999893
0.00015259 0.798825 0.999969
0.00814832 0.785824 0.999954
0.597147 0.76701 0.999985
0.999634 0.71458 0.999908
0 0.973785 1
0.000259403 0.973602 1
0.000976577 0.973083 1
0.0189822 0.986023 0.999786
1 1 1
