app/src/main/assets/luts/classicnegative.cube
TITLE "Generated by Resolve"
LUT_3D_SIZE 5
0 0 0
0.101076 0.00955215 7.62951e-05
0.293217 0.0348516 7.62951e-05
0.711254 0.0891585 7.62951e-05
0.921538 0.140215 0.0059968
0.014725 0.142214 0.0510414
0.128283 0.148241 0.0316777
0.328771 0.168841 0.0149844
0.707835 0.213657 1.5259e-05
0.92491 0.263066 0.0361639
0.0574655 0.394263 0.16173
0.164797 0.393454 0.140795
0.385336 0.407309 0.113588
0.751232 0.44802 0.0841382
0.94255 0.48806 0.116381
0.0609598 0.758419 0.363668
0.173892 0.760784 0.339269
0.419028 0.770413 0.29987
0.795666 0.789441 0.250843
0.964157 0.786908 0.272282
0.0508278 0.941909 0.67985
0.049836 0.942153 0.677317
0.0502327 0.941543 0.675929
0.220188 0.951858 0.65922
0.92636 0.992615 0.555673
0.0102083 0.0134585 0.0687114
0.144472 0.0338903 0.0763104
0.411002 0.0694743 0.0710918
0.77467 0.119661 0.0603189
0.937575 0.158648 0.119051
0.039704 0.189517 0.212436
0.168795 0.189776 0.179004
0.406989 0.20679 0.145861
0.76614 0.246311 0.120653
0.939269 0.282795 0.16553
0.0882277 0.447669 0.343664
0.200488 0.442206 0.309773
0.446525 0.451087 0.264637
0.791577 0.478981 0.226932
0.953582 0.502174 0.252979
0.0865034 0.76878 0.543893
0.201022 0.770214 0.512337
0.457725 0.77879 0.457084
0.816999 0.793759 0.393668
0.969329 0.784298 0.392096
0.0526131 0.941192 0.749966
0.0535439 0.941329 0.751202
0.0530709 0.941238 0.748028
0.237369 0.951904 0.716442
0.936461 0.992966 0.598901
0.0514992 0.0523995 0.182086
0.207004 0.0820935 0.221469
0.547875 0.126787 0.248539
0.834745 0.169146 0.264668
0.951659 0.20032 0.340047
0.0891432 0.266514 0.47541
0.233173 0.259281 0.423758
0.520958 0.275929 0.374807
0.82533 0.305974 0.347967
0.954726 0.327016 0.386618
0.133257 0.532128 0.630533
0.259953 0.521859 0.582605
0.538689 0.524285 0.518349
0.835554 0.537087 0.466072
0.964736 0.534951 0.463233
0.118425 0.788037 0.776486
0.239124 0.788922 0.74049
0.509743 0.796826 0.67715
0.843442 0.80676 0.60174
0.975845 0.787732 0.56611
0.0570077 0.941161 0.850309
0.0560159 0.941115 0.843793
0.056199 0.941649 0.836789
0.265751 0.953216 0.80029
0.953155 0.992676 0.662623
0.12636 0.131197 0.467124
0.345006 0.177707 0.560845
0.711406 0.23125 0.58793
0.895537 0.268391 0.598825
0.964935 0.285985 0.625055
0.164599 0.423163 0.824781
0.346105 0.413046 0.775494
0.672984 0.417182 0.713558
0.886458 0.424872 0.677119
0.969329 0.418097 0.667903
0.190585 0.649485 0.911742
0.346349 0.641459 0.872175
0.648615 0.63801 0.808087
0.882902 0.631754 0.754818
0.976761 0.602502 0.721019
0.160723 0.820905 0.97705
0.288563 0.821744 0.948013
0.579049 0.830259 0.893263
0.874708 0.832975 0.826917
0.983063 0.800427 0.765927
0.0614939 0.941802 0.972717
0.0606546 0.94229 0.963821
0.0601053 0.941985 0.947875
0.264515 0.954086 0.904448
0.971283 0.993393 0.74786
0.42829 0.536919 0.988525
0.602899 0.592371 0.982116
0.847639 0.617502 0.952865
0.948989 0.626307 0.939666
0.984802 0.592004 0.925795
0.344869 0.689387 1
0.353872 0.687129 0.999924
0.726986 0.707439 0.985351
0.915328 0.716716 0.960754
0.987259 0.680385 0.943969
0.235615 0.755673 0.999985
0.246586 0.755566 0.99968
0.568017 0.771099 0.999985
0.874022 0.788251 0.978683
0.990356 0.765484 0.95848
0.0881971 0.811399 1
0.0979171 0.81062 0.99968
0.338506 0.821942 0.999863
0.795712 0.846052 0.997726
0.990753 0.841108 0.971771
0.0661936 0.930907 0.999954
0.0653697 0.932647 0.999893
0.066041 0.935119 0.999832
0.101778 0.944213 0.999908
0.997192 0.997864 0.997391
