app/src/main/assets/luts/classicchrome.cube
TITLE "Generated by Resolve"
LUT_3D_SIZE 33
0 0 0
0.0192416 0.00166323 0.000106813
0.030457 0.00198367 0.000213626
0.0453193 0.00292973 0.00077821
0.0624704 0.00350958 0.00151064
0.0825818 0.00396735 0.00183108
0.104692 0.00502022 0.00189212
0.13283 0.00683604 0.00315862
0.163348 0.00883497 0.00341802
0.19881 0.0109407 0.00396735
0.240208 0.0133516 0.00570687
0.283986 0.0153201 0.00888075
0.331624 0.0187991 0.0106355
0.381567 0.0217288 0.0131533
0.434043 0.0272374 0.0149233
0.492668 0.0321508 0.0210574
0.553979 0.0390631 0.0254063
0.604364 0.0468605 0.0311894
0.64799 0.0554971 0.0374304
0.691035 0.0645457 0.0434272
0.729274 0.0753338 0.0536507
0.765072 0.0877699 0.0632639
0.799084 0.101717 0.0733959
0.830854 0.117021 0.0860761
0.860197 0.132296 0.100435
0.891096 0.151171 0.116854
0.920104 0.168444 0.136629
0.94757 0.188312 0.157946
0.965682 0.211398 0.181827
0.963699 0.23447 0.208881
0.961364 0.256168 0.24036
0.961883 0.259327 0.24506
0.963363 0.261418 0.244877
0.00265507 0.0230106 0.00262455
0.0272679 0.0248875 0.000946059
0.0445563 0.0257877 0.00146487
0.0595102 0.0281529 0.00265507
0.0780957 0.0291447 0.00390631
0.100267 0.0303349 0.00309758
0.125612 0.0319829 0.00343328
0.157671 0.0352789 0.00440986
0.191073 0.0382391 0.0047303
0.231907 0.0418097 0.00523384
0.274647 0.0458381 0.00627146
0.320012 0.0496071 0.00923171
0.366995 0.0538796 0.0117037
0.414298 0.0598611 0.0142367
0.46186 0.0662394 0.0171817
0.509316 0.0738231 0.0186618
0.55407 0.0788739 0.023682
0.600473 0.0883192 0.0297398
0.644526 0.0977798 0.0362402
0.684565 0.108217 0.0429847
0.723796 0.11989 0.0515908
0.758999 0.133501 0.0618753
0.79144 0.147662 0.073106
0.823209 0.161913 0.0857252
0.853544 0.177432 0.0994278
0.883406 0.19469 0.1149
0.912764 0.214969 0.135698
0.943145 0.236164 0.15671
0.958724 0.257313 0.178927
0.960815 0.278523 0.205295
0.959945 0.295949 0.230365
0.959945 0.300816 0.239643
0.961135 0.299718 0.238071
0.00350958 0.0357061 0.00273136
0.0324254 0.0399786 0.00242618
0.0475319 0.0416114 0.00233463
0.0643015 0.0426642 0.00254826
0.0843977 0.0440528 0.00395209
0.108064 0.0463722 0.00276188
0.135012 0.047837 0.0040589
0.16611 0.0512398 0.00482185
0.20058 0.0550546 0.00437934
0.242603 0.0568704 0.00428778
0.285115 0.0607462 0.00628672
0.329976 0.0634165 0.00933852
0.372686 0.0697948 0.0113069
0.417304 0.0759899 0.0143587
0.463508 0.0820172 0.0172122
0.510155 0.0881361 0.0201724
0.555062 0.0956893 0.0222782
0.600153 0.105638 0.0289311
0.642313 0.115328 0.0354009
0.683635 0.125536 0.0432746
0.722408 0.138384 0.0515145
0.757702 0.151598 0.0625772
0.790539 0.164248 0.0729992
0.821744 0.179232 0.0852979
0.85153 0.195804 0.0986496
0.881422 0.213657 0.113985
0.91046 0.23389 0.135134
0.940917 0.254337 0.156527
0.956756 0.273823 0.179568
0.961044 0.294133 0.20618
0.959426 0.311681 0.22887
0.959548 0.316915 0.240146
0.960128 0.315618 0.236759
0.00628672 0.0557412 0.00407416
0.038468 0.0581521 0.00419623
0.0536965 0.0598001 0.0033875
0.0719615 0.0616007 0.00326543
0.0917983 0.0624552 0.00311284
0.11548 0.0640574 0.00317388
0.143862 0.0660258 0.00408942
0.175463 0.0687419 0.00476081
0.212253 0.0717327 0.00502022
0.252018 0.0744945 0.00611887
0.292119 0.0780499 0.00701915
0.333684 0.0842756 0.00857557
0.375921 0.0899672 0.0108644
0.420386 0.0946822 0.0136873
0.465766 0.100191 0.0166018
0.511589 0.106996 0.0197452
0.556313 0.115587 0.0235294
0.600839 0.12575 0.0284276
0.642115 0.135424 0.0353857
0.681865 0.14696 0.0429236
0.720333 0.159258 0.052369
0.756558 0.17113 0.0618906
0.789181 0.185382 0.073579
0.820218 0.200275 0.0857862
0.850156 0.2168 0.0987106
0.879591 0.234882 0.114031
0.908751 0.255116 0.133577
0.938506 0.273976 0.156085
0.955383 0.292882 0.179263
0.960098 0.313436 0.203845
0.958801 0.329351 0.227726
0.959396 0.334676 0.240223
0.959533 0.332601 0.236744
0.00906386 0.0783551 0.00614939
0.0437629 0.0794537 0.00529488
0.058732 0.0810712 0.00476081
0.0762493 0.082826 0.00392157
0.0981155 0.0846113 0.00318914
0.123674 0.0852216 0.00265507
0.150927 0.0872053 0.00410468
0.184222 0.0900587 0.00422675
0.219593 0.0925154 0.00561532
0.258473 0.0957504 0.00703441
0.299092 0.100389 0.00798047
0.339574 0.106035 0.00830091
0.381353 0.111925 0.00935378
0.423529 0.116197 0.0136873
0.468391 0.122896 0.0160678
0.514412 0.130739 0.0188754
0.560464 0.13904 0.0232853
0.604593 0.147906 0.0296483
0.643839 0.15906 0.0346075
0.682612 0.170077 0.0436713
0.719615 0.181353 0.053254
0.755291 0.195163 0.0616617
0.788235 0.209216 0.0742046
0.818723 0.224796 0.086244
0.848356 0.241382 0.09897
0.877989 0.258457 0.115358
0.907057 0.277821 0.134142
0.936965 0.296147 0.155764
0.95433 0.314488 0.177234
0.959182 0.334249 0.202609
0.959091 0.349111 0.227695
0.959915 0.354559 0.240986
0.958938 0.350637 0.236866
0.0135348 0.104189 0.00691234
0.0499123 0.106447 0.00645457
0.0652934 0.107622 0.00544747
0.0835889 0.109483 0.00444038
0.104814 0.11075 0.00408942
0.13019 0.11249 0.00434882
0.159899 0.114656 0.00474556
0.192157 0.116075 0.00546273
0.227131 0.119982 0.00732433
0.265415 0.124025 0.00772107
0.30454 0.12781 0.00849927
0.345388 0.132372 0.00949111
0.387304 0.137438 0.0115206
0.429511 0.143175 0.0146944
0.474434 0.149859 0.017731
0.518639 0.157549 0.0202335
0.563272 0.166323 0.0247044
0.606531 0.175631 0.0307012
0.645594 0.187015 0.0354467
0.683024 0.197375 0.0449226
0.71957 0.209689 0.0538643
0.754421 0.223285 0.0640726
0.786999 0.236988 0.075639
0.817212 0.252369 0.0878309
0.847532 0.267765 0.101991
0.876829 0.284215 0.116899
0.905562 0.301823 0.134371
0.934081 0.31989 0.155444
0.953658 0.33846 0.179263
0.958083 0.356085 0.20293
0.958968 0.371435 0.229572
0.958572 0.376333 0.241825
0.958404 0.371023 0.238071
0.0173495 0.139422 0.00700389
0.0564736 0.139544 0.00674449
0.0735027 0.14081 0.00569161
0.0923018 0.142046 0.00537118
0.113039 0.14316 0.00654612
0.139818 0.143694 0.0059968
0.167926 0.145754 0.00543221
0.201495 0.148272 0.0062562
0.237644 0.151339 0.00738537
0.273808 0.155169 0.00805676
0.312596 0.157687 0.0106355
0.353399 0.16199 0.0119173
0.394797 0.167742 0.0137636
0.437049 0.174151 0.0160067
0.480964 0.181094 0.0170901
0.525887 0.187533 0.0214389
0.568032 0.196689 0.0268254
0.608515 0.207736 0.0330968
0.647288 0.219852 0.0401617
0.685145 0.229984 0.0464942
0.721294 0.241779 0.0550088
0.754177 0.254383 0.0653697
0.784787 0.267811 0.0776074
0.817105 0.281086 0.0907301
0.847227 0.295659 0.103212
0.875807 0.311467 0.117906
0.903059 0.328191 0.135088
0.931563 0.345388 0.155459
0.955215 0.363134 0.180682
0.957794 0.379416 0.20351
0.95671 0.397543 0.232929
0.957412 0.399008 0.242008
0.958053 0.39263 0.239246
0.0259098 0.177508 0.00955215
0.0669413 0.176898 0.0080415
0.0832837 0.177203 0.00791943
0.10071 0.177981 0.00784314
0.123583 0.178515 0.00901808
0.149172 0.179309 0.00921645
0.177768 0.180407 0.00840772
0.210376 0.182757 0.00979629
0.247135 0.186557 0.00996414
0.284886 0.189883 0.0107424
0.32343 0.193179 0.0119631
0.36379 0.198901 0.0134127
0.403159 0.204776 0.0160372
0.44448 0.211551 0.0183871
0.487037 0.218357 0.0209201
0.530266 0.225696 0.0225834
0.57258 0.234607 0.030869
0.612192 0.244877 0.0372473
0.650156 0.255085 0.042359
0.6869 0.264225 0.0483864
0.721447 0.275639 0.0577554
0.754299 0.287419 0.0688792
0.786145 0.299626 0.0800488
0.816968 0.311254 0.0909285
0.845838 0.326024 0.103563
0.873701 0.341238 0.118273
0.902464 0.356359 0.136751
0.930739 0.372107 0.157565
0.95758 0.388647 0.180941
0.957305 0.404776 0.204547
0.957015 0.421241 0.2327
0.958648 0.420768 0.24184
0.957259 0.415717 0.241245
0.0347295 0.21973 0.01355
0.0751354 0.219867 0.0113832
0.0922408 0.220142 0.0114443
0.112322 0.220813 0.0105745
0.135271 0.22153 0.0096437
0.162341 0.222553 0.0104524
0.192493 0.223606 0.0124056
0.224948 0.225895 0.0132906
0.259953 0.229618 0.0120546
0.297948 0.232242 0.0133974
0.335882 0.236408 0.0148318
0.374228 0.241108 0.0165255
0.413901 0.247013 0.0185245
0.454261 0.25275 0.0217594
0.495811 0.258961 0.0253452
0.537545 0.265354 0.0296025
0.57908 0.272129 0.0346532
0.617136 0.282124 0.0395819
0.653696 0.291356 0.0463111
0.688502 0.301076 0.0543526
0.723171 0.311009 0.063508
0.755154 0.321782 0.0733043
0.785809 0.332631 0.0830854
0.815808 0.344625 0.0928511
0.844083 0.358343 0.105287
0.87303 0.372061 0.122606
0.901457 0.386313 0.139712
0.930114 0.400992 0.15819
0.954665 0.415839 0.179461
0.957092 0.431571 0.205447
0.957137 0.446372 0.233265
0.957687 0.446616 0.242176
0.958465 0.440146 0.241688
0.0466468 0.267216 0.0155795
0.0843977 0.267674 0.0142977
0.103288 0.267292 0.0146792
0.124163 0.267048 0.0150301
0.14815 0.267994 0.0148013
0.175097 0.268391 0.0149996
0.204959 0.269322 0.0154574
0.238407 0.271763 0.0153506
0.274311 0.27512 0.0163424
0.31107 0.278584 0.0179446
0.347616 0.281209 0.0200504
0.385763 0.285267 0.0214084
0.424582 0.289876 0.0239109
0.46392 0.295018 0.0285191
0.504433 0.300923 0.0309911
0.544991 0.307378 0.0364691
0.585138 0.313817 0.0423438
0.624018 0.320562 0.047303
0.658137 0.329168 0.053727
0.692363 0.338003 0.0610666
0.725902 0.34699 0.0687266
0.757321 0.3561 0.0763256
0.787579 0.366583 0.0856489
0.816632 0.378256 0.0982528
0.845197 0.390723 0.113207
0.873655 0.40412 0.126787
0.901656 0.417288 0.142153
0.929641 0.4309 0.160998
0.950469 0.44535 0.183536
0.957107 0.459586 0.207355
0.956466 0.472175 0.232151
0.957061 0.473426 0.243259
0.957702 0.4654 0.243214
0.0585031 0.31664 0.0197147
0.100832 0.315816 0.0200504
0.117983 0.315938 0.0205386
0.138201 0.315618 0.0200809
0.162066 0.316091 0.0201572
0.189166 0.317327 0.0204929
0.220966 0.318654 0.0200961
0.254231 0.320638 0.0202945
0.287907 0.322911 0.0215763
0.323278 0.324849 0.0230106
0.359701 0.327352 0.0246433
0.397589 0.330419 0.0265354
0.436133 0.333501 0.0309911
0.47541 0.337865 0.0350042
0.515023 0.343633 0.0390478
0.555062 0.348135 0.0436255
0.592599 0.354131 0.0489357
0.628321 0.361318 0.0547799
0.663325 0.368734 0.0607614
0.696651 0.376394 0.0677043
0.728908 0.384558 0.0755932
0.760769 0.393988 0.0842756
0.789654 0.403632 0.0937667
0.818799 0.413855 0.106508
0.84802 0.424949 0.119677
0.875486 0.437903 0.13019
0.9019 0.449531 0.14548
0.929259 0.462684 0.166506
0.948623 0.47599 0.18822
0.956817 0.489204 0.210437
0.957137 0.499428 0.231235
0.956893 0.500114 0.245243
0.956817 0.491569 0.245396
0.0715648 0.366537 0.0260777
0.114321 0.366567 0.0252384
0.131609 0.367605 0.0255894
0.15256 0.367422 0.0257115
0.176318 0.366995 0.025803
0.204837 0.366781 0.0267796
0.23566 0.366522 0.0279088
0.268635 0.368063 0.0277256
0.302312 0.369726 0.028809
0.336782 0.371389 0.031342
0.373495 0.37322 0.0340581
0.41088 0.375357 0.0370031
0.448859 0.378088 0.0400854
0.486686 0.382101 0.0439155
0.524453 0.386496 0.0475776
0.562417 0.391379 0.050782
0.599878 0.396368 0.0564736
0.635615 0.40267 0.0631571
0.669154 0.409583 0.0703746
0.701152 0.416709 0.0773632
0.733028 0.424903 0.0849012
0.763973 0.433112 0.092607
0.792905 0.441398 0.101961
0.821637 0.450507 0.11339
0.848768 0.461387 0.125322
0.875288 0.473411 0.138521
0.903029 0.483986 0.153536
0.929976 0.49514 0.172686
0.949493 0.507256 0.193042
0.956893 0.519356 0.212955
0.957137 0.52842 0.234485
0.957214 0.52784 0.249424
0.957183 0.517647 0.247608
0.0862593 0.418173 0.0333867
0.129442 0.416419 0.0351415
0.148455 0.416022 0.0348211
0.169299 0.415717 0.0344396
0.194614 0.415915 0.0346685
0.222599 0.41619 0.035111
0.251911 0.416373 0.0361791
0.283375 0.416342 0.0374456
0.317556 0.417105 0.0393988
0.352544 0.41825 0.0416266
0.387991 0.41973 0.044358
0.423713 0.421637 0.0470436
0.459968 0.424521 0.0496834
0.49659 0.428428 0.0522774
0.533974 0.432364 0.05626
0.571313 0.436042 0.061387
0.607752 0.439567 0.0670634
0.642023 0.445609 0.0727855
0.674891 0.452216 0.0792859
0.705898 0.459525 0.0865187
0.736996 0.466361 0.0920729
0.766766 0.473136 0.101091
0.7953 0.480629 0.111742
0.823331 0.489128 0.121355
0.85069 0.498863 0.133425
0.877913 0.508446 0.14725
0.904692 0.518471 0.162402
0.931044 0.528603 0.178378
0.952392 0.539467 0.19826
0.956146 0.550179 0.219059
0.955993 0.559655 0.245945
0.956191 0.555215 0.255299
0.956329 0.544518 0.252186
0.102205 0.468421 0.0449073
0.147784 0.468116 0.0438087
0.166888 0.467445 0.0441291
0.189059 0.466163 0.0455177
0.213413 0.464759 0.0468757
0.240635 0.464408 0.0470893
0.269886 0.464408 0.0476692
0.300999 0.465156 0.0484627
0.333455 0.465705 0.0497139
0.366537 0.466651 0.0523079
0.40058 0.467918 0.0546883
0.435264 0.46949 0.0573129
0.471534 0.471473 0.0596323
0.508247 0.473838 0.0630655
0.545388 0.477134 0.0680858
0.580835 0.480568 0.072282
0.615976 0.48481 0.076524
0.651026 0.489158 0.0816663
0.681407 0.494987 0.087953
0.711681 0.500862 0.0948653
0.741955 0.506889 0.103075
0.770306 0.513649 0.112276
0.798276 0.520821 0.120851
0.825757 0.528542 0.129992
0.8533 0.536233 0.141863
0.879606 0.544503 0.155612
0.906249 0.552544 0.170382
0.932128 0.561135 0.186526
0.954635 0.571313 0.208774
0.954391 0.580835 0.228824
0.954467 0.59089 0.257084
0.954879 0.582498 0.259831
0.954833 0.572473 0.25565
0.123186 0.517281 0.055848
0.166918 0.51577 0.0558328
0.183627 0.514839 0.0557259
0.204349 0.514061 0.0561532
0.230396 0.513451 0.0571603
0.258244 0.513069 0.0580911
0.2869 0.513222 0.0589914
0.317494 0.513558 0.0600595
0.349187 0.513741 0.0616007
0.381994 0.514229 0.0638285
0.414618 0.515389 0.0665141
0.449134 0.51664 0.068574
0.484596 0.517922 0.0703899
0.520577 0.520226 0.0751812
0.5561 0.522774 0.0797742
0.59089 0.525597 0.0840467
0.62504 0.529244 0.0886091
0.657908 0.533623 0.0940414
0.688518 0.538643 0.100374
0.718242 0.543038 0.107759
0.7476 0.548058 0.115465
0.77586 0.554025 0.121691
0.802197 0.56083 0.130999
0.828794 0.56701 0.140993
0.85507 0.572671 0.151293
0.8813 0.579431 0.165957
0.90692 0.586526 0.181186
0.93193 0.594797 0.199863
0.949981 0.603449 0.219959
0.952972 0.611795 0.240314
0.953506 0.617136 0.262913
0.95317 0.610986 0.266636
0.953506 0.600977 0.266194
0.141894 0.566506 0.0672313
0.184588 0.563867 0.068925
0.203891 0.563043 0.0682383
0.225391 0.562432 0.0674449
0.249577 0.561852 0.0674601
0.276555 0.561639 0.0687572
0.30515 0.561563 0.0703746
0.33492 0.560769 0.0732586
0.36553 0.560449 0.0755322
0.396139 0.561532 0.076585
0.428641 0.562539 0.0782483
0.46273 0.563485 0.0803693
0.497139 0.564675 0.0836347
0.531945 0.565927 0.0875105
0.566674 0.567452 0.091783
0.601144 0.569619 0.096376
0.634653 0.573114 0.101534
0.665492 0.576288 0.106371
0.695659 0.579339 0.111131
0.725872 0.583902 0.117525
0.753429 0.588403 0.124498
0.780377 0.593042 0.132509
0.80766 0.598138 0.141299
0.832319 0.602945 0.150698
0.857145 0.608148 0.162554
0.882872 0.613672 0.177569
0.90753 0.619883 0.194156
0.932479 0.627298 0.21239
0.94754 0.634958 0.231968
0.952605 0.642176 0.253361
0.952346 0.644816 0.270634
0.95256 0.638743 0.277043
0.952682 0.62855 0.275151
0.160983 0.611978 0.07953
0.204257 0.610483 0.0799725
0.221393 0.609827 0.0802777
0.242802 0.609094 0.0810101
0.267002 0.608316 0.0818647
0.29308 0.607691 0.0827497
0.320867 0.607385 0.0836805
0.350271 0.606989 0.0848402
0.38024 0.606806 0.087129
0.411444 0.606531 0.0892195
0.443198 0.606653 0.0901961
0.475776 0.607126 0.0920577
0.509316 0.608316 0.0957046
0.54342 0.609308 0.100237
0.578042 0.610086 0.104936
0.610574 0.612451 0.108537
0.642557 0.614984 0.112352
0.672999 0.617411 0.11722
0.702525 0.620157 0.123308
0.731075 0.62324 0.130022
0.757702 0.626429 0.137133
0.783642 0.630533 0.145129
0.809277 0.634943 0.154391
0.835004 0.637736 0.165377
0.85948 0.642222 0.178103
0.883894 0.647272 0.192187
0.908782 0.652659 0.206882
0.933272 0.659083 0.22472
0.948791 0.665766 0.243488
0.952132 0.671794 0.263676
0.952193 0.672541 0.280324
0.951812 0.666072 0.284092
0.95169 0.655695 0.284459
0.180407 0.653468 0.0928359
0.224537 0.651789 0.0928054
0.242405 0.651484 0.0927138
0.263081 0.651194 0.0925917
0.286427 0.650355 0.093904
0.312078 0.649622 0.0953384
0.339101 0.648768 0.096788
0.366125 0.648188 0.0979629
0.394949 0.647807 0.0993668
0.425299 0.647929 0.101595
0.457008 0.648051 0.103822
0.49015 0.64921 0.106523
0.523308 0.649927 0.109285
0.55581 0.650309 0.112383
0.587762 0.651255 0.115709
0.619135 0.652811 0.119097
0.64979 0.654444 0.123919
0.680064 0.655894 0.129213
0.708598 0.657679 0.135271
0.735698 0.659571 0.141619
0.761959 0.661631 0.148394
0.787793 0.665263 0.157946
0.812696 0.668727 0.167575
0.836805 0.672267 0.178729
0.861357 0.67599 0.192416
0.88542 0.680385 0.205432
0.909728 0.684855 0.22034
0.933059 0.689677 0.236576
0.951812 0.696056 0.254734
0.951598 0.700053 0.274556
0.95198 0.701228 0.294377
0.951797 0.692836 0.296452
0.951919 0.682902 0.296391
0.199756 0.691432 0.105959
0.244388 0.690211 0.10692
0.261631 0.689677 0.107546
0.281254 0.688991 0.108248
0.303365 0.688457 0.108995
0.326833 0.688182 0.109422
0.351766 0.688151 0.109987
0.378958 0.687953 0.110765
0.407965 0.687785 0.11162
0.438407 0.687541 0.112581
0.46952 0.687297 0.115084
0.501595 0.687022 0.117952
0.533227 0.687495 0.122148
0.565454 0.688075 0.126192
0.596063 0.688884 0.129061
0.62681 0.689555 0.13254
0.657145 0.69012 0.136767
0.686213 0.691173 0.142565
0.714687 0.692607 0.149157
0.740551 0.694041 0.156268
0.766278 0.696101 0.16405
0.791302 0.698482 0.172168
0.815229 0.701137 0.182361
0.839582 0.704005 0.193133
0.863874 0.707515 0.204318
0.888029 0.711696 0.219547
0.912184 0.715007 0.232532
0.936233 0.719402 0.249912
0.950774 0.723812 0.269535
0.951675 0.727184 0.289586
0.95198 0.727108 0.30634
0.952285 0.718853 0.309163
0.95201 0.708232 0.30901
0.217075 0.727382 0.118654
0.259052 0.725673 0.118395
0.275486 0.725048 0.118166
0.294408 0.724514 0.11873
0.315785 0.724193 0.119982
0.3393 0.723903 0.121462
0.364355 0.723674 0.122377
0.390143 0.7234 0.122942
0.41799 0.723125 0.123903
0.447822 0.722515 0.12668
0.479286 0.721981 0.129351
0.510887 0.721813 0.13193
0.543755 0.72192 0.134539
0.573709 0.72224 0.138521
0.60415 0.722591 0.142641
0.633539 0.722972 0.146105
0.663111 0.723583 0.15079
0.691691 0.724681 0.157183
0.718975 0.725765 0.164004
0.746014 0.727062 0.171115
0.770001 0.729 0.178485
0.794415 0.731029 0.187274
0.818708 0.733089 0.19733
0.842405 0.735454 0.206317
0.866407 0.738262 0.218158
0.890455 0.741207 0.232242
0.913848 0.744488 0.247639
0.939162 0.748547 0.266011
0.949752 0.751659 0.28455
0.952514 0.755138 0.305791
0.952636 0.752651 0.317968
0.952621 0.744472 0.322011
0.952514 0.732738 0.322576
0.230564 0.760067 0.131167
0.271885 0.758785 0.131426
0.288609 0.758389 0.132067
0.307393 0.7579 0.132967
0.328817 0.757397 0.133883
0.351064 0.757 0.134676
0.375326 0.756436 0.13579
0.401663 0.755917 0.137362
0.429435 0.755734 0.139574
0.458457 0.755718 0.141833
0.488823 0.755489 0.143069
0.520302 0.755306 0.144244
0.550683 0.755535 0.147707
0.581415 0.755978 0.15198
0.61062 0.756466 0.155627
0.640375 0.757 0.159503
0.669535 0.756848 0.165759
0.698192 0.756985 0.172045
0.72433 0.757702 0.178698
0.749859 0.758755 0.186038
0.775113 0.760143 0.193622
0.79884 0.761913 0.202014
0.822507 0.763684 0.211215
0.845914 0.765133 0.221942
0.869261 0.767025 0.23508
0.892699 0.769665 0.248997
0.91664 0.772976 0.264103
0.938491 0.776486 0.280064
0.953048 0.779583 0.301274
0.953765 0.781994 0.320104
0.953506 0.778729 0.329992
0.953384 0.768872 0.334218
0.952987 0.755444 0.334096
0.242496 0.791409 0.144228
0.284627 0.790707 0.144564
0.301076 0.790433 0.144854
0.318791 0.789853 0.145708
0.338735 0.789288 0.146593
0.361303 0.788556 0.147784
0.385153 0.788251 0.14847
0.410895 0.787961 0.149111
0.438682 0.787518 0.149981
0.466819 0.787427 0.152651
0.496315 0.787259 0.155428
0.526268 0.786969 0.158862
0.557733 0.786496 0.162737
0.588342 0.786404 0.167681
0.619486 0.786343 0.173312
0.648112 0.786633 0.177996
0.675669 0.787121 0.18201
0.702312 0.787533 0.188586
0.728862 0.78793 0.195575
0.753857 0.788678 0.201724
0.778454 0.789715 0.209094
0.80296 0.791089 0.217777
0.825956 0.792081 0.227771
0.848966 0.793194 0.238697
0.871992 0.794842 0.251011
0.895918 0.796735 0.264363
0.919249 0.8 0.28014
0.941344 0.802976 0.2981
0.954757 0.805386 0.315557
0.955093 0.806378 0.33138
0.954635 0.80145 0.342443
0.954116 0.79115 0.34522
0.953445 0.776944 0.346349
0.253803 0.821302 0.155734
0.293263 0.820768 0.156939
0.309087 0.820493 0.157458
0.327337 0.820233 0.157961
0.346853 0.819944 0.158572
0.36846 0.819638 0.15903
0.392187 0.819257 0.159564
0.417777 0.81886 0.160769
0.444602 0.818219 0.163272
0.473243 0.817609 0.166155
0.502358 0.817243 0.169574
0.532769 0.816999 0.173404
0.563409 0.816617 0.177768
0.594781 0.815946 0.182666
0.624521 0.815702 0.187564
0.652934 0.815915 0.192279
0.680476 0.816236 0.197696
0.707927 0.816541 0.203586
0.732921 0.817075 0.210651
0.758068 0.817639 0.218357
0.781979 0.818265 0.22594
0.806027 0.819013 0.234363
0.829984 0.819974 0.243793
0.852171 0.821317 0.254704
0.875196 0.822889 0.266728
0.898634 0.82533 0.280461
0.92224 0.828046 0.295415
0.946914 0.830488 0.313344
0.955367 0.832502 0.330266
0.95639 0.831022 0.345922
0.956207 0.823682 0.353765
0.955291 0.812177 0.354589
0.954223 0.796994 0.355795
0.259052 0.850843 0.168032
0.299565 0.850217 0.168841
0.314656 0.849867 0.169329
0.332235 0.849531 0.169787
0.351995 0.849195 0.170397
0.374594 0.848814 0.171191
0.397848 0.848051 0.172992
0.423514 0.847105 0.175082
0.450675 0.846296 0.177172
0.478096 0.846067 0.180209
0.507576 0.845869 0.183566
0.537438 0.845563 0.187167
0.567987 0.845075 0.190616
0.598367 0.84477 0.195514
0.627558 0.844404 0.202335
0.656138 0.844312 0.208789
0.683467 0.84448 0.21471
0.710353 0.844846 0.221347
0.736965 0.845151 0.228305
0.76173 0.845411 0.234882
0.78645 0.845731 0.24239
0.810285 0.847059 0.251911
0.833402 0.84828 0.261814
0.856138 0.849531 0.272526
0.87863 0.851362 0.284016
0.90132 0.852842 0.295827
0.9252 0.854353 0.310445
0.946624 0.855863 0.328145
0.957198 0.856199 0.34313
0.958007 0.853498 0.358328
0.95761 0.844388 0.363378
0.956603 0.832929 0.365408
0.956069 0.816968 0.366049
0.258793 0.880659 0.177966
0.30016 0.879515 0.179629
0.316548 0.879133 0.180392
0.335073 0.87863 0.181262
0.354192 0.878035 0.182513
0.375662 0.877302 0.184192
0.399405 0.876554 0.186023
0.424979 0.875914 0.188647
0.452506 0.875288 0.191867
0.481788 0.874769 0.195285
0.510933 0.874022 0.199786
0.541115 0.873274 0.20502
0.57174 0.872663 0.210361
0.60206 0.872541 0.215686
0.632609 0.872419 0.221073
0.659983 0.872526 0.22681
0.687694 0.872709 0.232258
0.713634 0.873182 0.237415
0.739498 0.873533 0.244114
0.76466 0.873411 0.251652
0.788724 0.87364 0.25951
0.812436 0.874159 0.267811
0.835218 0.875441 0.277897
0.857801 0.87602 0.287724
0.880354 0.876402 0.297734
0.902449 0.876875 0.30898
0.92578 0.877638 0.321828
0.948287 0.877653 0.335897
0.958511 0.876783 0.3505
0.959457 0.872847 0.363317
0.958709 0.864393 0.370581
0.957549 0.852598 0.375326
0.957519 0.836179 0.376394
0.255177 0.906249 0.186892
0.295323 0.904799 0.189807
0.310918 0.904448 0.19147
0.329152 0.904005 0.193317
0.349844 0.903548 0.195346
0.372549 0.903014 0.197711
0.396368 0.902602 0.200366
0.422736 0.902098 0.203174
0.451331 0.901518 0.206363
0.478996 0.901228 0.210529
0.508751 0.900877 0.215
0.538918 0.900465 0.219898
0.569543 0.899763 0.224979
0.600793 0.899107 0.229862
0.629145 0.898482 0.233661
0.658854 0.897917 0.238209
0.685374 0.898207 0.245701
0.712489 0.89836 0.252781
0.737346 0.898146 0.258198
0.762203 0.89807 0.264546
0.786633 0.897963 0.271839
0.809903 0.898314 0.279667
0.833097 0.898589 0.287861
0.854582 0.89865 0.296696
0.876478 0.898909 0.306462
0.898787 0.899153 0.316869
0.921492 0.898955 0.328878
0.944289 0.898405 0.343313
0.96025 0.896406 0.357229
0.961486 0.892989 0.37116
0.960845 0.883925 0.377722
0.959442 0.872007 0.383093
0.958129 0.856001 0.385901
0.238529 0.928878 0.191379
0.280507 0.927367 0.194385
0.29688 0.926833 0.195483
0.314733 0.926085 0.197742
0.334432 0.925277 0.20032
0.356771 0.924315 0.203235
0.381247 0.923323 0.206241
0.407233 0.922591 0.209247
0.434195 0.922011 0.212375
0.463508 0.92137 0.215747
0.49305 0.920806 0.22031
0.522744 0.920394 0.22533
0.554131 0.919875 0.230426
0.584451 0.919264 0.235187
0.616281 0.918654 0.240146
0.644282 0.918746 0.245731
0.674144 0.9187 0.25156
0.700252 0.918868 0.257984
0.727413 0.918959 0.264759
