app/src/main/assets/luts/classicnegative.cube
TITLE "Generated by Resolve"
LUT_3D_SIZE 9
0 0 0
0.051545 0.00428778 0.000518807
0.101076 0.00955215 7.62951e-05
0.173297 0.0204776 0.000427253
0.293217 0.0348516 7.62951e-05
0.508797 0.0602426 6.10361e-05
0.711254 0.0891585 7.62951e-05
0.840452 0.117266 4.57771e-05
0.921538 0.140215 0.0059968
0.004654 0.0693523 0.024033
0.0640574 0.0753185 0.0140993
0.118929 0.0812543 0.00701915
0.198795 0.0898909 0.00123598
0.319356 0.106004 0
0.503929 0.127657 0.00015259
0.701946 0.152956 0
0.839094 0.176257 3.0518e-05
0.922789 0.198749 0.0179141
0.014725 0.142214 0.0510414
0.0751507 0.144961 0.039353
0.128283 0.148241 0.0316777
0.205325 0.156024 0.0239872
0.328771 0.168841 0.0149844
0.511849 0.188159 0.00151064
0.707835 0.213657 1.5259e-05
0.842145 0.238499 0.00236515
0.92491 0.263066 0.0361639
0.0347295 0.243076 0.0962539
0.0906691 0.243626 0.0851911
0.143374 0.245563 0.0773022
0.224735 0.252399 0.0669413
0.349996 0.263005 0.0538796
0.534325 0.282887 0.0402075
0.724956 0.307347 0.0286259
0.851057 0.332494 0.0360266
0.931624 0.357733 0.0664683
0.0574655 0.394263 0.16173
0.110628 0.393851 0.151568
0.164797 0.393454 0.140795
0.252171 0.397955 0.130098
0.385336 0.407309 0.113588
0.573266 0.425528 0.0972305
0.751232 0.44802 0.0841382
0.86714 0.468605 0.088365
0.94255 0.48806 0.116381
0.075288 0.586557 0.250111
0.126665 0.584161 0.23888
0.184848 0.585733 0.228275
0.276692 0.587228 0.2121
0.418463 0.594644 0.194797
0.611597 0.607965 0.172396
0.779614 0.621897 0.15903
0.884932 0.634348 0.161547
0.954223 0.639811 0.185595
0.0609598 0.758419 0.363668
0.111452 0.758999 0.351766
0.173892 0.760784 0.339269
0.2692 0.763394 0.323125
0.419028 0.770413 0.29987
0.618875 0.781704 0.271839
0.795666 0.789441 0.250843
0.900618 0.792691 0.247883
0.964157 0.786908 0.272282
0.0415656 0.884779 0.503075
0.0430152 0.883711 0.498405
0.0490425 0.883101 0.49369
0.149615 0.88809 0.473762
0.285786 0.894286 0.451377
0.509194 0.905074 0.418128
0.754543 0.917906 0.385092
0.8981 0.921035 0.370336
0.970947 0.901762 0.369039
0.0508278 0.941909 0.67985
0.0504005 0.941955 0.678798
0.049836 0.942153 0.677317
0.050309 0.941909 0.675593
0.0502327 0.941543 0.675929
0.0862593 0.943358 0.672419
0.220188 0.951858 0.65922
0.482292 0.968322 0.629175
0.92636 0.992615 0.555673
0.00282292 0.00570687 0.0336614
0.0675059 0.0108339 0.0294041
0.124269 0.0201267 0.0289006
0.209918 0.0321965 0.0269627
0.353079 0.0499733 0.0182956
0.570184 0.0742351 0.00613413
0.745129 0.101686 0.000427253
0.857847 0.126116 0.0125429
0.929213 0.146548 0.0470893
0.0139162 0.0898909 0.0928817
0.0821851 0.0946822 0.0810559
0.141695 0.0991379 0.0720378
0.229038 0.106905 0.0611734
0.365728 0.121965 0.0499123
0.552728 0.141573 0.0335546
0.736828 0.164233 0.0260624
0.85449 0.185794 0.035172
0.930755 0.203342 0.0658274
0.0248722 0.165423 0.132555
0.0906844 0.166125 0.117784
0.14847 0.168261 0.106462
0.235294 0.174487 0.0953536
0.367376 0.187274 0.0814221
0.556924 0.206317 0.0637064
0.738888 0.228244 0.0539712
0.857862 0.249393 0.0609293
0.931899 0.270344 0.0911116
0.0496681 0.268894 0.179843
0.106432 0.26717 0.165316
0.163027 0.268254 0.154238
0.251118 0.273686 0.140673
0.386648 0.283436 0.123186
0.572808 0.30219 0.105272
0.752087 0.324422 0.0937514
0.864515 0.345876 0.100908
0.938659 0.366125 0.128481
0.0728161 0.419257 0.246509
0.12636 0.4168 0.233036
0.182605 0.416541 0.220951
0.275456 0.41854 0.204517
0.414221 0.427405 0.185122
0.603433 0.443961 0.162875
0.771267 0.461112 0.149706
0.877317 0.479271 0.154177
0.94754 0.493202 0.181353
0.0886702 0.602502 0.338445
0.141405 0.601267 0.326436
0.199802 0.600351 0.310796
0.296757 0.602029 0.291829
0.445411 0.607996 0.268513
0.633066 0.618906 0.242634
0.793835 0.630762 0.22562
0.892454 0.640085 0.22533
0.957961 0.640864 0.247379
0.0739452 0.762966 0.451743
0.125261 0.763607 0.438407
0.187106 0.764218 0.422156
0.28365 0.767498 0.401587
0.436469 0.773678 0.374365
0.635904 0.784192 0.344625
0.805585 0.791104 0.318364
0.905989 0.792905 0.311528
0.965774 0.786282 0.328862
0.0444495 0.882948 0.580407
0.0457465 0.883009 0.573922
0.0587015 0.88249 0.564416
0.163424 0.886763 0.543343
0.302525 0.893156 0.518578
0.525856 0.904356 0.482094
0.763851 0.916045 0.444877
0.902571 0.918975 0.424277
0.97261 0.899275 0.415015
0.052018 0.941314 0.715679
0.051667 0.941329 0.715969
0.0517128 0.941741 0.715419
0.0512398 0.941619 0.713054
0.0512703 0.941634 0.710506
0.0926986 0.943801 0.703593
0.227939 0.952117 0.685969
0.493736 0.96762 0.652079
0.93022 0.992432 0.574746
0.0102083 0.0134585 0.0687114
0.0821698 0.0214847 0.071519
0.144472 0.0338903 0.0763104
0.243046 0.0488136 0.0775006
0.411002 0.0694743 0.0710918
0.617746 0.0943618 0.0606241
0.77467 0.119661 0.0603189
0.872053 0.142168 0.0780346
0.937575 0.158648 0.119051
0.0265049 0.108721 0.155184
0.0977493 0.112779 0.144427
0.162036 0.117571 0.136248
0.260166 0.125521 0.123827
0.406882 0.139574 0.110826
0.600214 0.159747 0.0944991
0.765667 0.180407 0.0884871
0.869749 0.199573 0.102358
0.939086 0.216953 0.139544
0.039704 0.189517 0.212436
0.106538 0.187396 0.193439
0.168795 0.189776 0.179004
0.263005 0.194873 0.163333
0.406989 0.20679 0.145861
0.596826 0.225147 0.128176
0.76614 0.246311 0.120653
0.872068 0.266026 0.132128
0.939269 0.282795 0.16553
0.0645151 0.297292 0.268894
0.123156 0.293843 0.250553
0.182803 0.294148 0.234302
0.27686 0.297597 0.217227
0.421668 0.308034 0.19704
0.610468 0.324819 0.177111
0.77554 0.344091 0.166415
0.876493 0.363165 0.173465
0.94551 0.379019 0.20264
0.0882277 0.447669 0.343664
0.141848 0.444556 0.32697
0.200488 0.442206 0.309773
0.297856 0.444434 0.289113
0.446525 0.451087 0.264637
0.635859 0.464775 0.241245
0.791577 0.478981 0.226932
0.88751 0.4934 0.230045
0.953582 0.502174 0.252979
0.104891 0.621164 0.440284
0.156344 0.619242 0.423102
0.218631 0.617395 0.405356
0.318364 0.617502 0.382849
0.470893 0.623255 0.354147
0.658015 0.632914 0.325383
0.808789 0.641199 0.304356
0.90016 0.646296 0.298833
0.961379 0.644587 0.317449
0.0865034 0.76878 0.543893
0.137591 0.769467 0.529992
0.201022 0.770214 0.512337
0.299901 0.77232 0.489235
0.457725 0.77879 0.457084
0.653635 0.787915 0.421714
0.816999 0.793759 0.393668
0.912261 0.794186 0.382208
0.969329 0.784298 0.392096
0.0479133 0.883192 0.659281
0.0509651 0.88249 0.65095
0.073228 0.881712 0.639826
0.178927 0.886702 0.618662
0.319966 0.892989 0.590204
0.543694 0.90428 0.550271
0.774182 0.915892 0.510674
0.90782 0.917418 0.483665
0.974807 0.8963 0.466041
0.0526131 0.941192 0.749966
0.052903 0.941375 0.7505
0.0535439 0.941329 0.751202
0.0528572 0.941085 0.750576
0.0530709 0.941238 0.748028
0.103441 0.944045 0.737591
0.237369 0.951904 0.716442
0.503014 0.968994 0.678279
0.936461 0.992966 0.598901
0.0257267 0.0280308 0.115938
0.101534 0.0404059 0.12604
0.170733 0.0538796 0.13463
0.285878 0.0717021 0.143908
0.479835 0.0947433 0.142824
0.666056 0.119905 0.137453
0.804746 0.142473 0.145037
0.88806 0.161746 0.170382
0.943542 0.177005 0.218708
0.0462196 0.133715 0.242802
0.118212 0.136873 0.237034
0.188937 0.140948 0.224689
0.298283 0.149187 0.208927
0.460777 0.164172 0.193378
0.648951 0.183948 0.181201
0.796948 0.202579 0.179248
0.886213 0.220691 0.199405
0.946487 0.23444 0.238727
0.0610361 0.221714 0.323934
0.127596 0.218311 0.300435
0.195285 0.218647 0.281346
0.300237 0.224063 0.262165
0.457496 0.236667 0.24155
0.6448 0.252781 0.224216
0.795438 0.271138 0.218601
0.887526 0.288167 0.232029
0.946777 0.30106 0.26479
0.0852522 0.337514 0.394995
0.144121 0.332998 0.373449
0.209293 0.330831 0.352331
0.312169 0.332677 0.329274
0.468772 0.342245 0.303151
0.6551 0.355825 0.280659
0.801877 0.371832 0.269139
0.890288 0.385565 0.275593
0.95198 0.396689 0.302785
0.109499 0.486244 0.477211
0.162661 0.480598 0.455406
0.227985 0.477714 0.434897
0.333471 0.478859 0.408942
0.48893 0.482429 0.377874
0.671672 0.493675 0.351293
0.811536 0.504402 0.334813
0.899016 0.512413 0.332677
0.959197 0.516106 0.350042
0.121538 0.644388 0.564401
0.17464 0.642817 0.54609
0.240558 0.640391 0.526314
0.34728 0.639994 0.499275
0.503944 0.645258 0.466346
0.685603 0.651453 0.433295
0.824826 0.657893 0.409689
0.910155 0.659007 0.398459
0.965454 0.651728 0.405783
0.101381 0.777432 0.657359
0.155627 0.777081 0.64097
0.219104 0.77734 0.621714
0.320531 0.779446 0.596109
0.480613 0.786511 0.559808
0.674922 0.794186 0.520668
0.830976 0.798856 0.488701
0.92047 0.79852 0.473426
0.971649 0.785733 0.473503
0.052079 0.883314 0.753765
0.0590524 0.882506 0.745159
0.0915694 0.882963 0.731517
0.195651 0.88716 0.707622
0.339147 0.892699 0.676326
0.565423 0.904646 0.633951
0.78706 0.914824 0.592065
0.913466 0.915511 0.558923
0.976989 0.892653 0.53196
0.0544594 0.941802 0.79559
0.0542 0.941756 0.794171
0.0541848 0.941909 0.792889
0.0542458 0.941726 0.791608
0.0545052 0.940795 0.792462
0.117464 0.944915 0.779644
0.248432 0.953002 0.75523
0.519326 0.969207 0.711467
0.943404 0.993149 0.62742
0.0514992 0.0523995 0.182086
0.12575 0.0672923 0.202731
0.207004 0.0820935 0.221469
0.346929 0.102586 0.241596
0.547875 0.126787 0.248539
0.71986 0.148928 0.251179
0.834745 0.169146 0.264668
0.905943 0.188388 0.294804
0.951659 0.20032 0.340047
0.0736248 0.168307 0.376455
0.147066 0.172244 0.370764
0.227115 0.175128 0.352804
0.349157 0.183291 0.333913
0.523857 0.197528 0.314931
0.702876 0.215259 0.303868
0.829099 0.23389 0.305669
0.904402 0.249058 0.325826
0.953994 0.259358 0.360327
0.0891432 0.266514 0.47541
0.155901 0.261112 0.446311
0.233173 0.259281 0.423758
0.350484 0.265553 0.399847
0.520958 0.275929 0.374807
0.698436 0.290669 0.3552
0.82533 0.305974 0.347967
0.903777 0.319203 0.359625
0.954726 0.327016 0.386618
0.111757 0.389746 0.552163
0.170886 0.383032 0.526818
0.244907 0.379812 0.501488
0.360204 0.380056 0.473274
0.526696 0.386389 0.442679
0.702968 0.398077 0.416922
0.828855 0.408576 0.40206
0.907423 0.416968 0.405051
0.959258 0.421469 0.421942
0.133257 0.532128 0.630533
0.187442 0.526497 0.607172
0.259953 0.521859 0.582605
0.373968 0.521706 0.553094
0.538689 0.524285 0.518349
0.710231 0.531014 0.485664
0.835554 0.537087 0.466072
0.912902 0.540215 0.45716
0.964736 0.534951 0.463233
0.143969 0.673686 0.70399
0.196887 0.670741 0.685328
0.266224 0.66804 0.663523
0.379705 0.668147 0.633539
0.542916 0.671382 0.596979
0.717266 0.676005 0.56144
0.843671 0.677867 0.532586
0.922042 0.674769 0.514824
0.969757 0.664073 0.512947
0.118425 0.788037 0.776486
0.172198 0.788235 0.759777
0.239124 0.788922 0.74049
0.344579 0.790646 0.714183
0.509743 0.796826 0.67715
0.70074 0.803449 0.637156
0.843442 0.80676 0.60174
0.929168 0.803998 0.580377
0.975845 0.787732 0.56611
0.0556497 0.883406 0.84625
0.0700236 0.882506 0.837415
0.115221 0.883925 0.82417
0.214282 0.888014 0.800885
0.361837 0.894606 0.769924
0.584329 0.905699 0.725383
0.800092 0.915206 0.681147
0.920684 0.914534 0.644617
0.980163 0.889296 0.607889
0.0570077 0.941161 0.850309
0.0562905 0.9411 0.84715
0.0560159 0.941115 0.843793
0.055787 0.941009 0.839612
0.056199 0.941649 0.836789
0.134997 0.946242 0.827375
0.265751 0.953216 0.80029
0.538537 0.970016 0.752071
0.953155 0.992676 0.662623
0.084062 0.0849012 0.288975
0.161593 0.10222 0.326467
0.260716 0.119585 0.358389
0.431388 0.144488 0.39118
0.627253 0.167147 0.397101
0.775113 0.189639 0.402396
0.865385 0.208896 0.418631
0.925063 0.225803 0.445472
0.957763 0.232685 0.4804
0.109377 0.222843 0.561868
0.187427 0.221347 0.543496
0.279561 0.224887 0.520394
0.422263 0.233127 0.496315
0.604517 0.247501 0.476432
0.758999 0.262501 0.463508
0.859373 0.277699 0.464698
0.922683 0.289067 0.476936
0.960632 0.294347 0.500664
0.123766 0.331273 0.653696
0.194614 0.324468 0.624994
0.282719 0.32105 0.597894
0.418235 0.324269 0.569146
0.593454 0.333608 0.53994
0.752407 0.345678 0.517754
0.856916 0.354147 0.508965
0.921126 0.36231 0.510597
0.962448 0.363653 0.524102
0.142733 0.455512 0.723095
0.207141 0.448127 0.698466
0.28954 0.443992 0.673213
0.420203 0.442512 0.641382
0.593332 0.447181 0.606302
0.751568 0.45182 0.575952
0.857023 0.457221 0.558022
0.923293 0.458396 0.552087
0.96672 0.455207 0.556512
0.15967 0.586175 0.782788
0.220432 0.579507 0.761212
0.301091 0.575708 0.736873
0.425483 0.574441 0.705852
0.592264 0.575082 0.670527
0.751415 0.577813 0.637079
0.860365 0.578363 0.612772
0.927031 0.574212 0.596475
0.970336 0.562417 0.59173
0.166293 0.705364 0.835523
0.222293 0.702663 0.817411
0.299565 0.701686 0.798077
0.420645 0.700786 0.767361
0.585962 0.7028 0.731304
0.749035 0.705058 0.695155
0.863859 0.70425 0.66685
0.934508 0.697597 0.644678
0.975631 0.681147 0.63122
0.139544 0.80235 0.884108
0.194202 0.802274 0.870069
0.26363 0.802792 0.851774
0.374517 0.804868 0.826871
0.544854 0.811078 0.791043
0.72871 0.817227 0.751598
0.859525 0.817456 0.720165
0.938277 0.813382 0.693843
0.980102 0.791455 0.668147
0.0597391 0.883787 0.929381
0.0823682 0.883986 0.921492
0.137011 0.885649 0.908873
0.233906 0.889158 0.887663
0.383383 0.896315 0.857313
0.605646 0.906889 0.815091
0.813596 0.914687 0.771542
0.927611 0.913863 0.734112
0.982956 0.885786 0.690318
0.0586404 0.94168 0.907637
0.0586252 0.941939 0.904326
0.0584268 0.941863 0.90013
0.0584878 0.941527 0.894469
0.0582437 0.941451 0.888685
0.115373 0.944274 0.875959
0.283986 0.95404 0.850477
0.559243 0.97113 0.798672
0.962432 0.993271 0.700175
0.12636 0.131197 0.467124
0.217136 0.152529 0.517647
0.345006 0.177707 0.560845
0.544839 0.209873 0.592752
0.711406 0.23125 0.58793
0.826627 0.251377 0.588434
0.895537 0.268391 0.598825
0.945144 0.281697 0.612238
0.964935 0.285985 0.625055
0.154391 0.309545 0.763043
0.243656 0.303807 0.736614
0.351293 0.306188 0.712581
0.516442 0.313664 0.684215
0.688472 0.323644 0.659739
0.813535 0.335073 0.644862
0.890242 0.344411 0.640421
0.942245 0.35198 0.641001
0.967056 0.348653 0.646708
0.164599 0.423163 0.824781
0.244129 0.415366 0.799695
0.346105 0.413046 0.775494
0.501381 0.413184 0.743893
0.672984 0.417182 0.713558
0.805646 0.422293 0.690135
0.886458 0.424872 0.677119
0.940536 0.426307 0.670192
0.969329 0.418097 0.667903
0.178866 0.540673 0.872908
0.252659 0.533791 0.851835
0.346471 0.528267 0.828229
0.492531 0.525322 0.79707
0.66186 0.52639 0.76463
0.798016 0.52578 0.735027
0.882841 0.524025 0.714611
0.940932 0.517937 0.702312
0.972992 0.503502 0.69398
0.190585 0.649485 0.911742
0.258198 0.644755 0.893446
0.346349 0.641459 0.872175
0.484123 0.639399 0.842298
0.648615 0.63801 0.808087
0.791333 0.637415 0.778332
0.882902 0.631754 0.754818
0.942504 0.622003 0.736843
0.976761 0.602502 0.721019
0.193973 0.742336 0.943648
0.254582 0.741482 0.929915
0.335424 0.740658 0.910094
0.46421 0.740719 0.884031
0.62974 0.74229 0.851316
0.783047 0.741833 0.818326
0.883055 0.738903 0.793072
0.94728 0.728054 0.76965
0.98088 0.706828 0.748318
0.160723 0.820905 0.97705
0.215366 0.820417 0.964187
0.288563 0.821744 0.948013
0.408988 0.82504 0.924895
0.579049 0.830259 0.893263
0.757259 0.834302 0.856321
0.874708 0.832975 0.826917
0.947677 0.825833 0.799725
0.983063 0.800427 0.765927
0.0641184 0.884565 0.997223
0.097612 0.884932 0.994308
0.156619 0.887251 0.983246
0.25301 0.89134 0.964736
0.405463 0.898222 0.935637
0.624582 0.908156 0.896345
0.824613 0.915846 0.854871
0.933639 0.913207 0.820996
0.985687 0.882948 0.77438
0.0614939 0.941802 0.972717
0.0611276 0.941787 0.968688
0.0606546 0.94229 0.963821
0.0602884 0.942016 0.956649
0.0601053 0.941985 0.947875
0.089128 0.943084 0.935912
0.264515 0.954086 0.904448
0.5888 0.973007 0.854475
0.971283 0.993393 0.74786
0.193286 0.227634 0.734234
0.316442 0.26363 0.770382
0.485283 0.307469 0.795758
0.663081 0.333623 0.787366
0.793515 0.351202 0.77615
0.872816 0.366812 0.771649
0.925246 0.379751 0.770825
0.965194 0.386984 0.772137
0.972808 0.383001 0.766491
0.233738 0.454139 0.924208
0.320226 0.446616 0.903532
0.452506 0.447272 0.87982
0.622797 0.450675 0.851957
0.767895 0.455283 0.828458
0.860502 0.458701 0.813458
0.919097 0.461173 0.803479
0.961883 0.45893 0.795789
0.975052 0.443976 0.788128
0.225132 0.557687 0.964553
0.307851 0.550286 0.946288
0.428809 0.545739 0.921965
0.592126 0.54522 0.893294
0.746777 0.544701 0.865049
0.849805 0.541466 0.845045
0.91426 0.536202 0.829618
0.959609 0.527916 0.816938
0.97734 0.50808 0.805707
0.220645 0.65008 0.99295
0.302708 0.644709 0.979019
0.41294 0.641016 0.958389
0.566247 0.638987 0.929274
0.72491 0.636805 0.899062
0.839796 0.631601 0.875792
0.909255 0.62269 0.858671
0.959335 0.611002 0.84239
0.980163 0.58378 0.824872
0.226917 0.726635 0.999771
0.301152 0.723934 0.998581
0.3991 0.722133 0.9879
0.545342 0.722332 0.959854
0.703395 0.720913 0.929702
0.828946 0.717433 0.905196
0.90518 0.708736 0.883909
0.959167 0.694591 0.866011
0.982528 0.66099 0.843626
0.219837 0.786664 0.999664
0.286107 0.786862 0.999664
0.372717 0.787243 0.997909
0.508721 0.789288 0.984817
0.673152 0.792035 0.956603
0.812207 0.791333 0.930388
0.899855 0.78526 0.907759
0.958465 0.771405 0.885374
0.985428 0.73994 0.855497
0.179141 0.8374 0.999863
0.234165 0.838743 0.999786
0.307637 0.840909 0.999908
0.429664 0.843656 0.998489
0.60061 0.849378 0.981033
0.769146 0.852613 0.9505
0.881941 0.85127 0.924941
0.95378 0.841291 0.900313
0.987579 0.812558 0.862242
0.0780041 0.885206 0.999985
0.113954 0.886473 1
0.175296 0.888808 0.999969
0.268452 0.892149 0.999908
0.417762 0.899702 0.999298
0.631006 0.909163 0.977539
0.825895 0.916152 0.942245
0.936873 0.913115 0.910887
0.98967 0.883925 0.8636
0.0641642 0.942916 0.999771
0.0655833 0.943053 0.999924
0.065095 0.942535 0.999786
0.0649271 0.942321 0.999741
0.0641489 0.942733 0.999741
0.0653239 0.942031 0.999542
0.220401 0.950942 0.981826
0.58262 0.973007 0.921767
0.978164 0.993347 0.817319
0.42829 0.536919 0.988525
0.466773 0.576867 0.99646
0.602899 0.592371 0.982116
0.749126 0.605356 0.964981
0.847639 0.617502 0.952865
0.907897 0.624567 0.945861
0.948989 0.626307 0.939666
0.980789 0.618997 0.934539
0.984802 0.592004 0.925795
0.397391 0.647471 0.999847
0.398093 0.646128 0.999619
0.441764 0.6486 0.99939
0.638376 0.66067 0.989746
0.789075 0.672038 0.970001
0.876829 0.678279 0.959014
0.932418 0.677165 0.951171
0.973632 0.667781 0.944183
0.985809 0.638819 0.936645
0.344869 0.689387 1
0.346639 0.686824 0.999908
0.353872 0.687129 0.999924
0.535912 0.695949 0.999466
0.726986 0.707439 0.985351
0.846601 0.716213 0.96968
0.915328 0.716716 0.960754
0.964508 0.709468 0.951965
0.987259 0.680385 0.943969
0.290654 0.725124 0.999603
0.292073 0.723918 0.999832
0.299809 0.723522 0.999405
0.440299 0.729763 0.999603
0.654063 0.74229 0.99852
0.808789 0.750546 0.981735
0.896406 0.754925 0.970062
0.953628 0.749935 0.960922
0.989395 0.724193 0.951293
0.235615 0.755673 0.999985
0.237949 0.755535 1
0.246586 0.755566 0.99968
0.355261 0.760021 0.999985
0.568017 0.771099 0.999985
0.757992 0.781369 0.993591
0.874022 0.788251 0.978683
0.941833 0.786496 0.968353
0.990356 0.765484 0.95848
0.178058 0.784054 0.999893
0.178317 0.783169 0.999329
0.180163 0.783185 0.999908
0.268589 0.786389 0.99971
0.458137 0.795514 0.99971
0.68275 0.808286 0.999481
0.84303 0.816419 0.98764
0.929854 0.820249 0.976547
0.98967 0.804166 0.965393
0.0881971 0.811399 1
0.0910048 0.810666 0.999695
0.0979171 0.81062 0.99968
0.1785 0.815122 0.999954
0.338506 0.821942 0.999863
0.5729 0.834104 0.999649
0.795712 0.846052 0.997726
0.914778 0.852506 0.983246
0.990753 0.841108 0.971771
0.0647746 0.854627 0.999954
0.0654917 0.853727 0.999924
0.0660716 0.853162 0.999741
0.0998703 0.854109 0.999649
0.217609 0.858824 0.999878
0.401389 0.86772 0.999756
0.669505 0.88127 0.999817
0.881849 0.891096 0.994263
0.993347 0.885588 0.979217
0.0661936 0.930907 0.999954
0.0657816 0.931731 0.999939
0.0653697 0.932647 0.999893
0.0669413 0.933822 0.999985
0.066041 0.935119 0.999832
0.0673533 0.938842 0.999939
0.101778 0.944213 0.999908
0.381003 0.961517 0.999924
0.997192 0.997864 0.997391
