app/src/main/assets/luts/classicchrome.cube
TITLE "Generated by Resolve"
LUT_3D_SIZE 5
0 0 0
0.163348 0.00883497 0.00341802
0.553979 0.0390631 0.0254063
0.860197 0.132296 0.100435
0.963363 0.261418 0.244877
0.0347295 0.21973 0.01355
0.259953 0.229618 0.0120546
0.57908 0.272129 0.0346532
0.844083 0.358343 0.105287
0.958465 0.440146 0.241688
0.160983 0.611978 0.07953
0.38024 0.606806 0.087129
0.642557 0.614984 0.112352
0.85948 0.642222 0.178103
0.95169 0.655695 0.284459
0.258793 0.880659 0.177966
0.452506 0.875288 0.191867
0.687694 0.872709 0.232258
0.880354 0.876402 0.297734
0.957519 0.836179 0.376394
0.239765 0.961288 0.383795
0.31426 0.959854 0.384863
0.447166 0.959945 0.390539
0.660929 0.963958 0.411063
0.971786 0.979278 0.432029
0.000610361 0.00665293 0.100221
0.240558 0.0212711 0.156146
0.640589 0.0661173 0.229725
0.895262 0.164508 0.321157
0.960113 0.293828 0.398108
0.0102998 0.291951 0.310536
0.285084 0.288441 0.28571
0.620508 0.318074 0.295277
0.869123 0.386847 0.350072
0.957977 0.455283 0.419196
0.118883 0.63476 0.395392
0.371084 0.626581 0.379782
0.652689 0.630457 0.377997
0.869459 0.651423 0.40795
0.952468 0.661295 0.465553
0.20943 0.877501 0.457694
0.430777 0.872038 0.458259
0.68661 0.871031 0.470039
0.884123 0.874708 0.494377
0.959319 0.8309 0.513558
0.199893 0.960037 0.477058
0.298466 0.95967 0.489494
0.445914 0.960342 0.499123
0.66038 0.964248 0.505913
0.974365 0.981155 0.489662
0.00161746 0.0300298 0.350027
0.325322 0.0637369 0.477974
0.703502 0.124392 0.539727
0.92578 0.226993 0.595285
0.959487 0.365347 0.591684
0.00610361 0.38204 0.652247
0.283925 0.371069 0.620661
0.657099 0.387808 0.607462
0.891554 0.435248 0.619699
0.95584 0.515618 0.626215
0.0424201 0.667628 0.690303
0.321843 0.658427 0.671092
0.656626 0.659403 0.657038
0.881224 0.67512 0.658579
0.95433 0.679103 0.655055
0.106615 0.872389 0.703563
0.355428 0.866331 0.69778
0.663584 0.868223 0.697002
0.882475 0.872221 0.696574
0.963241 0.826902 0.671672
0.102022 0.960647 0.604623
0.196628 0.95903 0.606531
0.400336 0.959976 0.617212
0.654841 0.966018 0.635477
0.977127 0.984314 0.578302
0.00434882 0.125124 0.757321
0.346181 0.183917 0.825864
0.738033 0.249104 0.820829
0.947509 0.336019 0.832593
0.959701 0.43122 0.760937
0.0195468 0.495872 0.897841
0.143679 0.481468 0.877226
0.655299 0.490028 0.85742
0.905699 0.522866 0.848981
0.955657 0.556954 0.782727
0.0437018 0.714916 0.908202
0.121172 0.70634 0.89424
0.616526 0.706584 0.876463
0.884459 0.714351 0.863294
0.956558 0.703212 0.802274
0.0624552 0.856489 0.883741
0.110826 0.852705 0.872862
0.551919 0.853269 0.862943
0.859281 0.860975 0.85948
0.965957 0.828122 0.814435
0.0881514 0.958953 0.768551
0.0877546 0.959014 0.760937
0.194873 0.957916 0.75256
0.595132 0.965194 0.766155
0.983032 0.988724 0.714366
0.016083 0.424353 0.977859
0.0169833 0.438697 0.977539
0.406653 0.500313 0.965667
0.802136 0.557427 0.961181
0.955291 0.553979 0.961257
0.0274968 0.561715 0.968002
0.0274815 0.559915 0.965545
0.123064 0.574136 0.967086
0.711131 0.625589 0.959136
0.956817 0.643549 0.961395
0.0401007 0.680323 0.960739
0.0393988 0.675975 0.960571
0.0594339 0.672862 0.960433
0.664607 0.701488 0.957092
0.958556 0.726329 0.964416
0.0561379 0.799481 0.957351
0.055314 0.795438 0.958083
0.0607156 0.788769 0.95758
0.635996 0.797131 0.95584
0.967651 0.808438 0.969421
0.100328 0.955962 0.930877
0.0990921 0.956588 0.930877
0.0989548 0.956329 0.93257
0.100359 0.956954 0.935225
1 1 1
