app/src/main/assets/luts/classicchrome.cube
TITLE "Generated by Resolve"
LUT_3D_SIZE 9
0 0 0
0.0624704 0.00350958 0.00151064
0.163348 0.00883497 0.00341802
0.331624 0.0187991 0.0106355
0.553979 0.0390631 0.0254063
0.729274 0.0753338 0.0536507
0.860197 0.132296 0.100435
0.965682 0.211398 0.181827
0.963363 0.261418 0.244877
0.00906386 0.0783551 0.00614939
0.0981155 0.0846113 0.00318914
0.219593 0.0925154 0.00561532
0.381353 0.111925 0.00935378
0.560464 0.13904 0.0232853
0.719615 0.181353 0.053254
0.848356 0.241382 0.09897
0.95433 0.314488 0.177234
0.958938 0.350637 0.236866
0.0347295 0.21973 0.01355
0.135271 0.22153 0.0096437
0.259953 0.229618 0.0120546
0.413901 0.247013 0.0185245
0.57908 0.272129 0.0346532
0.723171 0.311009 0.063508
0.844083 0.358343 0.105287
0.954665 0.415839 0.179461
0.958465 0.440146 0.241688
0.0862593 0.418173 0.0333867
0.194614 0.415915 0.0346685
0.317556 0.417105 0.0393988
0.459968 0.424521 0.0496834
0.607752 0.439567 0.0670634
0.736996 0.466361 0.0920729
0.85069 0.498863 0.133425
0.952392 0.539467 0.19826
0.956329 0.544518 0.252186
0.160983 0.611978 0.07953
0.267002 0.608316 0.0818647
0.38024 0.606806 0.087129
0.509316 0.608316 0.0957046
0.642557 0.614984 0.112352
0.757702 0.626429 0.137133
0.85948 0.642222 0.178103
0.948791 0.665766 0.243488
0.95169 0.655695 0.284459
0.230564 0.760067 0.131167
0.328817 0.757397 0.133883
0.429435 0.755734 0.139574
0.550683 0.755535 0.147707
0.669535 0.756848 0.165759
0.775113 0.760143 0.193622
0.869261 0.767025 0.23508
0.953048 0.779583 0.301274
0.952987 0.755444 0.334096
0.258793 0.880659 0.177966
0.354192 0.878035 0.182513
0.452506 0.875288 0.191867
0.57174 0.872663 0.210361
0.687694 0.872709 0.232258
0.788724 0.87364 0.25951
0.880354 0.876402 0.297734
0.958511 0.876783 0.3505
0.957519 0.836179 0.376394
0.176028 0.961822 0.190341
0.25948 0.960296 0.193851
0.361578 0.959609 0.204608
0.487541 0.957092 0.225116
0.617563 0.955673 0.245182
0.73695 0.957473 0.27155
0.842817 0.957534 0.304799
0.94464 0.95613 0.353231
0.96466 0.918685 0.404044
0.239765 0.961288 0.383795
0.27306 0.960464 0.384039
0.31426 0.959854 0.384863
0.372976 0.95996 0.387793
0.447166 0.959945 0.390539
0.542107 0.961196 0.400443
0.660929 0.963958 0.411063
0.797925 0.968948 0.429572
0.971786 0.979278 0.432029
0.000228885 0.00283818 0.0379339
0.0772259 0.0081178 0.0543221
0.203876 0.0138247 0.0664836
0.396033 0.0260471 0.0846723
0.604517 0.0503243 0.109346
0.758785 0.090486 0.145922
0.882048 0.145678 0.199008
0.964355 0.221942 0.278111
0.962707 0.267903 0.303593
0.00399786 0.103136 0.110399
0.104875 0.10695 0.104936
0.24593 0.114244 0.104204
0.418128 0.130068 0.114321
0.595972 0.158648 0.130922
0.743404 0.199466 0.162051
0.864469 0.255741 0.208728
0.95787 0.322759 0.281621
0.960159 0.354421 0.315572
0.0209506 0.257069 0.151247
0.135927 0.25391 0.140795
0.276875 0.25774 0.138949
0.438895 0.271489 0.144167
0.602533 0.294423 0.158053
0.74229 0.326452 0.184009
0.859632 0.370367 0.227726
0.957778 0.423529 0.290425
0.958282 0.442145 0.32845
0.0688029 0.44303 0.192035
0.1897 0.437583 0.183627
0.322011 0.437079 0.179232
0.471901 0.441947 0.183917
0.621195 0.455985 0.19585
0.750118 0.476631 0.217731
0.859907 0.507301 0.254749
0.954238 0.54255 0.314031
0.95581 0.546075 0.344244
0.141634 0.622034 0.242634
0.257008 0.61796 0.237644
0.375601 0.61561 0.235355
0.513741 0.616098 0.235706
0.648737 0.62121 0.244755
0.764202 0.63061 0.262425
0.863081 0.646052 0.295323
0.949493 0.667262 0.349355
0.952102 0.658061 0.380194
0.209094 0.761379 0.289403
0.313939 0.758663 0.28603
0.420737 0.757122 0.284367
0.547616 0.756481 0.28867
0.671489 0.757473 0.296681
0.778424 0.761349 0.315999
0.873396 0.768093 0.345266
0.953796 0.779355 0.396887
0.952911 0.753201 0.415579
0.237919 0.878859 0.326192
0.337789 0.875608 0.327565
0.442939 0.873152 0.332769
0.5682 0.871763 0.341253
0.688167 0.871382 0.356802
0.791348 0.872831 0.374426
0.882902 0.875212 0.399725
0.959243 0.875242 0.436545
0.95848 0.833432 0.445335
0.154223 0.960128 0.313375
0.242451 0.958618 0.317342
0.349081 0.95581 0.324407
0.477836 0.954009 0.334783
0.614542 0.95375 0.349172
0.737346 0.954986 0.368292
0.844175 0.956771 0.389654
0.947906 0.954559 0.426246
0.966125 0.915541 0.459159
0.229419 0.960555 0.433127
0.271565 0.960021 0.439017
0.314992 0.959503 0.440696
0.372198 0.959564 0.442145
0.447272 0.959976 0.444312
0.542672 0.961379 0.44979
0.659739 0.964614 0.455634
0.798444 0.970214 0.469505
0.97261 0.979751 0.46006
0.000610361 0.00665293 0.100221
0.0907301 0.0129244 0.127001
0.240558 0.0212711 0.156146
0.447791 0.0373388 0.192493
0.640589 0.0661173 0.229725
0.782513 0.107378 0.26978
0.895262 0.164508 0.321157
0.963043 0.239246 0.38883
0.960113 0.293828 0.398108
0.00199893 0.129641 0.248768
0.10695 0.132692 0.241398
0.263233 0.137057 0.238224
0.447395 0.156222 0.245594
0.622202 0.182696 0.262333
0.762905 0.222187 0.291096
0.878264 0.275029 0.334356
0.95935 0.336385 0.390463
0.958129 0.372854 0.409812
0.0102998 0.291951 0.310536
0.132235 0.2869 0.294636
0.285084 0.288441 0.28571
0.455863 0.298604 0.285115
0.620508 0.318074 0.295277
0.756649 0.347662 0.31574
0.869123 0.386847 0.350072
0.957214 0.432654 0.39913
0.957977 0.455283 0.419196
0.0515297 0.468406 0.354177
0.177905 0.462562 0.340566
0.321706 0.458488 0.331579
0.480415 0.462913 0.329335
0.632303 0.473121 0.333669
0.759228 0.49218 0.347082
0.867628 0.517311 0.374701
0.954513 0.550912 0.417411
0.954681 0.555459 0.436728
0.118883 0.63476 0.395392
0.242634 0.630503 0.384939
0.371084 0.626581 0.379782
0.514595 0.626917 0.376287
0.652689 0.630457 0.377997
0.769116 0.63827 0.386816
0.869459 0.651423 0.40795
0.951919 0.671534 0.448249
0.952468 0.661295 0.465553
0.179873 0.764599 0.429908
0.292226 0.762646 0.42356
0.407965 0.760845 0.418265
0.542641 0.759823 0.418219
0.672496 0.760113 0.422522
0.781994 0.763592 0.431373
0.876616 0.77026 0.452384
0.955825 0.782162 0.488899
0.95494 0.7523 0.493492
0.20943 0.877501 0.457694
0.316289 0.874678 0.45687
0.430777 0.872038 0.458259
0.562463 0.870756 0.462608
0.68661 0.871031 0.470039
0.792004 0.872602 0.479988
0.884123 0.874708 0.494377
0.961883 0.87335 0.515267
0.959319 0.8309 0.513558
0.134371 0.956771 0.428534
0.219211 0.954223 0.429374
0.329671 0.952377 0.433463
0.465797 0.950286 0.439506
0.609339 0.950637 0.449897
0.734844 0.952972 0.459648
0.845685 0.953658 0.473838
0.949538 0.952636 0.497948
0.967086 0.911818 0.514565
0.199893 0.960037 0.477058
0.243214 0.959686 0.48246
0.298466 0.95967 0.489494
0.370748 0.95935 0.497459
0.445914 0.960342 0.499123
0.541268 0.96144 0.499657
0.66038 0.964248 0.505913
0.798611 0.970626 0.512184
0.974365 0.981155 0.489662
0.000885023 0.0140841 0.198489
0.107485 0.0231327 0.252049
0.281697 0.0364843 0.297642
0.502815 0.0590219 0.350134
0.675654 0.08925 0.377508
0.803647 0.133547 0.415045
0.912352 0.190707 0.456611
0.962203 0.262043 0.509102
0.960845 0.334829 0.501137
0.00105287 0.171801 0.430732
0.103578 0.169116 0.412695
0.28513 0.173114 0.407279
0.475349 0.18967 0.406516
0.647089 0.21677 0.416281
0.780591 0.254185 0.438407
0.892546 0.301762 0.470542
0.959838 0.35613 0.511589
0.959594 0.403006 0.514488
0.00300603 0.334264 0.487205
0.117128 0.325612 0.466377
0.287907 0.325826 0.451957
0.472343 0.332952 0.446006
0.640696 0.349676 0.449516
0.771298 0.37499 0.46244
0.880232 0.409125 0.48423
0.959121 0.449363 0.518822
0.958312 0.477806 0.524361
0.0285954 0.501076 0.524208
0.155367 0.492531 0.507073
0.315373 0.48957 0.496376
0.486427 0.489967 0.487694
0.644999 0.499535 0.485863
0.771099 0.513054 0.49102
0.874769 0.533318 0.503456
0.955306 0.56318 0.53611
0.953735 0.571664 0.540413
0.0827955 0.649165 0.551125
0.210071 0.644663 0.54139
0.35317 0.641291 0.530327
0.511177 0.64004 0.524422
0.656077 0.642802 0.520195
0.774273 0.649927 0.522744
0.874479 0.661555 0.533379
0.953948 0.678569 0.558679
0.953674 0.668467 0.563821
0.138598 0.770459 0.575326
0.258442 0.767468 0.568734
0.387518 0.765972 0.562249
0.534478 0.764538 0.555917
0.671366 0.765652 0.555505
0.784222 0.768948 0.558389
0.88159 0.775845 0.569772
0.957763 0.787198 0.593545
0.955779 0.753201 0.580789
0.164202 0.87538 0.591745
0.277958 0.872557 0.588586
0.404837 0.870054 0.588708
0.546685 0.869139 0.589563
0.680339 0.870909 0.590311
0.790494 0.872633 0.593332
0.885374 0.873335 0.59704
0.963104 0.872267 0.605356
0.961151 0.828733 0.591241
0.102434 0.950805 0.55259
0.181735 0.948623 0.549874
0.296498 0.946639 0.549828
0.441886 0.94609 0.552819
0.595621 0.947356 0.55906
0.731273 0.949615 0.564752
0.845853 0.952102 0.571252
0.951782 0.950454 0.582849
0.968093 0.908766 0.58291
0.157275 0.960266 0.536385
0.201389 0.959823 0.538079
0.2589 0.958892 0.542306
0.339818 0.959381 0.550164
0.442008 0.959228 0.563668
0.539498 0.961654 0.565454
0.657481 0.965179 0.566842
0.799237 0.971817 0.568048
0.975326 0.982452 0.530022
0.00161746 0.0300298 0.350027
0.123125 0.046952 0.417105
0.325322 0.0637369 0.477974
0.543389 0.0889143 0.518471
0.703502 0.124392 0.539727
0.824002 0.171084 0.56495
0.92578 0.226993 0.595285
0.961364 0.292103 0.627359
0.959487 0.365347 0.591684
0.00291447 0.221805 0.61268
0.0890211 0.217166 0.593179
0.291066 0.221881 0.580163
0.497093 0.235203 0.574746
0.671473 0.260487 0.578485
0.799802 0.294865 0.589517
0.903441 0.334905 0.607675
0.958999 0.380575 0.633066
0.959609 0.439048 0.609857
0.00610361 0.38204 0.652247
0.0890974 0.37203 0.634043
0.283925 0.371069 0.620661
0.484382 0.375082 0.610529
0.657099 0.387808 0.607462
0.78468 0.408545 0.608774
0.891554 0.435248 0.619699
0.958129 0.472099 0.639765
0.95584 0.515618 0.626215
0.0191958 0.534981 0.676158
0.117372 0.52668 0.660853
0.294942 0.521935 0.649241
0.484947 0.521889 0.638056
0.650339 0.527398 0.63212
0.778759 0.538384 0.630549
0.882918 0.555993 0.636881
0.954787 0.581567 0.651286
0.953628 0.597025 0.64155
0.0424201 0.667628 0.690303
0.161166 0.662745 0.680049
0.321843 0.658427 0.671092
0.497993 0.657755 0.663005
0.656626 0.659403 0.657038
0.77969 0.665751 0.65478
0.881224 0.67512 0.658579
0.95523 0.690349 0.670405
0.95433 0.679103 0.655055
0.0842908 0.779339 0.703944
0.201053 0.77641 0.697368
0.349844 0.773541 0.691966
0.515724 0.772595 0.68542
0.668605 0.774182 0.682033
0.787503 0.778042 0.681575
0.88658 0.785138 0.685664
0.960159 0.790372 0.691676
0.958251 0.755703 0.666529
0.106615 0.872389 0.703563
0.212436 0.869291 0.700206
0.355428 0.866331 0.69778
0.514122 0.866865 0.697169
0.663584 0.868223 0.697002
0.784054 0.870237 0.696391
0.882475 0.872221 0.696574
0.967163 0.869947 0.695125
0.963241 0.826902 0.671672
0.076524 0.945098 0.66424
0.12755 0.943313 0.661097
0.2392 0.94052 0.659144
0.402426 0.940124 0.660716
0.570535 0.941131 0.662806
0.72015 0.945022 0.666926
0.842542 0.947723 0.667826
0.952178 0.947982 0.669337
0.970031 0.90425 0.656794
0.102022 0.960647 0.604623
0.139544 0.960128 0.604364
0.196628 0.95903 0.606531
0.285298 0.958999 0.609491
0.400336 0.959976 0.617212
0.529702 0.961868 0.63093
0.654841 0.966018 0.635477
0.801022 0.97258 0.634546
0.977127 0.984314 0.578302
0.00263981 0.0640879 0.550988
0.132036 0.0843671 0.617426
0.35729 0.108858 0.672801
0.570703 0.138567 0.68365
0.727153 0.175631 0.692256
0.84094 0.22063 0.704738
0.937865 0.272816 0.719356
0.961028 0.331258 0.731838
0.959533 0.397879 0.677714
0.00447089 0.286885 0.765042
0.0480049 0.280919 0.749187
0.279927 0.282094 0.734142
0.508797 0.294789 0.724376
0.686946 0.313207 0.721904
0.812955 0.341238 0.72282
0.915602 0.374609 0.730327
0.960708 0.415518 0.740993
0.957626 0.466102 0.693706
0.0124208 0.433921 0.785428
0.0401923 0.424125 0.771832
0.24445 0.420447 0.758083
0.477958 0.422965 0.746517
0.662593 0.433799 0.7402
0.79556 0.449561 0.737774
0.90042 0.472145 0.740291
0.956817 0.503349 0.748425
0.956832 0.536446 0.705379
0.0235599 0.572717 0.797711
0.0573129 0.563638 0.784894
0.241199 0.558328 0.774029
0.46479 0.557565 0.764324
0.65069 0.561105 0.757275
0.78381 0.570184 0.751995
0.887892 0.585061 0.751659
0.95404 0.606256 0.757015
0.953979 0.618509 0.719905
0.0385595 0.689845 0.803601
0.0869612 0.684047 0.796063
0.256413 0.680385 0.787335
0.464775 0.679744 0.779919
0.648051 0.680827 0.772931
0.780438 0.686305 0.767819
0.887205 0.694301 0.768093
0.956573 0.706691 0.770321
0.956283 0.696101 0.736309
0.0532235 0.7897 0.812604
0.111498 0.786267 0.804913
0.271351 0.785626 0.799908
0.475517 0.78378 0.794003
0.653559 0.784772 0.788617
0.785107 0.787854 0.785946
0.887724 0.791653 0.782254
0.961151 0.792325 0.777996
0.959869 0.761791 0.744213
0.0625467 0.865461 0.798566
0.108248 0.864347 0.792813
0.259205 0.860639 0.788357
0.45214 0.860212 0.786313
0.629358 0.862943 0.785397
0.770123 0.866148 0.783917
0.876997 0.868055 0.782467
0.966934 0.867277 0.776349
0.964263 0.826444 0.744915
0.0804456 0.93463 0.762066
0.0849165 0.934539 0.757107
0.15169 0.932952 0.753155
0.326894 0.931914 0.751095
0.523125 0.934066 0.753033
0.697551 0.938491 0.755962
0.833417 0.942306 0.755825
0.950195 0.943801 0.753429
0.971679 0.898863 0.729519
0.0809491 0.960861 0.681849
0.0869154 0.9608 0.679301
0.112566 0.959976 0.676341
0.200168 0.958923 0.677134
0.330541 0.958236 0.680262
0.483528 0.960571 0.688762
0.64686 0.966583 0.704707
0.798672 0.974456 0.703883
0.979309 0.985504 0.637873
0.00434882 0.125124 0.757321
0.0970474 0.156756 0.807996
0.346181 0.183917 0.825864
0.577707 0.212406 0.822034
0.738033 0.249104 0.820829
0.852583 0.289677 0.825299
0.947509 0.336019 0.832593
0.960052 0.385901 0.828946
0.959701 0.43122 0.760937
0.00976577 0.360906 0.884779
0.00968948 0.354345 0.871519
0.211353 0.353933 0.860349
0.488624 0.363256 0.84918
0.688457 0.379278 0.843809
0.821027 0.401404 0.841077
0.923537 0.429877 0.841596
0.957916 0.466239 0.839261
0.95639 0.494224 0.7729
0.0195468 0.495872 0.897841
0.019913 0.487053 0.887251
0.143679 0.481468 0.877226
0.433249 0.483619 0.864302
0.655299 0.490028 0.85742
0.799344 0.502708 0.851377
0.905699 0.522866 0.848981
0.955322 0.5458 0.847471
0.955657 0.556954 0.782727
0.0327459 0.618753 0.905821
0.03122 0.61001 0.897124
0.116197 0.603357 0.888228
0.399329 0.602502 0.877867
0.631998 0.605035 0.869978
0.783001 0.613031 0.861234
0.893263 0.624659 0.857389
0.954772 0.633173 0.852125
0.954574 0.630091 0.792203
0.0437018 0.714916 0.908202
0.0431373 0.710002 0.902098
0.121172 0.70634 0.89424
0.380575 0.70515 0.885435
0.616526 0.706584 0.876463
0.77322 0.710353 0.869993
0.884459 0.714351 0.863294
0.958129 0.715099 0.855406
0.956558 0.703212 0.802274
0.0541238 0.789197 0.901671
0.0552377 0.785977 0.896056
0.115404 0.784268 0.889738
0.355154 0.782879 0.88069
0.591379 0.784939 0.874647
0.757778 0.788998 0.8692
0.874083 0.791989 0.862989
0.960708 0.790387 0.856626
0.960983 0.770916 0.812222
0.0624552 0.856489 0.883741
0.0645457 0.854719 0.878935
0.110826 0.852705 0.872862
0.320546 0.850187 0.866453
0.551919 0.853269 0.862943
0.731365 0.858412 0.862181
0.859281 0.860975 0.85948
0.962524 0.861341 0.852583
0.965957 0.828122 0.814435
0.0814679 0.923674 0.847578
0.0821546 0.922423 0.843793
0.0875868 0.921401 0.839033
0.188907 0.920241 0.83418
0.425116 0.921263 0.832547
0.64712 0.926787 0.835615
0.811093 0.932616 0.836103
0.943954 0.936339 0.832975
0.972854 0.893858 0.802304
0.0881514 0.958953 0.768551
0.087602 0.959045 0.764752
0.0877546 0.959014 0.760937
0.0941176 0.958587 0.755718
0.194873 0.957916 0.75256
0.385336 0.959106 0.755199
0.595132 0.965194 0.766155
0.792432 0.975219 0.779751
0.983032 0.988724 0.714366
0.00517281 0.255421 0.943618
0.0099794 0.291035 0.968902
0.216861 0.30515 0.959472
0.527153 0.33051 0.951675
0.727886 0.36025 0.950805
0.851545 0.392874 0.948562
0.945953 0.422324 0.943877
0.958984 0.447807 0.92752
0.956527 0.478904 0.852293
0.0180056 0.463615 0.975906
0.0181582 0.457404 0.975906
0.0302129 0.456184 0.975143
0.36434 0.460517 0.968627
0.645518 0.472129 0.96228
0.806439 0.485588 0.957122
0.912398 0.502083 0.947173
0.95668 0.513939 0.934478
0.955413 0.530938 0.861677
0.0270237 0.559411 0.967361
0.026276 0.556085 0.968002
0.0285496 0.552193 0.966613
0.240375 0.551385 0.965652
0.572076 0.557122 0.963699
0.768551 0.565728 0.956436
0.887907 0.573297 0.949477
0.955642 0.578668 0.936721
0.954543 0.583917 0.869764
0.0366522 0.641169 0.961303
0.0355383 0.638498 0.962417
0.0348363 0.635431 0.963638
0.152636 0.632853 0.962386
0.498634 0.637201 0.961624
0.728191 0.642649 0.955978
0.864286 0.647227 0.951385
0.954925 0.6477 0.939376
0.956283 0.645014 0.876249
0.0444038 0.710323 0.960113
0.0439155 0.708644 0.96022
0.0440223 0.706584 0.960372
0.083711 0.704707 0.959533
0.431464 0.707027 0.958007
0.692302 0.711681 0.957671
0.845518 0.71606 0.948989
0.952163 0.71722 0.938445
0.959182 0.70631 0.881697
0.0529641 0.773907 0.957366
0.0519265 0.772839 0.957855
0.051957 0.772183 0.957885
0.088716 0.769985 0.957473
0.377005 0.771069 0.95404
0.660624 0.776532 0.95108
0.827344 0.782467 0.945617
0.948363 0.784115 0.937453
0.962921 0.767605 0.881453
0.0623026 0.835508 0.956344
0.0622263 0.834821 0.955932
0.0628519 0.83386 0.955123
0.0756085 0.833173 0.953933
0.310063 0.832258 0.94847
0.610788 0.837644 0.942473
0.80592 0.845197 0.939956
0.938781 0.847364 0.932296
0.967712 0.827115 0.880034
0.0831922 0.901366 0.941085
0.0825666 0.901305 0.939254
0.0808576 0.901701 0.93576
0.0800183 0.901915 0.931426
0.161898 0.900236 0.922057
0.486336 0.90341 0.918761
0.7458 0.91342 0.919463
0.917952 0.91986 0.917998
0.97586 0.891783 0.88127
0.0937972 0.958785 0.875212
0.0930343 0.958846 0.871183
0.0936446 0.958801 0.867597
0.0934157 0.958618 0.862715
0.0931716 0.958526 0.855268
0.123186 0.958373 0.845838
0.428138 0.960189 0.846525
0.748974 0.974197 0.858579
0.988602 0.992432 0.821057
0.016083 0.424353 0.977859
0.0165866 0.42945 0.976791
0.0169833 0.438697 0.977539
0.0694285 0.462135 0.973495
0.406653 0.500313 0.965667
0.648341 0.531914 0.963577
0.802136 0.557427 0.961181
0.917037 0.576303 0.961044
0.955291 0.553979 0.961257
0.021912 0.503517 0.969665
0.0220035 0.504112 0.970825
0.0220951 0.505974 0.969604
0.023209 0.514687 0.970047
0.218647 0.535912 0.965255
0.547097 0.570977 0.963836
0.746487 0.594308 0.959792
0.882658 0.614054 0.959808
0.955612 0.597513 0.960586
0.0274968 0.561715 0.968002
0.0267185 0.560479 0.967102
0.0274815 0.559915 0.965545
0.0276341 0.56318 0.967559
0.123064 0.574136 0.967086
0.489281 0.600092 0.962692
0.711131 0.625589 0.959136
0.857328 0.645441 0.959228
0.956817 0.643549 0.961395
0.0345617 0.621302 0.963439
0.0347753 0.619501 0.963394
0.0328527 0.617945 0.965072
0.0327764 0.617105 0.964477
0.080766 0.620981 0.962585
0.436271 0.636667 0.962112
0.686854 0.661463 0.958358
0.839429 0.679896 0.95874
0.958083 0.6878 0.963119
0.0401007 0.680323 0.960739
0.0392157 0.678279 0.961135
0.0393988 0.675975 0.960571
0.040528 0.673396 0.960235
0.0594339 0.672862 0.960433
0.387335 0.682277 0.960937
0.664607 0.701488 0.957092
0.827955 0.718593 0.960693
0.958556 0.726329 0.964416
0.0477302 0.739315 0.958358
0.0482338 0.736522 0.959411
0.048188 0.733852 0.959838
0.0474861 0.73135 0.959304
0.0465095 0.728542 0.959838
0.352743 0.732738 0.957427
0.652628 0.74583 0.956497
0.824308 0.761791 0.960678
0.964172 0.768673 0.966903
0.0561379 0.799481 0.957351
0.0548714 0.798276 0.957443
0.055314 0.795438 0.958083
0.0553597 0.79205 0.955749
0.0607156 0.788769 0.95758
0.308614 0.788113 0.956008
0.635996 0.797131 0.95584
0.830091 0.811185 0.962295
0.967651 0.808438 0.969421
0.0709544 0.86923 0.953689
0.0698558 0.867918 0.954055
0.0697948 0.866545 0.953872
0.0697337 0.864958 0.953689
0.0678111 0.862486 0.954986
0.193378 0.858793 0.953445
0.577539 0.863783 0.956527
0.830014 0.876631 0.967086
0.974853 0.869078 0.976455
0.100328 0.955962 0.930877
0.100328 0.955962 0.930877
0.0990921 0.956588 0.930877
0.0989548 0.956664 0.930877
0.0989548 0.956329 0.93257
0.0992599 0.956634 0.932921
0.100359 0.956954 0.935225
0.527581 0.963333 0.947829
1 1 1
