app/src/main/assets/luts/classicnegative.cube
TITLE "Generated by Resolve"
LUT_3D_SIZE 33
0 0 0
0.017258 0.00166323 3.0518e-05
0.0286412 0.00248722 0.00102235
0.038468 0.00363165 0.000564584
0.051545 0.00428778 0.000518807
0.0618296 0.00569161 0.000289921
0.0746929 0.00613413 0.00015259
0.0881208 0.00816358 3.0518e-05
0.101076 0.00955215 7.62951e-05
0.115846 0.0111391 0.000274662
0.134112 0.0145571 6.10361e-05
0.151598 0.0176242 0.000396735
0.173297 0.0204776 0.000427253
0.197177 0.0232853 0.000396735
0.224643 0.0263523 0.000534066
0.255177 0.0309606 0.000518807
0.293217 0.0348516 7.62951e-05
0.33846 0.0408026 0.000244144
0.389364 0.0463111 0.000228885
0.447608 0.0526741 0
0.508797 0.0602426 6.10361e-05
0.568994 0.0674144 9.15541e-05
0.620432 0.0754101 4.57771e-05
0.667887 0.0819867 0.000106813
0.711254 0.0891585 7.62951e-05
0.75198 0.0963149 0
0.785 0.103929 0
0.813931 0.111131 0
0.840452 0.117266 4.57771e-05
0.863661 0.122576 6.10361e-05
0.885008 0.130083 1.5259e-05
0.903517 0.135302 0.000198367
0.921538 0.140215 0.0059968
0.000946059 0.022446 0.00544747
0.0219577 0.0251316 0.00323491
0.0331579 0.0260624 0.00265507
0.0442817 0.0276341 0.00195315
0.0574197 0.0293431 0.000503548
0.0707561 0.0306706 0.000732433
0.0844587 0.0330358 0.000671397
0.0959945 0.0356756 0.000137331
0.11043 0.0378882 0.000244144
0.126299 0.0409247 0.000411994
0.142763 0.0441291 0.000610361
0.162692 0.046891 0.000381476
0.186038 0.0505074 3.0518e-05
0.211551 0.0527199 0.000442512
0.241932 0.0562753 0.000640879
0.277485 0.0611124 0.000350958
0.31667 0.0668498 0.000366217
0.362264 0.0724651 0.000228885
0.410178 0.0780194 6.10361e-05
0.456809 0.0834821 0.000411994
0.509117 0.0916762 0.000213626
0.560784 0.099321 4.57771e-05
0.612451 0.106935 0.000122072
0.661524 0.112871 3.0518e-05
0.706661 0.119615 0
0.746319 0.12636 0
0.783017 0.13228 4.57771e-05
0.812421 0.138094 3.0518e-05
0.83949 0.144076 3.0518e-05
0.864118 0.152255 1.5259e-05
0.88394 0.156191 0
0.903166 0.161181 0.000518807
0.920851 0.16643 0.00889601
0.00222782 0.0371405 0.0107576
0.0224155 0.0396582 0.00822461
0.0337682 0.0407263 0.00593576
0.0459754 0.0423743 0.00460822
0.0586099 0.0443885 0.00352483
0.0715343 0.0460517 0.00205997
0.0854658 0.0479744 0.0018616
0.09897 0.0496223 0.000915541
0.113588 0.0514992 0.000183108
0.129747 0.0535439 0.000122072
0.148333 0.0559091 0
0.167788 0.0593881 0.000137331
0.189776 0.0624704 0.000411994
0.21619 0.0661173 0.000335698
0.247013 0.0697337 9.15541e-05
0.281544 0.0736248 0.000122072
0.321187 0.0788586 0.000427253
0.36434 0.0844434 0.000167849
0.408713 0.0901961 0.000366217
0.453574 0.0977798 0.000976577
0.50753 0.103502 0.000289921
0.559442 0.109895 0.00015259
0.610971 0.116411 3.0518e-05
0.660258 0.12282 0
0.705303 0.129931 0
0.744884 0.13695 1.5259e-05
0.782147 0.143175 7.62951e-05
0.81236 0.147921 3.0518e-05
0.83949 0.154253 4.57771e-05
0.862943 0.160464 0
0.884184 0.165362 0
0.903517 0.170916 0.00141909
0.921263 0.175845 0.0112917
0.00288396 0.0526436 0.016968
0.0261234 0.0545205 0.0129549
0.0354162 0.0556497 0.0106966
0.0503243 0.0572671 0.00984207
0.0629282 0.0587778 0.00769055
0.0749218 0.0606851 0.00733959
0.0882124 0.0629129 0.00637827
0.102052 0.0642863 0.00430304
0.116167 0.0643015 0.00224308
0.131884 0.0667735 0.000976577
0.149187 0.0707408 0.000747692
0.170367 0.073518 0.000915541
0.194675 0.0757 0.000488289
0.221256 0.0796063 0.000183108
0.251926 0.0833753 9.15541e-05
0.285374 0.087541 0.000137331
0.319417 0.0923781 0.000289921
0.363348 0.0971389 0.000106813
0.406287 0.102998 0.000366217
0.45362 0.109071 0.000488289
0.50721 0.1149 0.000366217
0.558785 0.121324 0.000167849
0.608301 0.127901 0
0.659419 0.133822 0
0.703273 0.141238 0
0.744457 0.148241 3.0518e-05
0.78201 0.153826 0.000167849
0.81239 0.15848 0.000137331
0.838697 0.164553 7.62951e-05
0.862348 0.170214 0
0.884672 0.175448 0.000122072
0.904128 0.181537 0.00318914
0.921706 0.186389 0.0140383
0.004654 0.0693523 0.024033
0.0305638 0.0710155 0.0197452
0.04094 0.073167 0.0171359
0.0519722 0.0744335 0.015198
0.0640574 0.0753185 0.0140993
0.0780804 0.0766155 0.0127565
0.0902266 0.078172 0.0108186
0.10399 0.0791943 0.0087892
0.118929 0.0812543 0.00701915
0.134859 0.0836347 0.00541695
0.152132 0.0854505 0.0037232
0.174365 0.0871748 0.00222782
0.198795 0.0898909 0.00123598
0.224964 0.0937209 0.000198367
0.252049 0.0978103 4.57771e-05
0.28397 0.101656 3.0518e-05
0.319356 0.106004 0
0.360983 0.110445 0
0.405615 0.115801 0.000106813
0.454383 0.121706 0.000106813
0.503929 0.127657 0.00015259
0.556512 0.134447 4.57771e-05
0.608331 0.140383 6.10361e-05
0.658274 0.1458 1.5259e-05
0.701946 0.152956 0
0.743954 0.159457 9.15541e-05
0.782528 0.164828 0.00030518
0.812146 0.170291 0.00015259
0.839094 0.176257 3.0518e-05
0.862974 0.181445 0
0.885344 0.186648 0.000610361
0.904555 0.193973 0.00570687
0.922789 0.198749 0.0179141
0.00764477 0.0862898 0.029572
0.0330358 0.0878462 0.0252689
0.0444495 0.0887922 0.023621
0.0549325 0.0895247 0.0215152
0.0678874 0.0909438 0.0198825
0.0800488 0.092195 0.0179599
0.0919356 0.0936904 0.0158389
0.106081 0.094667 0.0135958
0.121324 0.0966201 0.0116426
0.138109 0.0982223 0.00978103
0.157305 0.0998093 0.00823987
0.177829 0.102174 0.00633249
0.201007 0.105211 0.00421149
0.225467 0.108553 0.00300603
0.252232 0.112123 0.00202945
0.284718 0.115877 0.000808728
0.320439 0.119844 0
0.359854 0.12462 4.57771e-05
0.407019 0.129442 4.57771e-05
0.453712 0.134981 1.5259e-05
0.504128 0.140887 4.57771e-05
0.556451 0.146914 0.000244144
0.607187 0.152773 0.000259403
0.657557 0.159075 0
0.70132 0.16614 0
0.743984 0.172457 0.000167849
0.780713 0.17818 0.000320439
0.812329 0.183337 4.57771e-05
0.839429 0.189059 6.10361e-05
0.863066 0.194919 0.000366217
0.884352 0.201358 0.00239567
0.904143 0.208179 0.00952163
0.923674 0.211841 0.0221103
0.00939956 0.104387 0.036347
0.0350195 0.105074 0.0312352
0.0462501 0.105608 0.0297398
0.0575723 0.106325 0.027924
0.0693828 0.107576 0.0259709
0.0808423 0.108827 0.0238956
0.0940566 0.110033 0.0209049
0.108064 0.110933 0.0176852
0.124407 0.111803 0.0161135
0.140612 0.113207 0.0140078
0.158312 0.115068 0.0120546
0.178271 0.117586 0.0108949
0.202335 0.12076 0.00967422
0.227085 0.123827 0.00820935
0.254566 0.12726 0.00657664
0.285679 0.130526 0.00427253
0.323049 0.134936 0.00231937
0.363088 0.139391 0.000503548
0.407721 0.144274 0.000320439
0.454871 0.149767 0.000137331
0.505058 0.155352 4.57771e-05
0.557534 0.1608 0.00015259
0.608179 0.166995 6.10361e-05
0.657633 0.17409 0
0.703319 0.180072 0
0.743328 0.186435 0.000137331
0.781796 0.192874 0.000122072
0.813352 0.197635 0
0.839628 0.203693 0.000289921
0.862959 0.210361 0.00112917
0.884627 0.216861 0.00527962
0.905135 0.222858 0.0142519
0.923262 0.228183 0.0271611
0.0120241 0.122316 0.0434577
0.0381933 0.122927 0.0375982
0.0486915 0.123583 0.0357519
0.0593729 0.123949 0.0336156
0.0714733 0.125399 0.031754
0.0840925 0.12694 0.0298009
0.0961013 0.127321 0.0277104
0.11075 0.128557 0.025742
0.125658 0.129686 0.0235904
0.141909 0.130846 0.0213169
0.160494 0.132784 0.019791
0.181384 0.135286 0.0186313
0.202487 0.138064 0.01738
0.228 0.141222 0.0153048
0.25597 0.144015 0.012314
0.288869 0.146838 0.00932326
0.32546 0.15082 0.00735485
0.366064 0.155657 0.00509651
0.408148 0.160678 0.00148013
0.45774 0.165728 0.000900282
0.506752 0.170794 0.000274662
0.559487 0.176806 3.0518e-05
0.61059 0.183886 4.57771e-05
0.657938 0.190204 7.62951e-05
0.706416 0.194934 0
0.746181 0.201785 1.5259e-05
0.782284 0.208148 4.57771e-05
0.814801 0.213657 3.0518e-05
0.840284 0.22034 0.000183108
0.864454 0.226947 0.00294499
0.886366 0.232898 0.00924697
0.905715 0.238834 0.019089
0.923796 0.245029 0.0315251
0.014725 0.142214 0.0510414
0.0399329 0.143236 0.0455482
0.05066 0.143359 0.0438087
0.0624399 0.144015 0.0416724
0.0751507 0.144961 0.039353
0.0868849 0.145678 0.0381628
0.0992905 0.146288 0.0364691
0.113115 0.14696 0.0342565
0.128283 0.148241 0.0316777
0.145068 0.149493 0.0291447
0.163577 0.15024 0.0271305
0.183505 0.152621 0.0253452
0.205325 0.156024 0.0239872
0.23035 0.158618 0.0219577
0.260822 0.161715 0.0196536
0.292714 0.164828 0.0171969
0.328771 0.168841 0.0149844
0.368017 0.173526 0.0117189
0.411353 0.178576 0.00761425
0.460624 0.182452 0.00329595
0.511849 0.188159 0.00151064
0.562951 0.194598 0.000991836
0.612116 0.202396 0.000885023
0.661448 0.208103 0.000320439
0.707835 0.213657 1.5259e-05
0.748119 0.220279 0.000183108
0.783871 0.225452 0.000183108
0.816129 0.231678 0.000320439
0.842145 0.238499 0.00236515
0.865614 0.244862 0.00726329
0.887282 0.251041 0.0145876
0.906828 0.256916 0.0243839
0.92491 0.263066 0.0361639
0.0189975 0.164202 0.0602884
0.0459754 0.164324 0.0546426
0.0561379 0.164614 0.0526894
0.0672007 0.16492 0.0506905
0.0779583 0.165438 0.0490425
0.0895552 0.166354 0.0473945
0.101915 0.167544 0.0455482
0.115679 0.168307 0.0431983
0.131044 0.169238 0.0409247
0.147921 0.170077 0.0388495
0.166918 0.171664 0.0372473
0.187671 0.173922 0.0365911
0.209827 0.176059 0.0343633
0.234531 0.178943 0.0314183
0.264332 0.181765 0.0281682
0.296849 0.185168 0.0255283
0.330114 0.18854 0.0230716
0.371313 0.193668 0.0190585
0.415625 0.197971 0.0149233
0.463966 0.20267 0.0102541
0.515404 0.208331 0.00860609
0.565499 0.214862 0.00669871
0.615839 0.221378 0.00270085
0.664286 0.227573 0.00202945
0.709834 0.233005 0.00134279
0.751431 0.240009 0.000808728
0.786252 0.246326 0.00198367
0.817182 0.252583 0.00492866
0.843626 0.258198 0.00915541
0.867536 0.264149 0.0129702
0.88896 0.270649 0.0211643
0.907942 0.277607 0.0309453
0.925978 0.284398 0.0435798
0.0242618 0.188312 0.0704509
0.050309 0.188464 0.0652171
0.0605936 0.188754 0.0638743
0.0712596 0.189151 0.0625162
0.082887 0.1897 0.0610971
0.093843 0.189929 0.0581216
0.106111 0.190539 0.0554208
0.120287 0.19118 0.0538949
0.135515 0.19176 0.0520485
0.15198 0.193194 0.0503853
0.171008 0.194659 0.0483406
0.192172 0.196704 0.0462043
0.216266 0.198871 0.0446174
0.241413 0.201266 0.0417334
0.266987 0.204456 0.0381323
0.298756 0.207874 0.034699
0.335622 0.211872 0.0315099
0.376272 0.21529 0.0285954
0.422095 0.220157 0.024445
0.469688 0.224979 0.0202182
0.520455 0.230503 0.0165866
0.571954 0.236454 0.0127565
0.62153 0.243183 0.0096437
0.667643 0.248341 0.0077821
0.712886 0.255268 0.00666819
0.75494 0.261906 0.00639353
0.790265 0.26894 0.00944533
0.819272 0.274662 0.012314
0.845701 0.280507 0.0156863
0.869963 0.286595 0.0205692
0.890776 0.292699 0.0292363
0.909636 0.300832 0.0399481
0.927855 0.306569 0.0508125
0.0287785 0.213825 0.0832532
0.054612 0.215244 0.0777752
0.0647746 0.214817 0.076463
0.0756237 0.215061 0.0751965
0.0868238 0.215183 0.0722362
0.098558 0.215442 0.0694285
0.111025 0.21593 0.0675364
0.12459 0.21677 0.0657511
0.139635 0.217655 0.0637827
0.15613 0.218296 0.0611734
0.174716 0.219883 0.0584115
0.19678 0.221836 0.0564126
0.220172 0.224353 0.0545815
0.245014 0.226413 0.051545
0.273594 0.228565 0.0484474
0.3075 0.232166 0.0456397
0.342855 0.235996 0.0422522
0.381826 0.240421 0.0385901
0.429191 0.24477 0.0344244
0.476265 0.249378 0.030396
0.52755 0.255299 0.0269169
0.5776 0.261219 0.0238041
0.627787 0.267552 0.0209659
0.675319 0.273899 0.0187381
0.718959 0.280278 0.018143
0.759243 0.286076 0.0178225
0.794415 0.292546 0.0180819
0.822171 0.298207 0.0196231
0.847593 0.304829 0.0239872
0.871504 0.312428 0.0314488
0.892821 0.3187 0.0383307
0.91191 0.324849 0.0462043
0.929564 0.330098 0.057496
0.0347295 0.243076 0.0962539
0.0593423 0.24358 0.0908675
0.0686809 0.243839 0.0891585
0.0791638 0.243565 0.0872511
0.0906691 0.243626 0.0851911
0.102419 0.244099 0.0831311
0.114794 0.244617 0.0810712
0.128435 0.244694 0.0791028
0.143374 0.245563 0.0773022
0.161273 0.247028 0.0743572
0.18024 0.248386 0.0713817
0.201099 0.250706 0.069276
0.224735 0.252399 0.0669413
0.25098 0.254108 0.0648814
0.281163 0.257053 0.0615396
0.31281 0.259312 0.0573892
0.349996 0.263005 0.0538796
0.3906 0.267094 0.05066
0.433616 0.271199 0.0469673
0.484871 0.277455 0.0441138
0.534325 0.282887 0.0402075
0.585214 0.289204 0.0353094
0.633921 0.295155 0.0319371
0.681987 0.301686 0.0303197
0.724956 0.307347 0.0286259
0.76321 0.313603 0.0275425
0.797375 0.319249 0.0273136
0.825452 0.325536 0.0298314
0.851057 0.332494 0.0360266
0.874495 0.340124 0.0421149
0.895323 0.346456 0.0469368
0.913695 0.351293 0.0544747
0.931624 0.357733 0.0664683
0.0402075 0.274922 0.109331
0.0660868 0.273991 0.104814
0.0760204 0.274449 0.104143
0.086244 0.2748 0.102678
0.096376 0.27483 0.0999161
0.107286 0.274723 0.0968643
0.119844 0.275471 0.0957961
0.133028 0.276555 0.0946365
0.149187 0.277363 0.0912642
0.1664 0.278767 0.0880293
0.186084 0.280049 0.0857252
0.206714 0.28098 0.0832837
0.230594 0.283284 0.0811322
0.257221 0.285496 0.0780804
0.286915 0.28748 0.0741741
0.321538 0.290776 0.071397
0.357214 0.294377 0.0688029
0.400168 0.298528 0.0647135
0.44567 0.303319 0.0610666
0.492317 0.307378 0.0567636
0.542458 0.313283 0.0518807
0.593317 0.320241 0.0463569
0.641047 0.32639 0.0441901
0.687968 0.331975 0.0414893
0.731487 0.337865 0.0398718
0.768597 0.344396 0.040177
0.802045 0.350744 0.0414893
0.830396 0.356497 0.043595
0.855116 0.363409 0.0482643
0.877623 0.369116 0.0514229
0.897505 0.375128 0.0565347
0.915465 0.381003 0.0655833
0.933577 0.387655 0.0777752
0.0463722 0.310079 0.12549
0.0716411 0.309606 0.120699
0.080827 0.309773 0.119127
0.0908217 0.310262 0.117693
0.101839 0.310796 0.116167
0.113191 0.311101 0.114595
0.125032 0.311162 0.112596
0.138888 0.310948 0.109499
0.153613 0.311162 0.106386
0.171908 0.31252 0.103929
0.191043 0.313481 0.101305
0.213321 0.315312 0.0986038
0.236515 0.317281 0.0958572
0.264134 0.319615 0.0928817
0.293858 0.322438 0.0897688
0.327932 0.325154 0.0860151
0.366629 0.328801 0.0821088
0.409857 0.333333 0.0783551
0.453788 0.337606 0.0741436
0.500755 0.342412 0.0696574
0.550988 0.348287 0.0652476
0.600778 0.354452 0.0616617
0.652384 0.359854 0.0576638
0.696452 0.364752 0.0551156
0.738521 0.371206 0.0538186
0.77525 0.377997 0.0543221
0.806973 0.384771 0.0557412
0.83476 0.390372 0.0571756
0.859236 0.396078 0.0593271
0.880766 0.402792 0.064622
0.900069 0.408469 0.0705577
0.918898 0.413855 0.0795148
0.936248 0.419211 0.090959
0.0526894 0.350271 0.142596
0.0764477 0.350134 0.138323
0.085893 0.349935 0.136584
0.0954757 0.350072 0.134829
0.105776 0.349996 0.132845
0.11725 0.350393 0.130877
0.1299 0.350774 0.128313
0.143618 0.351049 0.125399
0.15935 0.350866 0.12256
0.177035 0.351415 0.120363
0.197375 0.352636 0.118013
0.219898 0.353567 0.114885
0.245518 0.355474 0.11194
0.27306 0.357671 0.108995
0.303761 0.359854 0.105013
0.336019 0.36318 0.101183
0.375814 0.367453 0.097261
0.417014 0.37113 0.0929885
0.463508 0.375799 0.0886244
0.510246 0.380621 0.0846571
0.561852 0.38587 0.0807965
0.612116 0.391775 0.0769207
0.660151 0.397238 0.0730297
0.704112 0.402548 0.0704509
0.744976 0.407996 0.0684977
0.782559 0.415549 0.0674601
0.811749 0.420203 0.068101
0.83856 0.425864 0.0702983
0.862211 0.431403 0.0732586
0.885176 0.438148 0.0790723
0.904402 0.442512 0.0849165
0.922408 0.44799 0.0933242
0.939116 0.452934 0.103197
0.0574655 0.394263 0.16173
0.0810407 0.393439 0.157046
0.0895705 0.393683 0.155566
0.0997177 0.393744 0.153643
0.110628 0.393851 0.151568
0.122271 0.39321 0.14873
0.135134 0.393027 0.145922
0.149462 0.39324 0.143359
0.164797 0.393454 0.140795
0.18262 0.393896 0.138277
0.20264 0.394705 0.135775
0.225132 0.39617 0.13312
0.252171 0.397955 0.130098
0.279881 0.399252 0.126406
0.310994 0.401755 0.121721
0.346136 0.404807 0.117418
0.385336 0.407309 0.113588
0.427649 0.411994 0.109728
0.472496 0.416571 0.105196
0.521889 0.421164 0.101289
0.573266 0.425528 0.0972305
0.621439 0.430808 0.092668
0.669429 0.436408 0.0884718
0.713039 0.441398 0.0852216
0.751232 0.44802 0.0841382
0.787106 0.453651 0.0837873
0.81796 0.458579 0.0847944
0.843366 0.463691 0.0858167
0.86714 0.468605 0.088365
0.88867 0.47393 0.0933394
0.908492 0.47866 0.100374
0.925093 0.483665 0.105959
0.94255 0.48806 0.116381
0.0631876 0.439094 0.18172
0.0875563 0.439231 0.176226
0.0963912 0.439094 0.174197
0.105806 0.438148 0.172091
0.116213 0.437964 0.170199
0.127642 0.437842 0.168215
0.140749 0.43798 0.166033
0.154711 0.437827 0.1635
0.170962 0.437919 0.16054
0.189532 0.438972 0.157366
0.209461 0.439963 0.154055
0.232715 0.440681 0.151156
0.257694 0.442191 0.14847
0.286229 0.444266 0.1449
0.315862 0.445411 0.140932
0.354467 0.448447 0.136156
0.394568 0.451804 0.131243
0.4392 0.455558 0.126772
0.484993 0.459419 0.12285
0.532799 0.463828 0.119158
0.581567 0.467918 0.114107
0.633417 0.473152 0.10901
0.677455 0.47863 0.105409
0.720974 0.484398 0.102251
0.75967 0.489662 0.101305
0.792645 0.494377 0.100633
0.82327 0.499748 0.100511
0.84892 0.504265 0.101793
0.872221 0.50901 0.104692
0.892805 0.513054 0.10901
0.911574 0.517555 0.115373
0.928267 0.521172 0.12256
0.944045 0.524086 0.131792
0.0702068 0.486915 0.201144
0.092195 0.486503 0.196826
0.10016 0.486122 0.195239
0.109117 0.485634 0.193469
0.119707 0.485084 0.19118
0.13135 0.484657 0.188708
0.14432 0.484749 0.186313
0.159518 0.484886 0.183474
0.176852 0.48542 0.180484
0.194171 0.485481 0.177264
0.21677 0.486534 0.174411
0.239887 0.487892 0.171878
0.266102 0.489296 0.16878
0.292973 0.490181 0.165164
0.325841 0.493065 0.161105
0.362402 0.496025 0.15639
0.403494 0.498238 0.151736
0.448615 0.501274 0.147326
0.495781 0.505165 0.142168
0.543709 0.508583 0.136538
0.592798 0.513878 0.132052
0.641306 0.518425 0.127245
0.686549 0.523629 0.12311
0.727962 0.528328 0.12105
0.767788 0.532204 0.119249
0.799908 0.537423 0.117678
0.827985 0.541558 0.117968
0.85391 0.5458 0.120058
0.877073 0.548989 0.121691
0.896956 0.553353 0.126925
0.914855 0.55668 0.132692
0.932189 0.56051 0.139727
0.947631 0.562966 0.149081
0.0733654 0.537285 0.22501
0.0946822 0.536934 0.220661
0.103487 0.536461 0.218631
0.112749 0.535882 0.216403
0.123812 0.534752 0.213504
0.135424 0.534264 0.210788
0.148913 0.534569 0.208667
0.163577 0.53431 0.206119
0.17995 0.53489 0.203723
0.200168 0.535714 0.201129
0.221225 0.536645 0.198367
0.245106 0.536782 0.194385
0.271656 0.537835 0.190555
0.301244 0.539574 0.186557
0.333837 0.54139 0.182132
0.370001 0.543725 0.177737
0.412131 0.546639 0.173007
0.455299 0.549294 0.167742
0.504265 0.552178 0.161608
0.553979 0.556359 0.155932
0.604349 0.561044 0.150652
0.650614 0.565179 0.146715
0.695857 0.569436 0.143328
0.736141 0.572839 0.140032
0.773495 0.577432 0.138094
0.807187 0.580972 0.136416
0.833722 0.584649 0.137469
0.858686 0.587213 0.138415
0.881407 0.590799 0.141268
0.900999 0.594537 0.145205
0.919142 0.597726 0.150362
0.93611 0.599847 0.156863
0.952087 0.602045 0.166033
0.075288 0.586557 0.250111
0.0973526 0.585595 0.245441
0.10602 0.585412 0.243687
0.115496 0.584909 0.241642
0.126665 0.584161 0.23888
0.138628 0.584451 0.236439
0.151537 0.584878 0.233799
0.166461 0.585229 0.230945
0.184848 0.585733 0.228275
0.203647 0.585519 0.225238
0.226123 0.586053 0.221469
0.250645 0.586526 0.216785
0.276692 0.587228 0.2121
0.30634 0.588479 0.208301
0.338033 0.590433 0.204715
0.377981 0.592844 0.2
0.418463 0.594644 0.194797
0.465537 0.597559 0.189029
0.513649 0.600778 0.183383
0.561135 0.604196 0.177966
0.611597 0.607965 0.172396
0.65951 0.612314 0.167926
0.702968 0.615534 0.163897
0.744671 0.61912 0.160952
0.779614 0.621897 0.15903
0.811963 0.625391 0.158083
0.84007 0.628809 0.156741
0.863569 0.632105 0.159396
0.884932 0.634348 0.161547
0.90518 0.63624 0.164218
0.923278 0.638285 0.168811
0.940276 0.640314 0.17554
0.954223 0.639811 0.185595
0.0747539 0.633509 0.2757
0.0986496 0.633082 0.270237
0.106966 0.633371 0.268574
0.116487 0.6336 0.266682
0.127184 0.633951 0.264591
0.139269 0.633997 0.262089
0.153277 0.633722 0.25922
0.168963 0.63389 0.256458
0.186618 0.633829 0.253147
0.206394 0.634089 0.24976
0.227787 0.634592 0.246189
0.250507 0.634501 0.242023
0.279515 0.635859 0.23856
0.309255 0.637324 0.234623
0.345296 0.639277 0.229389
0.383902 0.641871 0.224216
0.427192 0.644205 0.218647
0.472023 0.646265 0.212833
0.519158 0.648585 0.206928
0.569635 0.651118 0.200641
0.616861 0.654215 0.194827
0.666484 0.658106 0.189425
0.709758 0.661112 0.186206
0.750072 0.663432 0.183032
0.786511 0.666926 0.180667
0.816983 0.669123 0.178759
0.844617 0.67216 0.178927
0.869139 0.674144 0.180316
0.890608 0.676799 0.181735
0.909667 0.678233 0.184695
0.927291 0.67985 0.18912
0.944747 0.679652 0.194766
0.957137 0.677867 0.205585
0.0707561 0.679957 0.302754
0.0946517 0.679393 0.297551
0.103899 0.679316 0.295735
0.115618 0.679057 0.293263
0.127123 0.679118 0.291066
0.13991 0.679042 0.288594
0.153185 0.679316 0.286213
0.168353 0.679286 0.283253
0.186023 0.679057 0.279713
0.204959 0.679606 0.276539
0.225925 0.680385 0.273213
0.252033 0.681483 0.269703
0.278996 0.682109 0.265507
0.311482 0.683467 0.260517
0.346044 0.685267 0.254871
0.384024 0.687007 0.249058
0.42649 0.688914 0.243168
0.472541 0.691493 0.237583
0.522408 0.694438 0.231769
0.571923 0.696559 0.225086
0.622644 0.699672 0.218753
0.669688 0.702419 0.214206
0.715267 0.704952 0.210437
0.754742 0.707973 0.206149
0.790814 0.710338 0.202502
0.822644 0.712871 0.201205
0.848447 0.714458 0.200488
0.872312 0.716457 0.200381
0.894301 0.717525 0.201007
0.913664 0.719142 0.204471
0.930419 0.719509 0.207446
0.950164 0.718517 0.215183
0.959976 0.715602 0.225666
0.0710613 0.720943 0.331701
0.0910506 0.720439 0.32697
0.099443 0.720638 0.325185
0.109651 0.720241 0.322362
0.120699 0.720317 0.31986
0.134051 0.720424 0.316777
0.148226 0.720806 0.314244
0.16376 0.721386 0.311864
0.180728 0.721965 0.309255
0.199817 0.721981 0.305531
0.223026 0.72285 0.30164
0.247639 0.723857 0.29752
0.276204 0.725139 0.292927
0.307683 0.726329 0.287922
0.342504 0.727352 0.282429
0.383291 0.729335 0.276905
0.426413 0.731441 0.271107
0.471519 0.734005 0.265064
0.520317 0.737331 0.259236
0.572274 0.739925 0.25153
0.623423 0.742077 0.244038
0.671824 0.74464 0.238972
0.717494 0.746731 0.233707
0.758419 0.749554 0.229404
0.793942 0.751797 0.226902
0.825696 0.753201 0.224369
0.852628 0.754818 0.222843
0.875761 0.755611 0.222171
0.897337 0.75668 0.223713
0.916197 0.756893 0.226535
0.934401 0.756924 0.231525
0.951888 0.755901 0.237659
0.962509 0.752087 0.247959
0.0609598 0.758419 0.363668
0.0820325 0.758679 0.358648
0.0906081 0.758679 0.356451
0.100374 0.758633 0.353948
0.111452 0.758999 0.351766
0.124926 0.759152 0.34873
0.139071 0.759564 0.345769
0.154925 0.760281 0.342779
0.173892 0.760784 0.339269
0.193744 0.761334 0.336004
0.214343 0.761685 0.33225
0.240131 0.76228 0.327688
0.2692 0.763394 0.323125
0.300359 0.764645 0.318288
0.336492 0.766064 0.312154
0.374426 0.768017 0.305913
0.419028 0.770413 0.29987
0.465446 0.772961 0.293736
0.515938 0.775448 0.286137
0.569329 0.779004 0.27866
0.618875 0.781704 0.271839
0.669947 0.783581 0.26421
0.716472 0.785901 0.259663
0.758556 0.787778 0.254765
0.795666 0.789441 0.250843
0.826612 0.790936 0.248585
0.854215 0.792035 0.24654
0.879225 0.792844 0.246708
0.900618 0.792691 0.247883
0.919631 0.792737 0.25069
0.937346 0.792691 0.254932
0.955535 0.791272 0.262882
0.964157 0.786908 0.272282
0.0546883 0.792859 0.395895
0.0668193 0.792828 0.392004
0.0761273 0.793088 0.389883
0.0866407 0.793439 0.387472
0.0979019 0.793927 0.385107
0.111421 0.794369 0.381933
0.125505 0.794308 0.378531
0.141558 0.794583 0.375647
0.159915 0.794781 0.372076
0.178775 0.795193 0.368719
0.202426 0.796094 0.364492
0.227649 0.796613 0.359533
0.254246 0.79794 0.35494
0.285908 0.799283 0.349767
0.319142 0.800717 0.344488
0.358694 0.802625 0.33753
0.401923 0.805463 0.330251
0.449668 0.808438 0.32372
0.501411 0.810956 0.317205
0.555428 0.813672 0.310079
0.61236 0.816724 0.302251
0.662196 0.818875 0.294713
0.712657 0.821149 0.28748
0.754559 0.822858 0.283162
0.793393 0.824308 0.27863
0.827344 0.825788 0.275212
0.854948 0.826383 0.274434
0.880095 0.827283 0.274693
0.902449 0.827359 0.274693
0.922423 0.827604 0.277684
0.941222 0.826719 0.280873
0.958022 0.824643 0.287816
0.965225 0.818677 0.295369
0.0458534 0.824704 0.429633
0.0571908 0.824796 0.425788
0.0616922 0.824765 0.424125
0.0659495 0.824918 0.422827
0.0757763 0.824979 0.420584
0.0897993 0.825238 0.417823
0.104433 0.825605 0.414939
0.120958 0.82565 0.410971
0.139254 0.826352 0.407492
