app/src/main/assets/luts/cyanorganic.cube
TITLE "Generated by Alittlecookie"
#LUMIXPHOTOSTYLE CNEV2
LUT_3D_SIZE 9
0.058824 0.109804 0.090196
0.227451 0.117647 0.074510
0.388235 0.125490 0.066667
0.509804 0.129412 0.054902
0.607843 0.125490 0.043137
0.674510 0.117647 0.039216
0.760784 0.105882 0.043137
0.823529 0.098039 0.039216
0.886275 0.094118 0.039216
0.098039 0.270588 0.125490
0.231373 0.270588 0.117647
0.400000 0.247059 0.094118
0.517647 0.235294 0.078431
0.607843 0.231373 0.070588
0.686275 0.231373 0.058824
0.760784 0.227451 0.047059
0.807843 0.219608 0.039216
0.866667 0.207843 0.035294
0.125490 0.400000 0.141176
0.266667 0.384314 0.129412
0.388235 0.368627 0.117647
0.517647 0.349020 0.109804
0.631373 0.345098 0.094118
0.709804 0.337255 0.090196
0.768627 0.341176 0.090196
0.811765 0.333333 0.082353
0.870588 0.321569 0.078431
0.141176 0.509804 0.141176
0.286275 0.482353 0.137255
0.407843 0.478431 0.129412
0.513726 0.474510 0.141176
0.635294 0.450980 0.141176
0.713726 0.443137 0.129412
0.776471 0.439216 0.125490
0.827451 0.439216 0.121569
0.874510 0.423529 0.117647
0.176471 0.592157 0.141176
0.301961 0.564706 0.137255
0.431373 0.556863 0.141176
0.533333 0.552941 0.156863
0.635294 0.549020 0.168627
0.721569 0.541176 0.176471
0.788235 0.533333 0.168627
0.839216 0.529412 0.168627
0.882353 0.509804 0.160784
0.227451 0.662745 0.156863
0.341176 0.647059 0.152941
0.458824 0.643137 0.156863
0.556863 0.643137 0.176471
0.654902 0.631373 0.196078
0.725490 0.631373 0.200000
0.792157 0.627451 0.215686
0.850980 0.611765 0.215686
0.894118 0.592157 0.192157
0.250980 0.745098 0.168627
0.360784 0.741176 0.176471
0.474510 0.725490 0.188235
0.564706 0.713726 0.200000
0.654902 0.713726 0.207843
0.729412 0.717647 0.231373
0.800000 0.698039 0.239216
0.839216 0.698039 0.247059
0.898039 0.674510 0.243137
0.282353 0.823529 0.192157
0.372549 0.815686 0.196078
0.474510 0.811765 0.200000
0.564706 0.803922 0.211765
0.654902 0.800000 0.211765
0.733333 0.788235 0.235294
0.796078 0.776471 0.247059
0.843137 0.772549 0.250980
0.901961 0.752941 0.247059
0.290196 0.901961 0.207843
0.384314 0.890196 0.215686
0.474510 0.882353 0.223529
0.568627 0.878431 0.227451
0.666667 0.870588 0.223529
0.725490 0.866667 0.227451
0.792157 0.854902 0.243137
0.850980 0.839216 0.247059
0.894118 0.839216 0.243137
0.074510 0.133333 0.207843
0.227451 0.137255 0.200000
0.407843 0.125490 0.168627
0.533333 0.121569 0.141176
0.615686 0.113725 0.117647
0.690196 0.113725 0.105882
0.756863 0.117647 0.094118
0.803922 0.125490 0.078431
0.866667 0.125490 0.066667
0.109804 0.278431 0.223529
0.219608 0.278431 0.211765
0.376471 0.258824 0.180392
0.509804 0.247059 0.156863
0.611765 0.235294 0.133333
0.690196 0.235294 0.117647
0.756863 0.231373 0.109804
0.807843 0.235294 0.105882
0.862745 0.235294 0.098039
0.125490 0.407843 0.223529
0.227451 0.407843 0.223529
0.364706 0.388235 0.207843
0.501961 0.372549 0.184314
0.607843 0.364706 0.168627
0.690196 0.349020 0.156863
0.760784 0.352941 0.141176
0.811765 0.349020 0.141176
0.866667 0.352941 0.141176
0.149020 0.513726 0.235294
0.258824 0.498039 0.235294
0.388235 0.482353 0.215686
0.501961 0.482353 0.223529
0.615686 0.474510 0.211765
0.713726 0.458824 0.200000
0.776471 0.462745 0.188235
0.823529 0.458824 0.188235
0.870588 0.443137 0.176471
0.176471 0.592157 0.231373
0.298039 0.576471 0.235294
0.431373 0.564706 0.235294
0.537255 0.568627 0.235294
0.615686 0.564706 0.247059
0.713726 0.549020 0.254902
0.784314 0.541176 0.239216
0.839216 0.541176 0.235294
0.874510 0.533333 0.227451
0.207843 0.670588 0.235294
0.345098 0.650980 0.247059
0.458824 0.654902 0.243137
0.572549 0.635294 0.262745
0.662745 0.647059 0.274510
0.725490 0.647059 0.290196
0.796078 0.647059 0.290196
0.850980 0.627451 0.278431
0.890196 0.615686 0.262745
0.274510 0.745098 0.247059
0.372549 0.741176 0.258824
0.486275 0.729412 0.270588
0.588235 0.721569 0.290196
0.674510 0.717647 0.290196
0.749020 0.717647 0.309804
0.803922 0.717647 0.313726
0.847059 0.717647 0.313726
0.894118 0.686275 0.301961
0.298039 0.819608 0.274510
0.376471 0.823529 0.274510
0.482353 0.811765 0.286275
0.584314 0.803922 0.298039
0.674510 0.796078 0.301961
0.749020 0.792157 0.305882
0.803922 0.784314 0.317647
0.847059 0.772549 0.317647
0.890196 0.764706 0.313726
0.305882 0.894118 0.286275
0.388235 0.894118 0.286275
0.478431 0.886275 0.290196
0.572549 0.878431 0.294118
0.666667 0.870588 0.298039
0.741176 0.866667 0.298039
0.796078 0.858824 0.301961
0.850980 0.847059 0.305882
0.898039 0.839216 0.301961
0.078431 0.160784 0.368627
0.215686 0.164706 0.333333
0.396078 0.141176 0.305882
0.533333 0.129412 0.274510
0.635294 0.113725 0.239216
0.709804 0.105882 0.211765
0.772549 0.101961 0.180392
0.823529 0.101961 0.172549
0.886275 0.109804 0.149020
0.113725 0.290196 0.321569
0.211765 0.298039 0.309804
0.368627 0.266667 0.294118
0.498039 0.254902 0.266667
0.607843 0.243137 0.231373
0.690196 0.239216 0.207843
0.756863 0.235294 0.200000
0.796078 0.235294 0.192157
0.850980 0.231373 0.184314
0.133333 0.411765 0.329412
0.227451 0.407843 0.329412
0.352941 0.396078 0.305882
0.486275 0.388235 0.286275
0.596078 0.376471 0.258824
0.686275 0.364706 0.243137
0.752941 0.352941 0.227451
0.803922 0.360784 0.223529
0.858824 0.352941 0.215686
0.145098 0.513726 0.329412
0.250980 0.501961 0.333333
0.368627 0.501961 0.329412
0.494118 0.501961 0.313726
0.592157 0.494118 0.305882
0.686275 0.482353 0.286275
0.764706 0.474510 0.270588
0.823529 0.482353 0.262745
0.866667 0.462745 0.254902
0.176471 0.603922 0.333333
0.298039 0.584314 0.333333
0.400000 0.592157 0.337255
0.517647 0.592157 0.329412
0.607843 0.576471 0.341176
0.698039 0.576471 0.333333
0.780392 0.568627 0.317647
0.835294 0.564706 0.313726
0.866667 0.556863 0.298039
0.235294 0.670588 0.337255
0.341176 0.662745 0.337255
0.443137 0.662745 0.349020
0.556863 0.650980 0.352941
0.643137 0.666667 0.352941
0.709804 0.666667 0.372549
0.784314 0.650980 0.372549
0.839216 0.647059 0.352941
0.886275 0.635294 0.333333
0.286275 0.749020 0.341176
0.372549 0.752941 0.349020
0.482353 0.741176 0.364706
0.588235 0.729412 0.372549
0.662745 0.729412 0.372549
0.745098 0.725490 0.384314
0.800000 0.725490 0.392157
0.843137 0.721569 0.388235
0.898039 0.698039 0.368627
0.317647 0.815686 0.349020
0.392157 0.819608 0.360784
0.494118 0.819608 0.372549
0.588235 0.807843 0.372549
0.678431 0.796078 0.376471
0.756863 0.788235 0.376471
0.807843 0.784314 0.388235
0.854902 0.776471 0.392157
0.901961 0.768627 0.384314
0.317647 0.894118 0.360784
0.396078 0.886275 0.360784
0.478431 0.886275 0.360784
0.576471 0.874510 0.364706
0.670588 0.874510 0.364706
0.749020 0.862745 0.364706
0.800000 0.862745 0.368627
0.850980 0.850980 0.376471
0.890196 0.847059 0.372549
0.094118 0.172549 0.498039
0.215686 0.176471 0.454902
0.372549 0.152941 0.415686
0.517647 0.133333 0.384314
0.631373 0.109804 0.368627
0.709804 0.113725 0.337255
0.764706 0.109804 0.305882
0.823529 0.109804 0.278431
0.878431 0.105882 0.258824
0.094118 0.309804 0.423529
0.211765 0.298039 0.400000
0.352941 0.286275 0.392157
0.498039 0.270588 0.372549
0.603922 0.254902 0.345098
0.686275 0.250980 0.313726
0.756863 0.247059 0.294118
0.807843 0.235294 0.278431
0.866667 0.231373 0.266667
0.133333 0.411765 0.407843
0.227451 0.419608 0.400000
0.341176 0.419608 0.392157
0.478431 0.392157 0.384314
0.592157 0.388235 0.360784
0.674510 0.376471 0.333333
0.752941 0.372549 0.313726
0.803922 0.364706 0.309804
0.862745 0.364706 0.301961
0.149020 0.513726 0.415686
0.254902 0.509804 0.419608
0.376471 0.509804 0.419608
0.486275 0.501961 0.411765
0.603922 0.501961 0.400000
0.678431 0.498039 0.376471
0.752941 0.494118 0.364706
0.815686 0.494118 0.345098
0.862745 0.474510 0.337255
0.176471 0.607843 0.415686
0.298039 0.596078 0.423529
0.396078 0.592157 0.431373
0.501961 0.592157 0.439216
0.596078 0.592157 0.435294
0.686275 0.596078 0.423529
0.760784 0.588235 0.411765
0.823529 0.588235 0.396078
0.870588 0.568627 0.372549
0.227451 0.674510 0.419608
0.329412 0.670588 0.435294
0.431373 0.666667 0.443137
0.537255 0.670588 0.454902
0.635294 0.674510 0.450980
0.713726 0.670588 0.458824
0.780392 0.666667 0.450980
0.835294 0.654902 0.431373
0.890196 0.643137 0.407843
0.274510 0.756863 0.431373
0.368627 0.749020 0.439216
0.466667 0.745098 0.454902
0.564706 0.733333 0.462745
0.662745 0.729412 0.458824
0.725490 0.741176 0.462745
0.784314 0.741176 0.474510
0.843137 0.725490 0.474510
0.894118 0.717647 0.443137
0.313726 0.827451 0.435294
0.400000 0.823529 0.439216
0.494118 0.815686 0.450980
0.584314 0.811765 0.454902
0.674510 0.807843 0.458824
0.760784 0.796078 0.458824
0.807843 0.792157 0.462745
0.854902 0.784314 0.474510
0.886275 0.784314 0.462745
0.317647 0.898039 0.435294
0.396078 0.886275 0.435294
0.486275 0.882353 0.439216
0.576471 0.886275 0.439216
0.678431 0.870588 0.443137
0.749020 0.866667 0.450980
0.807843 0.862745 0.439216
0.850980 0.854902 0.450980
0.894118 0.847059 0.443137
0.105882 0.192157 0.596078
0.215686 0.196078 0.552941
0.364706 0.168627 0.501961
0.513726 0.141176 0.474510
0.627451 0.117647 0.462745
0.709804 0.105882 0.439216
0.772549 0.109804 0.407843
0.827451 0.113725 0.384314
0.874510 0.109804 0.364706
0.098039 0.321569 0.513726
0.203922 0.305882 0.482353
0.345098 0.301961 0.482353
0.478431 0.286275 0.466667
0.603922 0.262745 0.435294
0.670588 0.250980 0.419608
0.752941 0.250980 0.388235
0.800000 0.247059 0.372549
0.854902 0.231373 0.364706
0.137255 0.423529 0.482353
0.211765 0.431373 0.486275
0.345098 0.419608 0.466667
0.462745 0.415686 0.458824
0.588235 0.396078 0.443137
0.670588 0.392157 0.423529
0.745098 0.388235 0.400000
0.796078 0.372549 0.392157
0.854902 0.360784 0.388235
0.156863 0.517647 0.486275
0.262745 0.517647 0.494118
0.368627 0.517647 0.494118
0.474510 0.521569 0.494118
0.588235 0.517647 0.478431
0.678431 0.509804 0.466667
0.749020 0.501961 0.435294
0.807843 0.501961 0.423529
0.866667 0.474510 0.419608
0.188235 0.615686 0.501961
0.298039 0.603922 0.501961
0.400000 0.607843 0.509804
0.509804 0.603922 0.517647
0.592157 0.607843 0.513726
0.690196 0.611765 0.498039
0.760784 0.603922 0.482353
0.819608 0.596078 0.466667
0.870588 0.572549 0.450980
0.231373 0.674510 0.509804
0.329412 0.674510 0.509804
0.435294 0.674510 0.529412
0.541176 0.674510 0.533333
0.623529 0.678431 0.537255
0.698039 0.686275 0.537255
0.772549 0.678431 0.529412
0.823529 0.674510 0.513726
0.878431 0.654902 0.486275
0.278431 0.752941 0.517647
0.384314 0.745098 0.529412
0.474510 0.741176 0.537255
0.552941 0.749020 0.541176
0.647059 0.749020 0.541176
0.717647 0.752941 0.533333
0.780392 0.745098 0.552941
0.839216 0.745098 0.549020
0.886275 0.725490 0.517647
0.313726 0.823529 0.521569
0.400000 0.819608 0.529412
0.486275 0.815686 0.537255
0.572549 0.807843 0.549020
0.662745 0.811765 0.541176
0.745098 0.800000 0.541176
0.800000 0.800000 0.537255
0.847059 0.796078 0.549020
0.894118 0.792157 0.537255
0.321569 0.890196 0.521569
0.407843 0.882353 0.521569
0.498039 0.878431 0.521569
0.588235 0.874510 0.521569
0.662745 0.874510 0.533333
0.752941 0.866667 0.521569
0.803922 0.866667 0.517647
0.854902 0.858824 0.533333
0.890196 0.854902 0.529412
0.082353 0.200000 0.709804
0.219608 0.203922 0.631373
0.349020 0.180392 0.588235
0.509804 0.149020 0.564706
0.607843 0.137255 0.549020
0.701961 0.117647 0.529412
0.776471 0.113725 0.498039
0.831373 0.109804 0.478431
0.886275 0.113725 0.462745
0.098039 0.333333 0.596078
0.211765 0.317647 0.564706
0.333333 0.317647 0.556863
0.458824 0.313726 0.537255
0.592157 0.294118 0.517647
0.670588 0.278431 0.501961
0.749020 0.254902 0.478431
0.800000 0.250980 0.462745
0.854902 0.239216 0.458824
0.129412 0.439216 0.564706
0.215686 0.439216 0.552941
0.341176 0.439216 0.541176
0.454902 0.435294 0.537255
0.572549 0.419608 0.517647
0.670588 0.407843 0.501961
0.733333 0.396078 0.478431
0.792157 0.392157 0.474510
0.847059 0.372549 0.466667
0.168627 0.533333 0.549020
0.258824 0.533333 0.556863
0.352941 0.537255 0.564706
0.474510 0.533333 0.556863
0.572549 0.537255 0.552941
0.670588 0.521569 0.537255
0.745098 0.517647 0.513726
0.803922 0.501961 0.501961
0.847059 0.482353 0.498039
0.196078 0.615686 0.564706
0.313726 0.611765 0.568627
0.411765 0.611765 0.576471
0.513726 0.611765 0.584314
0.603922 0.615686 0.584314
0.686275 0.623529 0.576471
0.749020 0.615686 0.552941
0.815686 0.607843 0.541176
0.862745 0.588235 0.529412
0.239216 0.690196 0.576471
0.337255 0.686275 0.596078
0.450980 0.678431 0.603922
0.537255 0.686275 0.611765
0.615686 0.694118 0.611765
0.694118 0.694118 0.615686
0.772549 0.694118 0.603922
0.823529 0.690196 0.588235
0.874510 0.666667 0.556863
0.294118 0.752941 0.603922
0.376471 0.749020 0.607843
0.462745 0.749020 0.615686
0.549020 0.749020 0.615686
0.635294 0.752941 0.627451
0.709804 0.760784 0.623529
0.768627 0.752941 0.627451
0.831373 0.756863 0.615686
0.882353 0.741176 0.592157
0.313726 0.815686 0.603922
0.407843 0.819608 0.607843
0.501961 0.815686 0.611765
0.576471 0.811765 0.623529
0.654902 0.811765 0.627451
0.733333 0.807843 0.627451
0.796078 0.807843 0.627451
0.839216 0.807843 0.627451
0.890196 0.796078 0.615686
0.329412 0.886275 0.596078
0.411765 0.874510 0.607843
0.498039 0.874510 0.607843
0.588235 0.878431 0.607843
0.662745 0.878431 0.615686
0.733333 0.870588 0.623529
0.800000 0.866667 0.607843
0.850980 0.866667 0.607843
0.894118 0.862745 0.615686
0.082353 0.207843 0.772549
0.215686 0.207843 0.721569
0.349020 0.188235 0.666667
0.494118 0.168627 0.647059
0.607843 0.145098 0.623529
0.701961 0.133333 0.607843
0.772549 0.125490 0.584314
0.827451 0.121569 0.564706
0.882353 0.117647 0.549020
0.101961 0.341176 0.666667
0.223529 0.337255 0.643137
0.333333 0.333333 0.623529
0.454902 0.337255 0.603922
0.584314 0.305882 0.588235
0.670588 0.290196 0.576471
0.752941 0.266667 0.556863
0.803922 0.243137 0.552941
0.862745 0.247059 0.541176
0.129412 0.458824 0.627451
0.227451 0.454902 0.615686
0.345098 0.454902 0.596078
0.454902 0.454902 0.607843
0.568627 0.439216 0.596078
0.662745 0.431373 0.584314
0.745098 0.396078 0.572549
0.796078 0.388235 0.568627
0.847059 0.376471 0.556863
0.176471 0.552941 0.615686
0.266667 0.549020 0.615686
0.372549 0.552941 0.627451
0.482353 0.549020 0.623529
0.584314 0.552941 0.623529
0.662745 0.549020 0.607843
0.745098 0.517647 0.603922
0.800000 0.509804 0.596078
0.850980 0.494118 0.584314
0.215686 0.631373 0.623529
0.317647 0.623529 0.631373
0.415686 0.623529 0.643137
0.509804 0.631373 0.650980
0.607843 0.635294 0.647059
0.674510 0.631373 0.643137
0.752941 0.615686 0.627451
0.807843 0.611765 0.611765
0.862745 0.603922 0.596078
0.266667 0.694118 0.650980
0.352941 0.686275 0.654902
0.450980 0.698039 0.662745
0.541176 0.698039 0.662745
0.627451 0.701961 0.666667
0.694118 0.701961 0.670588
0.764706 0.698039 0.662745
0.823529 0.690196 0.650980
0.874510 0.674510 0.631373
0.278431 0.756863 0.662745
0.376471 0.749020 0.666667
0.478431 0.752941 0.674510
0.568627 0.745098 0.678431
0.647059 0.760784 0.686275
0.709804 0.764706 0.690196
0.772549 0.764706 0.686275
0.827451 0.764706 0.670588
0.882353 0.752941 0.666667
0.317647 0.815686 0.674510
0.407843 0.803922 0.690196
0.501961 0.803922 0.690196
0.588235 0.803922 0.698039
0.662745 0.807843 0.694118
0.729412 0.815686 0.698039
0.780392 0.815686 0.698039
0.831373 0.819608 0.701961
0.882353 0.803922 0.690196
0.333333 0.882353 0.666667
0.431373 0.874510 0.678431
0.509804 0.866667 0.690196
0.592157 0.870588 0.678431
0.666667 0.870588 0.698039
0.745098 0.870588 0.698039
0.792157 0.874510 0.701961
0.847059 0.870588 0.694118
0.890196 0.866667 0.701961
0.074510 0.215686 0.839216
0.215686 0.203922 0.780392
0.345098 0.211765 0.729412
0.466667 0.192157 0.713726
0.603922 0.172549 0.694118
0.698039 0.160784 0.674510
0.772549 0.145098 0.662745
0.823529 0.141176 0.647059
0.894118 0.113725 0.635294
0.113725 0.349020 0.729412
0.231373 0.352941 0.701961
0.341176 0.360784 0.686275
0.454902 0.349020 0.670588
0.572549 0.329412 0.662745
0.666667 0.313726 0.650980
0.749020 0.286275 0.647059
0.807843 0.258824 0.635294
0.874510 0.239216 0.627451
0.149020 0.474510 0.690196
0.254902 0.474510 0.666667
0.360784 0.474510 0.674510
0.458824 0.474510 0.670588
0.564706 0.466667 0.670588
0.654902 0.450980 0.662745
0.741176 0.415686 0.650980
0.803922 0.384314 0.647059
0.866667 0.368627 0.643137
0.188235 0.568627 0.674510
0.278431 0.572549 0.686275
0.376471 0.576471 0.678431
0.474510 0.576471 0.678431
0.568627 0.576471 0.678431
0.666667 0.552941 0.678431
0.749020 0.529412 0.670588
0.803922 0.501961 0.666667
0.866667 0.486275 0.654902
0.239216 0.635294 0.674510
0.313726 0.635294 0.690196
0.400000 0.647059 0.694118
0.501961 0.654902 0.701961
0.607843 0.647059 0.701961
0.674510 0.650980 0.709804
0.745098 0.643137 0.698039
0.811765 0.615686 0.674510
0.866667 0.596078 0.674510
0.278431 0.701961 0.694118
0.364706 0.694118 0.701961
0.466667 0.701961 0.713726
0.541176 0.713726 0.717647
0.627451 0.713726 0.725490
0.698039 0.713726 0.721569
0.768627 0.713726 0.721569
0.827451 0.694118 0.709804
0.878431 0.674510 0.698039
0.305882 0.768627 0.721569
0.388235 0.760784 0.729412
0.486275 0.764706 0.733333
0.568627 0.768627 0.729412
0.654902 0.764706 0.741176
0.713726 0.776471 0.749020
0.768627 0.772549 0.741176
0.831373 0.768627 0.733333
0.878431 0.760784 0.717647
0.329412 0.815686 0.733333
0.411765 0.819608 0.745098
0.494118 0.815686 0.745098
0.576471 0.811765 0.752941
0.647059 0.811765 0.752941
0.729412 0.815686 0.760784
0.784314 0.819608 0.760784
0.835294 0.823529 0.756863
0.886275 0.811765 0.752941
0.341176 0.874510 0.749020
0.419608 0.870588 0.752941
0.521569 0.866667 0.756863
0.603922 0.866667 0.760784
0.670588 0.866667 0.768627
0.733333 0.878431 0.764706
0.792157 0.882353 0.764706
0.843137 0.878431 0.776471
0.890196 0.882353 0.788235
0.070588 0.219608 0.886275
0.215686 0.207843 0.835294
0.337255 0.231373 0.792157
0.486275 0.211765 0.776471
0.603922 0.200000 0.756863
0.698039 0.188235 0.749020
0.772549 0.172549 0.729412
0.839216 0.141176 0.729412
0.901961 0.113725 0.725490
0.117647 0.360784 0.796078
0.231373 0.372549 0.768627
0.345098 0.384314 0.749020
0.454902 0.376471 0.733333
0.564706 0.364706 0.725490
0.666667 0.341176 0.721569
0.749020 0.309804 0.713726
0.819608 0.270588 0.713726
0.878431 0.243137 0.709804
0.160784 0.486275 0.749020
0.262745 0.494118 0.725490
0.364706 0.498039 0.729412
0.458824 0.501961 0.729412
0.556863 0.486275 0.729412
0.662745 0.466667 0.729412
0.749020 0.435294 0.729412
0.819608 0.396078 0.721569
0.886275 0.352941 0.725490
0.200000 0.596078 0.733333
0.298039 0.603922 0.721569
0.388235 0.592157 0.733333
0.482353 0.592157 0.749020
0.572549 0.588235 0.749020
0.662745 0.568627 0.752941
0.741176 0.552941 0.745098
0.819608 0.517647 0.741176
0.886275 0.474510 0.733333
0.239216 0.662745 0.745098
0.329412 0.654902 0.749020
0.415686 0.654902 0.760784
0.501961 0.662745 0.764706
0.596078 0.654902 0.760784
0.690196 0.647059 0.768627
0.756863 0.650980 0.764706
0.819608 0.635294 0.756863
0.886275 0.584314 0.752941
0.290196 0.717647 0.756863
0.368627 0.717647 0.756863
0.462745 0.717647 0.772549
0.537255 0.717647 0.780392
0.631373 0.713726 0.792157
0.709804 0.717647 0.776471
0.772549 0.721569 0.784314
0.835294 0.721569 0.772549
0.894118 0.678431 0.768627
0.313726 0.772549 0.772549
0.407843 0.776471 0.776471
0.486275 0.776471 0.784314
0.576471 0.776471 0.788235
0.678431 0.768627 0.796078
0.717647 0.780392 0.796078
0.780392 0.784314 0.792157
0.839216 0.780392 0.784314
0.886275 0.760784 0.788235
0.345098 0.823529 0.796078
0.431373 0.823529 0.800000
0.509804 0.819608 0.803922
0.607843 0.815686 0.807843
0.674510 0.823529 0.803922
0.729412 0.823529 0.803922
0.788235 0.827451 0.803922
0.835294 0.831373 0.807843
0.886275 0.815686 0.807843
0.349020 0.878431 0.807843
0.419608 0.878431 0.815686
0.513726 0.874510 0.815686
0.596078 0.866667 0.819608
0.666667 0.874510 0.827451
0.741176 0.878431 0.819608
0.796078 0.878431 0.819608
0.854902 0.882353 0.835294
0.905882 0.886275 0.843137
