app/src/main/assets/luts/cyanorganic.cube
TITLE "Generated by Alittlecookie"
#LUMIXPHOTOSTYLE CNEV2
LUT_3D_SIZE 33
0.058824 0.109804 0.090196
0.101961 0.113725 0.086275
0.141176 0.113725 0.082353
0.188235 0.113725 0.074510
0.227451 0.117647 0.074510
0.274510 0.117647 0.070588
0.313726 0.117647 0.070588
0.349020 0.121569 0.066667
0.388235 0.125490 0.066667
0.415686 0.129412 0.058824
0.450980 0.133333 0.058824
0.478431 0.129412 0.054902
0.509804 0.129412 0.054902
0.537255 0.129412 0.054902
0.552941 0.129412 0.050980
0.584314 0.129412 0.043137
0.607843 0.125490 0.043137
0.627451 0.125490 0.043137
0.647059 0.121569 0.043137
0.662745 0.121569 0.039216
0.674510 0.117647 0.039216
0.701961 0.113725 0.039216
0.721569 0.109804 0.039216
0.741176 0.109804 0.039216
0.760784 0.105882 0.043137
0.776471 0.105882 0.043137
0.792157 0.105882 0.039216
0.803922 0.105882 0.039216
0.823529 0.098039 0.039216
0.839216 0.098039 0.039216
0.850980 0.098039 0.039216
0.870588 0.098039 0.039216
0.886275 0.094118 0.039216
0.070588 0.149020 0.094118
0.101961 0.156863 0.094118
0.149020 0.152941 0.094118
0.192157 0.152941 0.090196
0.235294 0.156863 0.082353
0.270588 0.152941 0.082353
0.317647 0.156863 0.078431
0.352941 0.156863 0.078431
0.392157 0.152941 0.074510
0.423529 0.156863 0.074510
0.450980 0.156863 0.062745
0.478431 0.156863 0.058824
0.509804 0.152941 0.058824
0.537255 0.156863 0.054902
0.552941 0.156863 0.054902
0.576471 0.156863 0.054902
0.607843 0.156863 0.047059
0.627451 0.152941 0.047059
0.647059 0.149020 0.043137
0.662745 0.145098 0.039216
0.678431 0.145098 0.039216
0.701961 0.141176 0.039216
0.717647 0.141176 0.039216
0.741176 0.141176 0.039216
0.752941 0.141176 0.039216
0.772549 0.133333 0.043137
0.792157 0.133333 0.043137
0.803922 0.133333 0.039216
0.815686 0.129412 0.039216
0.831373 0.129412 0.039216
0.847059 0.129412 0.039216
0.862745 0.121569 0.039216
0.882353 0.117647 0.039216
0.082353 0.196078 0.109804
0.113725 0.196078 0.109804
0.141176 0.196078 0.101961
0.188235 0.188235 0.101961
0.239216 0.192157 0.094118
0.278431 0.196078 0.094118
0.317647 0.192157 0.086275
0.364706 0.188235 0.086275
0.396078 0.184314 0.086275
0.431373 0.180392 0.078431
0.454902 0.180392 0.074510
0.494118 0.180392 0.074510
0.509804 0.184314 0.066667
0.541176 0.184314 0.062745
0.568627 0.180392 0.058824
0.584314 0.180392 0.054902
0.607843 0.180392 0.054902
0.627451 0.180392 0.054902
0.647059 0.176471 0.047059
0.662745 0.176471 0.043137
0.678431 0.176471 0.039216
0.701961 0.172549 0.039216
0.721569 0.172549 0.039216
0.733333 0.172549 0.039216
0.752941 0.168627 0.039216
0.772549 0.168627 0.039216
0.788235 0.164706 0.043137
0.800000 0.160784 0.039216
0.811765 0.160784 0.039216
0.823529 0.156863 0.039216
0.843137 0.156863 0.039216
0.862745 0.152941 0.039216
0.870588 0.152941 0.039216
0.094118 0.239216 0.113725
0.129412 0.231373 0.113725
0.156863 0.231373 0.113725
0.192157 0.235294 0.113725
0.235294 0.223529 0.113725
0.278431 0.227451 0.101961
0.329412 0.219608 0.094118
0.360784 0.215686 0.090196
0.400000 0.215686 0.086275
0.435294 0.215686 0.086275
0.462745 0.211765 0.078431
0.494118 0.207843 0.078431
0.521569 0.207843 0.074510
0.549020 0.207843 0.070588
0.564706 0.207843 0.066667
0.584314 0.207843 0.066667
0.603922 0.203922 0.058824
0.631373 0.203922 0.058824
0.643137 0.203922 0.054902
0.666667 0.203922 0.054902
0.686275 0.203922 0.047059
0.701961 0.203922 0.043137
0.721569 0.203922 0.043137
0.741176 0.200000 0.043137
0.752941 0.196078 0.043137
0.764706 0.192157 0.039216
0.788235 0.192157 0.039216
0.796078 0.192157 0.039216
0.803922 0.192157 0.039216
0.819608 0.188235 0.039216
0.839216 0.184314 0.039216
0.854902 0.180392 0.039216
0.866667 0.180392 0.035294
0.098039 0.270588 0.125490
0.141176 0.270588 0.121569
0.176471 0.270588 0.113725
0.203922 0.266667 0.113725
0.231373 0.270588 0.117647
0.262745 0.262745 0.113725
0.329412 0.254902 0.105882
0.364706 0.250980 0.101961
0.400000 0.247059 0.094118
0.439216 0.243137 0.090196
0.466667 0.239216 0.090196
0.498039 0.235294 0.082353
0.517647 0.235294 0.078431
0.549020 0.231373 0.074510
0.568627 0.231373 0.070588
0.592157 0.231373 0.070588
0.607843 0.231373 0.070588
0.631373 0.235294 0.070588
0.650980 0.231373 0.062745
0.666667 0.231373 0.062745
0.686275 0.231373 0.058824
0.709804 0.231373 0.054902
0.717647 0.231373 0.050980
0.741176 0.231373 0.050980
0.760784 0.227451 0.047059
0.772549 0.219608 0.047059
0.784314 0.219608 0.047059
0.792157 0.219608 0.047059
0.807843 0.219608 0.039216
0.819608 0.219608 0.039216
0.839216 0.215686 0.039216
0.847059 0.215686 0.039216
0.866667 0.207843 0.035294
0.113725 0.305882 0.133333
0.145098 0.305882 0.125490
0.176471 0.305882 0.121569
0.211765 0.301961 0.117647
0.243137 0.298039 0.117647
0.266667 0.301961 0.121569
0.305882 0.294118 0.117647
0.364706 0.286275 0.113725
0.396078 0.278431 0.105882
0.435294 0.270588 0.094118
0.466667 0.266667 0.094118
0.494118 0.266667 0.082353
0.517647 0.262745 0.082353
0.541176 0.258824 0.078431
0.568627 0.258824 0.074510
0.592157 0.258824 0.074510
0.611765 0.258824 0.074510
0.635294 0.262745 0.074510
0.650980 0.258824 0.074510
0.674510 0.254902 0.070588
0.690196 0.254902 0.070588
0.709804 0.254902 0.062745
0.729412 0.254902 0.062745
0.741176 0.254902 0.058824
0.760784 0.254902 0.058824
0.772549 0.250980 0.054902
0.784314 0.250980 0.054902
0.796078 0.247059 0.054902
0.807843 0.247059 0.054902
0.823529 0.247059 0.050980
0.839216 0.243137 0.050980
0.854902 0.239216 0.047059
0.866667 0.239216 0.039216
0.113725 0.341176 0.133333
0.156863 0.341176 0.129412
0.188235 0.337255 0.125490
0.215686 0.341176 0.125490
0.250980 0.329412 0.125490
0.286275 0.329412 0.121569
0.309804 0.333333 0.121569
0.352941 0.317647 0.117647
0.396078 0.309804 0.113725
0.431373 0.305882 0.105882
0.458824 0.298039 0.101961
0.486275 0.298039 0.094118
0.521569 0.294118 0.090196
0.541176 0.294118 0.082353
0.568627 0.294118 0.082353
0.596078 0.290196 0.082353
0.615686 0.290196 0.078431
0.643137 0.294118 0.074510
0.654902 0.290196 0.074510
0.670588 0.290196 0.074510
0.694118 0.286275 0.074510
0.713726 0.278431 0.074510
0.729412 0.278431 0.074510
0.749020 0.278431 0.074510
0.756863 0.278431 0.066667
0.772549 0.278431 0.066667
0.788235 0.278431 0.066667
0.796078 0.278431 0.062745
0.811765 0.278431 0.062745
0.827451 0.270588 0.062745
0.843137 0.266667 0.054902
0.850980 0.266667 0.054902
0.866667 0.262745 0.054902
0.125490 0.368627 0.137255
0.156863 0.372549 0.133333
0.192157 0.364706 0.129412
0.231373 0.364706 0.129412
0.254902 0.352941 0.125490
0.290196 0.352941 0.121569
0.329412 0.349020 0.121569
0.352941 0.349020 0.117647
0.388235 0.341176 0.113725
0.415686 0.341176 0.113725
0.458824 0.333333 0.109804
0.494118 0.321569 0.101961
0.517647 0.321569 0.094118
0.552941 0.317647 0.094118
0.584314 0.317647 0.090196
0.607843 0.317647 0.086275
0.615686 0.321569 0.086275
0.650980 0.313726 0.086275
0.662745 0.313726 0.086275
0.686275 0.313726 0.086275
0.698039 0.309804 0.082353
0.713726 0.309804 0.082353
0.729412 0.309804 0.078431
0.749020 0.309804 0.078431
0.760784 0.305882 0.074510
0.772549 0.305882 0.074510
0.784314 0.305882 0.074510
0.803922 0.305882 0.074510
0.811765 0.309804 0.074510
0.827451 0.305882 0.070588
0.839216 0.301961 0.070588
0.854902 0.294118 0.070588
0.866667 0.294118 0.070588
0.125490 0.400000 0.141176
0.160784 0.400000 0.133333
0.196078 0.392157 0.133333
0.231373 0.388235 0.129412
0.266667 0.384314 0.129412
0.294118 0.376471 0.125490
0.329412 0.372549 0.125490
0.360784 0.372549 0.121569
0.388235 0.368627 0.117647
0.411765 0.368627 0.117647
0.443137 0.368627 0.117647
0.482353 0.364706 0.113725
0.517647 0.349020 0.109804
0.552941 0.345098 0.105882
0.584314 0.345098 0.098039
0.603922 0.345098 0.094118
0.631373 0.345098 0.094118
0.647059 0.345098 0.094118
0.670588 0.341176 0.094118
0.678431 0.337255 0.090196
0.709804 0.337255 0.090196
0.721569 0.337255 0.090196
0.733333 0.341176 0.090196
0.752941 0.341176 0.090196
0.768627 0.341176 0.090196
0.776471 0.345098 0.082353
0.788235 0.333333 0.082353
0.800000 0.333333 0.082353
0.811765 0.333333 0.082353
0.831373 0.329412 0.082353
0.843137 0.329412 0.078431
0.858824 0.321569 0.078431
0.870588 0.321569 0.078431
0.129412 0.431373 0.141176
0.168627 0.423529 0.133333
0.203922 0.419608 0.133333
0.235294 0.411765 0.133333
0.270588 0.407843 0.133333
0.305882 0.407843 0.125490
0.337255 0.396078 0.125490
0.364706 0.396078 0.125490
0.388235 0.396078 0.129412
0.411765 0.396078 0.121569
0.439216 0.396078 0.121569
0.478431 0.392157 0.121569
0.513726 0.384314 0.121569
0.556863 0.372549 0.113725
0.576471 0.372549 0.109804
0.607843 0.368627 0.109804
0.635294 0.368627 0.105882
0.654902 0.368627 0.105882
0.674510 0.368627 0.101961
0.694118 0.364706 0.098039
0.701961 0.364706 0.098039
0.721569 0.364706 0.098039
0.741176 0.364706 0.098039
0.752941 0.368627 0.094118
0.764706 0.368627 0.094118
0.780392 0.368627 0.094118
0.792157 0.364706 0.094118
0.803922 0.360784 0.094118
0.819608 0.360784 0.094118
0.831373 0.352941 0.090196
0.847059 0.352941 0.086275
0.862745 0.349020 0.086275
0.870588 0.349020 0.086275
0.137255 0.458824 0.141176
0.168627 0.450980 0.129412
0.207843 0.439216 0.137255
0.239216 0.435294 0.133333
0.266667 0.431373 0.129412
0.301961 0.431373 0.129412
0.345098 0.423529 0.125490
0.368627 0.419608 0.125490
0.392157 0.419608 0.129412
0.423529 0.423529 0.129412
0.443137 0.423529 0.129412
0.474510 0.419608 0.129412
0.513726 0.411765 0.125490
0.537255 0.415686 0.125490
0.584314 0.400000 0.121569
0.611765 0.392157 0.117647
0.647059 0.392157 0.113725
0.662745 0.392157 0.113725
0.670588 0.396078 0.113725
0.690196 0.396078 0.113725
0.709804 0.396078 0.109804
0.721569 0.396078 0.105882
0.741176 0.392157 0.101961
0.752941 0.392157 0.101961
0.768627 0.392157 0.101961
0.780392 0.396078 0.101961
0.796078 0.392157 0.101961
0.807843 0.392157 0.101961
0.827451 0.384314 0.094118
0.839216 0.384314 0.094118
0.847059 0.384314 0.094118
0.862745 0.376471 0.094118
0.866667 0.376471 0.098039
0.141176 0.482353 0.141176
0.176471 0.466667 0.133333
0.211765 0.458824 0.133333
0.247059 0.458824 0.133333
0.274510 0.454902 0.129412
0.305882 0.454902 0.129412
0.345098 0.454902 0.129412
0.376471 0.450980 0.121569
0.407843 0.450980 0.125490
0.423529 0.450980 0.129412
0.458824 0.443137 0.133333
0.482353 0.443137 0.133333
0.513726 0.439216 0.133333
0.537255 0.439216 0.133333
0.576471 0.431373 0.133333
0.611765 0.423529 0.133333
0.635294 0.419608 0.125490
0.654902 0.419608 0.125490
0.678431 0.419608 0.121569
0.698039 0.419608 0.121569
0.717647 0.419608 0.113725
0.729412 0.419608 0.113725
0.749020 0.423529 0.113725
0.756863 0.419608 0.113725
0.776471 0.415686 0.113725
0.788235 0.415686 0.113725
0.800000 0.415686 0.109804
0.811765 0.419608 0.109804
0.827451 0.411765 0.109804
0.839216 0.415686 0.109804
0.850980 0.407843 0.109804
0.858824 0.411765 0.109804
0.874510 0.400000 0.109804
0.141176 0.509804 0.141176
0.184314 0.486275 0.137255
0.215686 0.482353 0.133333
0.247059 0.482353 0.133333
0.286275 0.482353 0.137255
0.313726 0.474510 0.137255
0.345098 0.474510 0.129412
0.372549 0.478431 0.125490
0.407843 0.478431 0.129412
0.435294 0.466667 0.133333
0.458824 0.474510 0.137255
0.494118 0.466667 0.141176
0.513726 0.474510 0.141176
0.549020 0.462745 0.141176
0.572549 0.462745 0.141176
0.603922 0.454902 0.141176
0.635294 0.450980 0.141176
0.654902 0.443137 0.141176
0.670588 0.443137 0.137255
0.698039 0.443137 0.129412
0.713726 0.443137 0.129412
0.729412 0.443137 0.125490
0.749020 0.443137 0.125490
0.760784 0.443137 0.121569
0.776471 0.439216 0.125490
0.788235 0.443137 0.125490
0.800000 0.439216 0.121569
0.815686 0.439216 0.121569
0.827451 0.439216 0.121569
0.839216 0.435294 0.117647
0.847059 0.439216 0.117647
0.862745 0.431373 0.117647
0.874510 0.423529 0.117647
0.156863 0.521569 0.141176
0.184314 0.517647 0.137255
0.219608 0.509804 0.137255
0.258824 0.501961 0.137255
0.290196 0.501961 0.133333
0.313726 0.498039 0.137255
0.349020 0.498039 0.133333
0.376471 0.498039 0.133333
0.411765 0.498039 0.129412
0.443137 0.494118 0.133333
0.466667 0.494118 0.137255
0.501961 0.494118 0.141176
0.533333 0.486275 0.141176
0.552941 0.494118 0.145098
0.572549 0.486275 0.145098
0.603922 0.482353 0.145098
0.627451 0.478431 0.145098
0.650980 0.478431 0.145098
0.678431 0.466667 0.145098
0.698039 0.462745 0.145098
0.717647 0.466667 0.141176
0.741176 0.466667 0.137255
0.756863 0.462745 0.137255
0.764706 0.466667 0.137255
0.780392 0.466667 0.137255
0.792157 0.458824 0.141176
0.807843 0.458824 0.141176
0.815686 0.458824 0.137255
0.835294 0.458824 0.137255
0.839216 0.458824 0.133333
0.847059 0.462745 0.133333
0.858824 0.458824 0.129412
0.866667 0.454902 0.129412
0.164706 0.549020 0.141176
0.192157 0.537255 0.137255
0.223529 0.533333 0.137255
0.258824 0.529412 0.133333
0.290196 0.521569 0.137255
0.321569 0.517647 0.137255
0.352941 0.517647 0.141176
0.392157 0.517647 0.137255
0.411765 0.521569 0.137255
0.439216 0.513726 0.137255
0.474510 0.513726 0.141176
0.501961 0.513726 0.141176
0.521569 0.513726 0.149020
0.564706 0.509804 0.149020
0.584314 0.509804 0.149020
0.611765 0.509804 0.145098
0.627451 0.509804 0.149020
0.647059 0.501961 0.149020
0.666667 0.509804 0.152941
0.698039 0.494118 0.152941
0.721569 0.486275 0.149020
0.741176 0.486275 0.149020
0.756863 0.494118 0.145098
0.772549 0.486275 0.141176
0.780392 0.494118 0.149020
0.796078 0.486275 0.145098
0.807843 0.486275 0.145098
0.819608 0.482353 0.145098
0.835294 0.482353 0.145098
0.847059 0.478431 0.145098
0.850980 0.482353 0.141176
0.866667 0.478431 0.141176
0.878431 0.474510 0.141176
0.164706 0.572549 0.141176
0.200000 0.564706 0.141176
0.227451 0.556863 0.137255
0.258824 0.549020 0.133333
0.290196 0.541176 0.133333
0.321569 0.541176 0.137255
0.352941 0.537255 0.141176
0.388235 0.537255 0.141176
0.423529 0.537255 0.141176
0.450980 0.537255 0.137255
0.478431 0.533333 0.141176
0.501961 0.533333 0.141176
0.537255 0.533333 0.145098
0.568627 0.533333 0.149020
0.592157 0.533333 0.152941
0.607843 0.529412 0.156863
0.631373 0.529412 0.156863
0.654902 0.529412 0.160784
0.670588 0.521569 0.160784
0.694118 0.517647 0.164706
0.717647 0.517647 0.168627
0.741176 0.513726 0.164706
0.764706 0.513726 0.160784
0.780392 0.509804 0.160784
0.788235 0.509804 0.160784
0.800000 0.509804 0.156863
0.811765 0.513726 0.156863
0.823529 0.509804 0.156863
0.835294 0.501961 0.156863
0.847059 0.501961 0.156863
0.858824 0.501961 0.152941
0.866667 0.498039 0.149020
0.878431 0.494118 0.149020
0.176471 0.592157 0.141176
0.200000 0.588235 0.137255
0.239216 0.576471 0.137255
0.266667 0.568627 0.137255
0.301961 0.564706 0.137255
0.333333 0.564706 0.141176
0.364706 0.556863 0.145098
0.400000 0.556863 0.145098
0.431373 0.556863 0.141176
0.458824 0.556863 0.141176
0.486275 0.556863 0.141176
0.513726 0.552941 0.149020
0.533333 0.552941 0.156863
0.564706 0.552941 0.160784
0.592157 0.556863 0.164706
0.615686 0.549020 0.168627
0.635294 0.549020 0.168627
0.662745 0.549020 0.168627
0.678431 0.541176 0.172549
0.694118 0.541176 0.176471
0.721569 0.541176 0.176471
0.729412 0.541176 0.176471
0.768627 0.533333 0.176471
0.772549 0.533333 0.176471
0.788235 0.533333 0.168627
0.800000 0.529412 0.168627
0.811765 0.529412 0.168627
0.831373 0.533333 0.168627
0.839216 0.529412 0.168627
0.847059 0.529412 0.168627
0.862745 0.517647 0.164706
0.874510 0.513726 0.164706
0.882353 0.509804 0.160784
0.180392 0.611765 0.145098
0.211765 0.603922 0.141176
0.243137 0.596078 0.141176
0.278431 0.588235 0.137255
0.309804 0.588235 0.141176
0.341176 0.588235 0.141176
0.372549 0.584314 0.145098
0.411765 0.576471 0.145098
0.435294 0.576471 0.145098
0.466667 0.576471 0.141176
0.498039 0.576471 0.141176
0.517647 0.576471 0.152941
0.537255 0.572549 0.164706
0.568627 0.572549 0.172549
0.592157 0.572549 0.176471
0.615686 0.568627 0.176471
0.643137 0.564706 0.176471
0.662745 0.568627 0.176471
0.678431 0.564706 0.176471
0.701961 0.564706 0.180392
0.721569 0.564706 0.184314
0.741176 0.568627 0.188235
0.752941 0.568627 0.188235
0.772549 0.564706 0.192157
0.788235 0.556863 0.184314
0.800000 0.552941 0.184314
0.819608 0.552941 0.180392
0.827451 0.549020 0.180392
0.839216 0.552941 0.176471
0.850980 0.541176 0.176471
0.866667 0.537255 0.176471
0.870588 0.533333 0.176471
0.886275 0.529412 0.168627
0.188235 0.631373 0.149020
0.215686 0.623529 0.141176
0.247059 0.623529 0.141176
0.278431 0.611765 0.141176
0.321569 0.603922 0.145098
0.352941 0.603922 0.149020
0.388235 0.607843 0.149020
0.419608 0.596078 0.149020
0.450980 0.592157 0.149020
0.478431 0.592157 0.145098
0.501961 0.592157 0.149020
0.521569 0.596078 0.156863
0.549020 0.588235 0.168627
0.576471 0.588235 0.176471
0.596078 0.588235 0.180392
0.615686 0.592157 0.184314
0.643137 0.592157 0.184314
0.666667 0.584314 0.184314
0.686275 0.584314 0.184314
0.701961 0.588235 0.184314
0.725490 0.588235 0.188235
0.733333 0.592157 0.196078
0.756863 0.592157 0.200000
0.772549 0.588235 0.203922
0.788235 0.576471 0.203922
0.811765 0.572549 0.196078
0.823529 0.572549 0.196078
0.835294 0.572549 0.192157
0.843137 0.568627 0.192157
0.854902 0.568627 0.188235
0.866667 0.556863 0.180392
0.882353 0.552941 0.184314
0.894118 0.549020 0.176471
0.196078 0.650980 0.149020
0.219608 0.647059 0.152941
0.262745 0.635294 0.149020
0.294118 0.635294 0.149020
0.329412 0.623529 0.149020
0.360784 0.615686 0.152941
0.396078 0.615686 0.152941
0.423529 0.615686 0.149020
0.454902 0.615686 0.149020
0.486275 0.611765 0.152941
0.501961 0.623529 0.156863
0.533333 0.615686 0.164706
0.564706 0.615686 0.172549
0.572549 0.611765 0.176471
0.596078 0.615686 0.188235
0.623529 0.611765 0.192157
0.647059 0.611765 0.188235
0.670588 0.607843 0.188235
0.698039 0.603922 0.188235
0.701961 0.607843 0.192157
0.721569 0.607843 0.196078
0.733333 0.611765 0.196078
0.752941 0.615686 0.200000
0.772549 0.615686 0.207843
0.784314 0.607843 0.207843
0.803922 0.607843 0.207843
0.819608 0.596078 0.207843
0.839216 0.588235 0.207843
0.847059 0.592157 0.203922
0.862745 0.588235 0.200000
0.870588 0.584314 0.192157
0.882353 0.576471 0.188235
0.894118 0.572549 0.184314
0.227451 0.662745 0.156863
0.227451 0.662745 0.156863
0.266667 0.650980 0.152941
0.301961 0.654902 0.156863
0.341176 0.647059 0.152941
0.368627 0.643137 0.156863
0.400000 0.635294 0.156863
0.431373 0.643137 0.156863
0.458824 0.643137 0.156863
0.486275 0.635294 0.160784
0.517647 0.635294 0.168627
0.537255 0.635294 0.172549
0.556863 0.643137 0.176471
0.576471 0.635294 0.180392
0.607843 0.627451 0.188235
0.627451 0.631373 0.192157
0.654902 0.631373 0.196078
0.670588 0.635294 0.200000
0.694118 0.635294 0.200000
0.713726 0.627451 0.200000
0.725490 0.631373 0.200000
0.741176 0.631373 0.203922
0.756863 0.631373 0.207843
0.768627 0.635294 0.207843
0.792157 0.627451 0.215686
0.807843 0.631373 0.215686
0.823529 0.615686 0.219608
0.839216 0.607843 0.219608
0.850980 0.611765 0.215686
0.862745 0.607843 0.211765
0.866667 0.603922 0.203922
0.886275 0.596078 0.200000
0.894118 0.592157 0.192157
0.211765 0.686275 0.160784
0.231373 0.690196 0.156863
0.278431 0.678431 0.156863
0.305882 0.678431 0.160784
0.349020 0.670588 0.160784
0.384314 0.662745 0.164706
0.407843 0.662745 0.164706
0.431373 0.654902 0.164706
0.458824 0.662745 0.168627
0.486275 0.654902 0.172549
0.521569 0.654902 0.176471
0.537255 0.662745 0.180392
0.568627 0.654902 0.184314
0.588235 0.654902 0.184314
0.611765 0.654902 0.192157
0.631373 0.654902 0.200000
0.650980 0.654902 0.203922
0.674510 0.654902 0.207843
0.690196 0.654902 0.207843
0.713726 0.654902 0.211765
0.741176 0.647059 0.211765
0.749020 0.654902 0.211765
0.756863 0.650980 0.215686
0.776471 0.654902 0.219608
0.796078 0.650980 0.223529
0.803922 0.647059 0.227451
0.827451 0.643137 0.227451
0.835294 0.631373 0.227451
0.850980 0.627451 0.231373
0.862745 0.627451 0.227451
0.870588 0.627451 0.219608
0.886275 0.623529 0.211765
0.894118 0.611765 0.207843
0.219608 0.701961 0.160784
0.250980 0.701961 0.164706
0.286275 0.694118 0.164706
0.317647 0.698039 0.168627
0.349020 0.690196 0.172549
0.376471 0.690196 0.172549
0.407843 0.678431 0.172549
0.435294 0.674510 0.176471
0.462745 0.678431 0.176471
0.486275 0.686275 0.176471
0.517647 0.678431 0.180392
0.541176 0.678431 0.184314
0.564706 0.678431 0.184314
0.592157 0.674510 0.188235
0.611765 0.670588 0.196078
0.631373 0.674510 0.203922
0.650980 0.674510 0.207843
0.674510 0.674510 0.211765
0.694118 0.674510 0.215686
0.709804 0.674510 0.215686
0.729412 0.670588 0.215686
0.752941 0.670588 0.219608
0.764706 0.666667 0.227451
0.780392 0.670588 0.231373
0.796078 0.666667 0.235294
0.815686 0.662745 0.231373
0.827451 0.654902 0.239216
0.835294 0.654902 0.239216
0.843137 0.647059 0.239216
0.858824 0.650980 0.239216
0.866667 0.643137 0.235294
0.882353 0.643137 0.223529
0.901961 0.631373 0.219608
0.231373 0.721569 0.168627
0.258824 0.721569 0.172549
0.298039 0.725490 0.168627
0.333333 0.713726 0.176471
0.360784 0.713726 0.176471
0.388235 0.713726 0.176471
0.411765 0.713726 0.176471
0.443137 0.698039 0.176471
0.462745 0.698039 0.180392
0.486275 0.709804 0.184314
0.517647 0.701961 0.188235
0.541176 0.698039 0.188235
0.568627 0.694118 0.192157
0.588235 0.694118 0.196078
0.607843 0.694118 0.196078
0.631373 0.694118 0.203922
0.650980 0.690196 0.207843
0.670588 0.694118 0.211765
0.694118 0.694118 0.215686
0.709804 0.690196 0.219608
0.725490 0.694118 0.223529
0.752941 0.694118 0.231373
0.772549 0.678431 0.239216
0.788235 0.686275 0.239216
0.807843 0.678431 0.239216
0.819608 0.678431 0.239216
0.831373 0.674510 0.239216
0.839216 0.674510 0.243137
0.847059 0.674510 0.239216
0.858824 0.670588 0.239216
0.870588 0.666667 0.239216
0.886275 0.654902 0.235294
0.894118 0.662745 0.231373
0.250980 0.745098 0.168627
0.262745 0.745098 0.172549
0.305882 0.741176 0.172549
0.329412 0.733333 0.176471
0.360784 0.741176 0.176471
0.388235 0.729412 0.176471
0.415686 0.729412 0.176471
0.443137 0.725490 0.176471
0.474510 0.725490 0.188235
0.486275 0.725490 0.192157
0.517647 0.725490 0.196078
0.549020 0.721569 0.196078
0.564706 0.713726 0.200000
0.588235 0.717647 0.200000
0.611765 0.709804 0.203922
0.631373 0.713726 0.203922
0.654902 0.713726 0.207843
0.674510 0.717647 0.207843
0.694118 0.717647 0.219608
0.709804 0.713726 0.223529
0.729412 0.717647 0.231373
0.752941 0.709804 0.239216
0.780392 0.709804 0.243137
0.796078 0.698039 0.243137
0.800000 0.698039 0.239216
0.815686 0.698039 0.243137
0.823529 0.698039 0.243137
0.839216 0.698039 0.243137
0.839216 0.698039 0.247059
0.858824 0.698039 0.243137
0.866667 0.694118 0.247059
0.874510 0.686275 0.243137
0.898039 0.674510 0.243137
0.254902 0.768627 0.176471
0.274510 0.760784 0.176471
0.305882 0.768627 0.176471
0.341176 0.760784 0.176471
0.364706 0.752941 0.176471
0.392157 0.752941 0.180392
0.423529 0.749020 0.188235
0.443137 0.752941 0.192157
0.466667 0.745098 0.196078
0.501961 0.745098 0.196078
0.521569 0.745098 0.196078
0.541176 0.745098 0.200000
0.564706 0.741176 0.200000
0.596078 0.729412 0.207843
0.615686 0.729412 0.203922
0.635294 0.733333 0.203922
0.654902 0.733333 0.207843
0.674510 0.741176 0.211765
0.690196 0.745098 0.215686
0.713726 0.741176 0.219608
0.725490 0.741176 0.227451
0.749020 0.729412 0.231373
0.768627 0.729412 0.235294
0.784314 0.729412 0.239216
0.803922 0.717647 0.247059
0.807843 0.721569 0.247059
0.823529 0.717647 0.250980
0.839216 0.717647 0.250980
0.850980 0.717647 0.250980
0.854902 0.717647 0.250980
0.862745 0.717647 0.247059
0.874510 0.709804 0.247059
0.890196 0.701961 0.247059
0.262745 0.784314 0.176471
0.290196 0.780392 0.180392
0.317647 0.780392 0.180392
0.345098 0.776471 0.180392
0.368627 0.776471 0.184314
0.392157 0.772549 0.188235
0.419608 0.768627 0.192157
0.454902 0.768627 0.196078
0.466667 0.768627 0.200000
0.498039 0.764706 0.200000
0.521569 0.764706 0.203922
0.549020 0.764706 0.203922
0.576471 0.756863 0.203922
0.596078 0.756863 0.207843
0.611765 0.760784 0.207843
0.631373 0.768627 0.203922
0.650980 0.768627 0.203922
0.678431 0.764706 0.207843
0.690196 0.764706 0.215686
0.709804 0.764706 0.219608
0.733333 0.756863 0.227451
0.745098 0.756863 0.231373
0.768627 0.749020 0.235294
0.784314 0.749020 0.243137
0.796078 0.749020 0.247059
0.811765 0.749020 0.250980
0.819608 0.741176 0.250980
0.835294 0.733333 0.250980
