app/src/main/assets/luts/cyanorganic.cube
TITLE "Generated by Alittlecookie"
#LUMIXPHOTOSTYLE CNEV2
LUT_3D_SIZE 5
0.058824 0.109804 0.090196
0.388235 0.125490 0.066667
0.607843 0.125490 0.043137
0.760784 0.105882 0.043137
0.886275 0.094118 0.039216
0.125490 0.400000 0.141176
0.388235 0.368627 0.117647
0.631373 0.345098 0.094118
0.768627 0.341176 0.090196
0.870588 0.321569 0.078431
0.176471 0.592157 0.141176
0.431373 0.556863 0.141176
0.635294 0.549020 0.168627
0.788235 0.533333 0.168627
0.882353 0.509804 0.160784
0.250980 0.745098 0.168627
0.474510 0.725490 0.188235
0.654902 0.713726 0.207843
0.800000 0.698039 0.239216
0.898039 0.674510 0.243137
0.290196 0.901961 0.207843
0.474510 0.882353 0.223529
0.666667 0.870588 0.223529
0.792157 0.854902 0.243137
0.894118 0.839216 0.243137
0.078431 0.160784 0.368627
0.396078 0.141176 0.305882
0.635294 0.113725 0.239216
0.772549 0.101961 0.180392
0.886275 0.109804 0.149020
0.133333 0.411765 0.329412
0.352941 0.396078 0.305882
0.596078 0.376471 0.258824
0.752941 0.352941 0.227451
0.858824 0.352941 0.215686
0.176471 0.603922 0.333333
0.400000 0.592157 0.337255
0.607843 0.576471 0.341176
0.780392 0.568627 0.317647
0.866667 0.556863 0.298039
0.286275 0.749020 0.341176
0.482353 0.741176 0.364706
0.662745 0.729412 0.372549
0.800000 0.725490 0.392157
0.898039 0.698039 0.368627
0.317647 0.894118 0.360784
0.478431 0.886275 0.360784
0.670588 0.874510 0.364706
0.800000 0.862745 0.368627
0.890196 0.847059 0.372549
0.105882 0.192157 0.596078
0.364706 0.168627 0.501961
0.627451 0.117647 0.462745
0.772549 0.109804 0.407843
0.874510 0.109804 0.364706
0.137255 0.423529 0.482353
0.345098 0.419608 0.466667
0.588235 0.396078 0.443137
0.745098 0.388235 0.400000
0.854902 0.360784 0.388235
0.188235 0.615686 0.501961
0.400000 0.607843 0.509804
0.592157 0.607843 0.513726
0.760784 0.603922 0.482353
0.870588 0.572549 0.450980
0.278431 0.752941 0.517647
0.474510 0.741176 0.537255
0.647059 0.749020 0.541176
0.780392 0.745098 0.552941
0.886275 0.725490 0.517647
0.321569 0.890196 0.521569
0.498039 0.878431 0.521569
0.662745 0.874510 0.533333
0.803922 0.866667 0.517647
0.890196 0.854902 0.529412
0.082353 0.207843 0.772549
0.349020 0.188235 0.666667
0.607843 0.145098 0.623529
0.772549 0.125490 0.584314
0.882353 0.117647 0.549020
0.129412 0.458824 0.627451
0.345098 0.454902 0.596078
0.568627 0.439216 0.596078
0.745098 0.396078 0.572549
0.847059 0.376471 0.556863
0.215686 0.631373 0.623529
0.415686 0.623529 0.643137
0.607843 0.635294 0.647059
0.752941 0.615686 0.627451
0.862745 0.603922 0.596078
0.278431 0.756863 0.662745
0.478431 0.752941 0.674510
0.647059 0.760784 0.686275
0.772549 0.764706 0.686275
0.882353 0.752941 0.666667
0.333333 0.882353 0.666667
0.509804 0.866667 0.690196
0.666667 0.870588 0.698039
0.792157 0.874510 0.701961
0.890196 0.866667 0.701961
0.070588 0.219608 0.886275
0.337255 0.231373 0.792157
0.603922 0.200000 0.756863
0.772549 0.172549 0.729412
0.901961 0.113725 0.725490
0.160784 0.486275 0.749020
0.364706 0.498039 0.729412
0.556863 0.486275 0.729412
0.749020 0.435294 0.729412
0.886275 0.352941 0.725490
0.239216 0.662745 0.745098
0.415686 0.654902 0.760784
0.596078 0.654902 0.760784
0.756863 0.650980 0.764706
0.886275 0.584314 0.752941
0.313726 0.772549 0.772549
0.486275 0.776471 0.784314
0.678431 0.768627 0.796078
0.780392 0.784314 0.792157
0.886275 0.760784 0.788235
0.349020 0.878431 0.807843
0.513726 0.874510 0.815686
0.666667 0.874510 0.827451
0.796078 0.878431 0.819608
0.905882 0.886275 0.843137
