app/src/main/assets/luts/eternableachbypass.cube
TITLE "Generated by Resolve"
LUT_3D_SIZE 33
0 0 0
0.0241398 0.00256352 0.00201419
0.0314946 0.00491341 0.00576791
0.0404822 0.00560006 0.00669871
0.0517128 0.00743114 0.00926223
0.0581064 0.0099031 0.0104524
0.0680247 0.0121767 0.0119783
0.0768902 0.0159457 0.0139925
0.0854505 0.019028 0.0166018
0.0961929 0.0228428 0.0195315
0.108583 0.0281224 0.0230869
0.122362 0.0327001 0.0253147
0.137026 0.0373846 0.029633
0.152667 0.041825 0.0342412
0.17113 0.0469368 0.0382544
0.194614 0.0510262 0.0416114
0.219699 0.0547951 0.0443885
0.2486 0.0602579 0.0488441
0.277913 0.0640879 0.0528572
0.309102 0.0675212 0.0567788
0.338766 0.0699321 0.0618601
0.366644 0.0713359 0.0663005
0.391531 0.076173 0.0712596
0.415213 0.0809491 0.0753338
0.438697 0.0864271 0.0793011
0.462745 0.0906844 0.0853437
0.485832 0.0990005 0.0942702
0.508705 0.107759 0.103914
0.531899 0.117174 0.111208
0.55404 0.126528 0.119799
0.575921 0.137697 0.129809
0.595117 0.150637 0.139834
0.616251 0.166644 0.151171
0.0137484 0.034638 0.013611
0.0411078 0.0411841 0.0178073
0.0503853 0.043534 0.0187228
0.0581064 0.0456245 0.0194247
0.0663005 0.0482795 0.020676
0.0743725 0.0508278 0.0240177
0.0822309 0.0520485 0.0242771
0.0908675 0.054902 0.0255283
0.0999771 0.0573739 0.0280461
0.111681 0.0606088 0.0305486
0.124605 0.0635996 0.0331884
0.137865 0.0648356 0.0361639
0.152911 0.0677348 0.0392462
0.171527 0.070634 0.0422065
0.192187 0.0731212 0.044419
0.216281 0.0758526 0.0480964
0.242679 0.0789502 0.0530404
0.269322 0.0816205 0.056611
0.296025 0.0843519 0.0591592
0.320577 0.0865797 0.0610208
0.344533 0.0899977 0.0659648
0.369116 0.0932937 0.0712902
0.39443 0.0972152 0.0757916
0.417823 0.10103 0.080354
0.441688 0.105898 0.0863203
0.465019 0.112154 0.093431
0.49044 0.117739 0.0992905
0.51342 0.12781 0.109178
0.536767 0.137942 0.119203
0.561227 0.149447 0.129168
0.581643 0.16257 0.139803
0.60322 0.177905 0.151476
0.624262 0.193576 0.163745
0.0211337 0.0497749 0.0204318
0.0481117 0.0557259 0.026215
0.055787 0.0578927 0.0268711
0.0628519 0.0602274 0.0263676
0.0706035 0.0621958 0.0264286
0.0785382 0.0634165 0.0272068
0.0866712 0.0649577 0.0287785
0.0961929 0.0666972 0.0305333
0.104585 0.0685435 0.0317235
0.116823 0.0699931 0.0332647
0.130114 0.0716259 0.0347753
0.143328 0.0742504 0.0386358
0.157519 0.0765393 0.0425116
0.176867 0.0794232 0.0441291
0.198413 0.0816968 0.0474098
0.222232 0.0840009 0.0511482
0.248432 0.0870222 0.0558633
0.273808 0.0895705 0.0587167
0.298238 0.0915236 0.0608835
0.321004 0.0937667 0.0626078
0.345846 0.0977798 0.0686046
0.370611 0.101442 0.0737316
0.395789 0.104326 0.0791485
0.418845 0.107973 0.0833753
0.443748 0.113741 0.0890669
0.46775 0.120104 0.0952773
0.492317 0.126925 0.104295
0.515557 0.136736 0.113512
0.540078 0.147295 0.12285
0.563119 0.159609 0.134218
0.585321 0.171847 0.144503
0.606714 0.188525 0.156435
0.62858 0.204578 0.170871
0.0305486 0.0627451 0.0291905
0.0556649 0.0665141 0.0327916
0.0614786 0.0679789 0.0333257
0.0690929 0.0702373 0.033402
0.0758373 0.0717174 0.032166
0.0829633 0.0730602 0.0334783
0.0915236 0.0751659 0.0339971
0.101045 0.0771801 0.0333715
0.110262 0.0779736 0.0340429
0.121004 0.0793774 0.0361028
0.132708 0.0826123 0.0397498
0.147372 0.0848707 0.0420539
0.16408 0.0866407 0.0434882
0.182605 0.0890669 0.046479
0.204547 0.0912795 0.0490883
0.228031 0.0934768 0.0529488
0.251362 0.0964065 0.0577249
0.277104 0.0982528 0.0610971
0.300084 0.100343 0.0631113
0.323232 0.103044 0.0657359
0.347707 0.107668 0.0708629
0.3729 0.110094 0.0768292
0.396979 0.112459 0.0811475
0.421759 0.115816 0.0849622
0.446357 0.122118 0.0905776
0.470756 0.129198 0.0986648
0.494514 0.136751 0.107607
0.519463 0.146014 0.116014
0.54313 0.157473 0.12694
0.565881 0.170443 0.139147
0.588907 0.182956 0.149676
0.611475 0.200473 0.164355
0.633783 0.217227 0.17908
0.0389715 0.0752422 0.0371557
0.0639658 0.0794537 0.0417029
0.0689708 0.0806592 0.0408179
0.0748608 0.0819715 0.040116
0.0818799 0.0836347 0.0403906
0.0886549 0.085069 0.0411536
0.0969863 0.0869154 0.040238
0.105806 0.088365 0.0388647
0.11577 0.0900435 0.0389715
0.127062 0.0914931 0.0410773
0.140475 0.0931106 0.0431067
0.15436 0.0953231 0.0442512
0.170504 0.0973983 0.0463264
0.189395 0.0991836 0.0490578
0.209491 0.101595 0.0526436
0.231342 0.103792 0.056733
0.254261 0.105898 0.0603647
0.279576 0.107607 0.0637217
0.302678 0.110033 0.0666667
0.326955 0.113283 0.0709697
0.34995 0.116182 0.0763867
0.375036 0.118563 0.079942
0.399832 0.121859 0.0837873
0.424567 0.125795 0.0890516
0.448493 0.132174 0.0956436
0.473167 0.13901 0.103044
0.498772 0.14699 0.110689
0.523629 0.157 0.120302
0.547723 0.169848 0.13283
0.570474 0.182315 0.144244
0.593439 0.195819 0.155871
0.616922 0.214954 0.172519
0.639551 0.233722 0.186618
0.0504158 0.0883955 0.0455634
0.069398 0.0912032 0.0466773
0.0750591 0.0923934 0.046891
0.0808728 0.0934005 0.0470436
0.0876326 0.0950027 0.0478828
0.0944381 0.0964981 0.0478065
0.101701 0.0980392 0.046891
0.110079 0.0999619 0.0451972
0.121721 0.100954 0.0448005
0.133257 0.101732 0.0455329
0.144625 0.103593 0.0478981
0.159243 0.106783 0.0488441
0.176608 0.108217 0.0514839
0.19443 0.109819 0.0547494
0.213123 0.111879 0.057557
0.235599 0.113558 0.0588388
0.258518 0.115434 0.0618906
0.281468 0.117723 0.0686961
0.30692 0.120775 0.0715648
0.33019 0.123735 0.0752422
0.354131 0.126726 0.0797131
0.378195 0.129885 0.0839704
0.402441 0.133455 0.0889143
0.427665 0.137636 0.0942855
0.451728 0.143954 0.100969
0.478187 0.151095 0.108614
0.503471 0.158938 0.116716
0.528572 0.169909 0.127016
0.552865 0.182666 0.139208
0.576043 0.196094 0.150896
0.599588 0.21265 0.164874
0.621942 0.232013 0.179461
0.645228 0.250813 0.193805
0.0602121 0.101991 0.0540322
0.0758373 0.104906 0.0548867
0.0814374 0.105028 0.0550088
0.0873426 0.105867 0.055024
0.0937819 0.10753 0.0551614
0.0997482 0.108537 0.0536355
0.107774 0.110399 0.0526741
0.117174 0.11191 0.0522469
0.127886 0.111864 0.0515297
0.138628 0.11429 0.0500343
0.150622 0.116167 0.0506294
0.164309 0.11754 0.0540169
0.181613 0.119753 0.0576486
0.199176 0.121492 0.0596933
0.218647 0.12343 0.0610056
0.240589 0.125887 0.0630961
0.264103 0.127962 0.0673686
0.28777 0.129412 0.0708476
0.310613 0.132479 0.0754253
0.334295 0.135714 0.0801251
0.35874 0.138933 0.0842298
0.382788 0.142885 0.0898756
0.40705 0.146471 0.0947585
0.431739 0.150866 0.100008
0.457572 0.157397 0.107103
0.482795 0.164889 0.115251
0.509087 0.174838 0.12491
0.534005 0.185412 0.134798
0.558206 0.197131 0.145647
0.582727 0.21268 0.158785
0.606943 0.231434 0.174228
0.630198 0.251194 0.188708
0.655436 0.271214 0.203342
0.0707103 0.117037 0.0630961
0.0842451 0.119112 0.0621653
0.0893721 0.119509 0.0622568
0.0947433 0.119814 0.0625162
0.10071 0.121584 0.0618448
0.1075 0.1234 0.061677
0.114977 0.123613 0.0623178
0.124117 0.125399 0.0618906
0.133654 0.127214 0.0607156
0.144503 0.128298 0.059205
0.156695 0.129839 0.0593271
0.171527 0.132021 0.0611124
0.187213 0.133974 0.0633707
0.205707 0.136034 0.0647746
0.225528 0.137972 0.0665599
0.24799 0.140078 0.0695354
0.270405 0.142016 0.0731823
0.293339 0.144625 0.0777752
0.315618 0.14725 0.0825818
0.340536 0.150103 0.0855421
0.364218 0.153414 0.0899367
0.388785 0.157321 0.0967422
0.413336 0.16141 0.101839
0.437766 0.166583 0.108186
0.464057 0.172824 0.115648
0.489204 0.181399 0.124453
0.515389 0.192004 0.134096
0.541711 0.204379 0.144213
0.566445 0.217227 0.1561
0.591974 0.234058 0.170596
0.616098 0.252552 0.184451
0.640162 0.272374 0.199161
0.667201 0.293812 0.214084
0.0790875 0.134813 0.0703746
0.0921492 0.135912 0.0703288
0.0970779 0.136202 0.0705577
0.102846 0.13724 0.070573
0.10927 0.138537 0.070634
0.116167 0.139086 0.0719615
0.123415 0.140002 0.0727398
0.131456 0.141497 0.0729076
0.140948 0.143114 0.0722362
0.151797 0.144869 0.0716106
0.164355 0.14641 0.0710918
0.179217 0.147402 0.0696422
0.195651 0.149371 0.0701152
0.213855 0.15169 0.0725261
0.234684 0.154238 0.0752728
0.25568 0.156359 0.078233
0.278157 0.158465 0.0817273
0.300557 0.160327 0.0853132
0.323964 0.162341 0.0884565
0.347234 0.165072 0.0919661
0.37142 0.168551 0.0977493
0.396185 0.172717 0.104417
0.421149 0.178683 0.111299
0.44654 0.185046 0.118441
0.471382 0.192966 0.126131
0.498436 0.201694 0.135286
0.524758 0.212436 0.144137
0.551492 0.226169 0.15581
0.577188 0.240787 0.171008
0.602594 0.25803 0.183551
0.627939 0.276875 0.197589
0.654032 0.296666 0.211276
0.680735 0.31873 0.225742
0.0895705 0.153429 0.080827
0.102296 0.154269 0.0815595
0.107179 0.154665 0.0815747
0.112428 0.155077 0.0816663
0.118379 0.155734 0.0826429
0.125017 0.156756 0.0838636
0.132357 0.158022 0.0844739
0.140688 0.159167 0.0841382
0.150393 0.160784 0.0831617
0.160647 0.16199 0.0831464
0.172656 0.16376 0.0830549
0.186938 0.166155 0.0817884
0.203204 0.168139 0.0819715
0.221729 0.170397 0.0834058
0.242832 0.171984 0.0860914
0.264942 0.174075 0.0890059
0.28629 0.176654 0.0914015
0.308934 0.178988 0.0943465
0.331746 0.181308 0.097734
0.355657 0.183963 0.100938
0.380911 0.187716 0.108568
0.406027 0.192721 0.116396
0.43064 0.198306 0.121889
0.45568 0.206836 0.129534
0.481666 0.214908 0.13756
0.509621 0.22472 0.147127
0.536492 0.237858 0.159274
0.563256 0.252033 0.172747
0.589303 0.266697 0.185
0.615366 0.284016 0.197986
0.642496 0.303334 0.211872
0.669535 0.324392 0.225605
0.696376 0.346777 0.240848
0.101244 0.174304 0.0922255
0.112856 0.175616 0.0925917
0.117525 0.176257 0.0933547
0.123018 0.176669 0.0938582
0.129015 0.177249 0.0944381
0.135302 0.17789 0.0945754
0.142519 0.179049 0.0948653
0.151171 0.180591 0.095079
0.160464 0.181613 0.0959487
0.170947 0.183047 0.0979477
0.183246 0.185519 0.0977035
0.197543 0.188464 0.0972
0.215335 0.190234 0.0963149
0.234501 0.19115 0.0973831
0.254734 0.192233 0.100282
0.27451 0.196109 0.102785
0.296559 0.199542 0.105653
0.319295 0.201663 0.108125
0.342992 0.204501 0.11162
0.366613 0.207385 0.115908
0.391394 0.212131 0.122896
0.416724 0.217548 0.128923
0.441855 0.224231 0.13431
0.467353 0.231357 0.14255
0.494835 0.241367 0.152621
0.52192 0.252567 0.16376
0.550317 0.267979 0.178561
0.576654 0.282139 0.190372
0.603845 0.297612 0.201831
0.632273 0.314961 0.216617
0.658961 0.333516 0.227741
0.687495 0.355291 0.243519
0.713436 0.37705 0.256855
0.113802 0.200931 0.103746
0.12575 0.202441 0.104692
0.129824 0.20238 0.105211
0.134569 0.203037 0.106035
0.140459 0.202976 0.106096
0.146715 0.20293 0.10631
0.154376 0.203784 0.107118
0.162936 0.20499 0.108476
0.172564 0.206714 0.110491
0.183291 0.208225 0.111727
0.196155 0.210285 0.113176
0.211231 0.21297 0.112779
0.227436 0.216373 0.112215
0.245762 0.217288 0.113954
0.265202 0.218769 0.115938
0.287755 0.222049 0.119265
0.309499 0.225055 0.121096
0.332418 0.228733 0.123781
0.356268 0.231601 0.128298
0.379629 0.235309 0.133394
0.405463 0.240604 0.140612
0.430243 0.247013 0.146059
0.456519 0.254704 0.153353
0.483253 0.263172 0.161837
0.509682 0.274586 0.173556
0.536385 0.286702 0.185885
0.565026 0.300649 0.199313
0.59202 0.314168 0.207904
0.620356 0.330373 0.220462
0.650416 0.349676 0.236301
0.678248 0.368307 0.247211
0.705486 0.388403 0.261799
0.731517 0.409873 0.274037
0.128161 0.230289 0.115602
0.137316 0.232456 0.117647
0.14168 0.232624 0.118334
0.147021 0.231708 0.11873
0.153063 0.231266 0.119326
0.16025 0.231998 0.120119
0.167773 0.232853 0.121019
0.176165 0.234318 0.122377
0.185885 0.236393 0.124315
0.198505 0.237766 0.12726
0.211704 0.239414 0.129244
0.226673 0.242863 0.130617
0.242908 0.245106 0.131884
0.260212 0.247105 0.13312
0.280858 0.250141 0.133547
0.301793 0.252399 0.133837
0.324422 0.255787 0.138323
0.346807 0.258762 0.14229
0.368734 0.261555 0.145495
0.395666 0.267506 0.152956
0.420691 0.273503 0.159564
0.446204 0.281224 0.16701
0.472328 0.289097 0.174746
0.49958 0.29868 0.183795
0.526848 0.309422 0.194705
0.554955 0.321828 0.205814
0.583261 0.334691 0.216648
0.611765 0.349859 0.22826
0.641871 0.367361 0.243458
0.671366 0.386465 0.257145
0.698314 0.404639 0.268482
0.725063 0.423697 0.281575
0.751919 0.445518 0.293599
0.143557 0.265019 0.132799
0.153872 0.264286 0.133883
0.158358 0.264485 0.134661
0.163561 0.264759 0.135378
0.16965 0.265141 0.135927
0.176104 0.265476 0.136507
0.183658 0.26688 0.137926
0.191653 0.268421 0.139467
0.202976 0.269139 0.141451
0.215442 0.270497 0.143923
0.229587 0.272877 0.146899
0.24387 0.274815 0.149355
0.260243 0.277989 0.150973
0.278248 0.281071 0.152438
0.297551 0.283833 0.153307
0.319051 0.287205 0.156161
0.340719 0.290562 0.159442
0.3635 0.294438 0.163302
0.387488 0.299519 0.168261
0.410727 0.30428 0.174105
0.436332 0.311101 0.181857
0.463188 0.318791 0.190005
0.49044 0.327581 0.197879
0.518212 0.336858 0.207034
0.546563 0.347616 0.217777
0.576059 0.360433 0.229526
0.606073 0.37435 0.241718
0.635767 0.389425 0.25333
0.665461 0.407172 0.266789
0.692638 0.424109 0.279011
0.720058 0.442847 0.290974
0.746609 0.461799 0.302388
0.772107 0.48191 0.315969
0.160662 0.301122 0.149065
0.172244 0.301198 0.151064
0.176928 0.30193 0.152239
0.182116 0.303044 0.153719
0.1879 0.304097 0.155215
0.194324 0.304036 0.156146
0.200916 0.30367 0.156939
0.210575 0.304417 0.158145
0.221439 0.305791 0.159701
0.234394 0.307485 0.1626
0.247562 0.308705 0.165576
0.263508 0.311269 0.168551
0.280079 0.314 0.171603
0.297673 0.317311 0.173785
0.316747 0.321126 0.176303
0.337438 0.324529 0.178668
0.359915 0.328847 0.181872
0.383505 0.333379 0.185443
0.406516 0.338445 0.191211
0.430945 0.344961 0.199008
0.456886 0.35137 0.205768
0.483375 0.35935 0.214191
0.511833 0.368658 0.224903
0.53959 0.377829 0.233127
0.569253 0.389273 0.242557
0.599176 0.401953 0.255375
0.629587 0.417121 0.268254
0.658839 0.432059 0.280354
0.689052 0.448386 0.29337
0.71603 0.465782 0.305089
0.742153 0.483421 0.316197
0.767849 0.501869 0.327962
0.79321 0.52079 0.340215
0.181979 0.340871 0.169192
0.191959 0.341543 0.170886
0.195773 0.34168 0.171481
0.201068 0.34165 0.172412
0.207141 0.341238 0.173388
0.214176 0.341253 0.174762
0.222995 0.342794 0.176349
0.232456 0.344503 0.178012
0.242969 0.345541 0.180041
0.255116 0.347219 0.182895
0.269169 0.348837 0.186038
0.284428 0.349477 0.18909
0.302129 0.352163 0.193164
0.321355 0.356146 0.197726
0.340658 0.360311 0.200595
0.360723 0.365438 0.203861
0.382666 0.369802 0.207477
0.404685 0.374075 0.211276
0.428779 0.380346 0.218112
0.452903 0.386679 0.22443
0.479744 0.394339 0.231327
0.507271 0.40296 0.240253
0.533974 0.41091 0.249104
0.563439 0.421836 0.259174
0.593164 0.433234 0.269764
0.624414 0.447257 0.281209
0.652293 0.460395 0.293111
0.682261 0.475608 0.306584
0.710994 0.491203 0.319417
0.739712 0.50898 0.33196
0.762829 0.523812 0.342809
0.787015 0.541466 0.353353
0.811139 0.558038 0.36141
0.203418 0.383154 0.191424
0.213413 0.382498 0.192218
0.218372 0.382986 0.19321
0.224155 0.383383 0.194278
0.230732 0.384131 0.195651
0.238148 0.38468 0.197101
0.246555 0.385733 0.199008
0.256611 0.38677 0.20119
0.26772 0.387671 0.20351
0.28043 0.3888 0.206424
0.294362 0.390341 0.209842
0.310109 0.392874 0.213993
0.328435 0.396094 0.218936
0.346151 0.398505 0.223301
0.365332 0.401862 0.228321
0.385641 0.406683 0.233097
0.406287 0.411948 0.236027
0.428763 0.418112 0.24062
0.451911 0.423545 0.245136
0.478157 0.431128 0.251652
0.50576 0.439002 0.259007
0.532036 0.446845 0.266529
0.560433 0.456748 0.275425
0.588785 0.467521 0.285801
0.618723 0.480171 0.297459
0.649104 0.492882 0.309483
0.678935 0.506249 0.321706
0.705745 0.520134 0.333425
0.732631 0.534691 0.345159
0.759014 0.549325 0.356634
0.782452 0.56347 0.367102
0.805997 0.57966 0.375433
0.829114 0.594369 0.379309
0.228107 0.425132 0.214099
0.239612 0.426307 0.216464
0.243839 0.426535 0.217258
0.2495 0.42623 0.218158
0.256153 0.426673 0.219608
0.263493 0.427253 0.221241
0.273228 0.428138 0.223636
0.283558 0.428809 0.226017
0.295399 0.429877 0.228824
0.308873 0.431998 0.232471
0.323186 0.43418 0.236332
0.338521 0.436042 0.24007
0.355276 0.438712 0.244465
0.373098 0.442878 0.2495
0.391089 0.446403 0.254078
0.411536 0.451057 0.259144
0.432639 0.455817 0.264546
0.455879 0.462165 0.269093
0.47985 0.469108 0.274342
0.504967 0.476677 0.280262
0.530755 0.484321 0.285924
0.559075 0.493767 0.293233
0.586938 0.504295 0.303151
0.616419 0.515572 0.313817
0.645914 0.527001 0.325353
0.674128 0.538659 0.337011
0.702739 0.551812 0.34992
0.728298 0.565194 0.360891
0.754147 0.578332 0.370977
0.778241 0.589899 0.379522
0.802136 0.60264 0.388128
0.824384 0.615961 0.394095
0.846494 0.63006 0.397101
0.255787 0.469093 0.239841
0.26688 0.469673 0.242039
0.271489 0.469947 0.243046
0.276585 0.470192 0.24419
0.283253 0.470512 0.245563
0.291417 0.470985 0.247211
0.300832 0.472099 0.249378
0.312001 0.473442 0.25214
0.325124 0.475288 0.255818
0.337987 0.476677 0.259205
0.35256 0.479042 0.262501
0.367559 0.481758 0.266087
0.384619 0.485527 0.270573
0.401755 0.489006 0.274983
0.421073 0.493797 0.280613
0.441672 0.498573 0.286564
0.462669 0.503563 0.291814
0.485328 0.509819 0.297963
0.50869 0.51722 0.303761
0.532021 0.524422 0.309346
0.558556 0.533883 0.316289
0.58584 0.542779 0.323354
0.615808 0.553048 0.332662
0.643534 0.563027 0.342061
0.67068 0.572595 0.351354
0.698299 0.584344 0.363241
0.7243 0.59556 0.373434
0.750561 0.607309 0.383291
0.774609 0.617914 0.389471
0.798611 0.629496 0.396994
0.821759 0.641032 0.403464
0.844617 0.653803 0.40914
0.865904 0.666346 0.413809
0.28426 0.515816 0.267842
0.294469 0.515984 0.269108
0.299611 0.516243 0.269856
0.306218 0.516976 0.271031
0.313787 0.517418 0.272206
0.322011 0.518532 0.273793
0.33225 0.519905 0.27628
0.343114 0.520699 0.27863
0.355566 0.522438 0.281621
0.368765 0.525002 0.285161
0.382788 0.52781 0.288991
0.39794 0.530236 0.292653
0.415045 0.533898 0.297292
0.433265 0.538094 0.302464
0.45214 0.542107 0.30782
0.472038 0.546944 0.313664
0.49337 0.552926 0.319905
0.514458 0.558816 0.325856
0.537346 0.56527 0.332616
0.561654 0.573022 0.339132
0.586694 0.581338 0.345022
0.612741 0.589944 0.352026
0.639231 0.598962 0.359854
0.665904 0.607874 0.369345
0.693248 0.618189 0.377859
0.720851 0.627878 0.383673
0.747143 0.637644 0.392569
0.771496 0.646952 0.399329
0.795254 0.657343 0.405859
0.818128 0.667689 0.413123
0.840009 0.678645 0.417395
0.860502 0.688777 0.423072
0.881102 0.699443 0.427176
0.312718 0.562448 0.293324
0.325658 0.56376 0.295689
0.331029 0.564538 0.296803
0.33669 0.565118 0.297856
0.343908 0.565393 0.299107
0.35285 0.566506 0.301213
0.362539 0.567819 0.303593
0.373388 0.569345 0.306249
0.38587 0.571694 0.309071
0.398215 0.573373 0.311513
0.413214 0.576349 0.315496
0.429557 0.579675 0.320272
0.446403 0.583078 0.325139
0.463981 0.586435 0.330282
0.482734 0.590616 0.335958
0.502724 0.596063 0.341512
0.522469 0.600717 0.346944
0.544182 0.606302 0.354101
0.566644 0.612467 0.361212
0.589044 0.619715 0.366949
0.613657 0.627619 0.373358
0.639124 0.635798 0.379568
0.663859 0.643687 0.385519
0.689235 0.652689 0.391882
0.715846 0.661143 0.397971
0.742611 0.670497 0.404593
0.768307 0.680003 0.410544
0.790707 0.687861 0.415915
0.814252 0.696361 0.421469
0.836667 0.705547 0.426734
0.854749 0.713802 0.431342
0.87483 0.723232 0.435691
0.893492 0.73106 0.43798
0.34342 0.608194 0.319585
0.355291 0.609415 0.321935
0.361059 0.61059 0.323308
0.367697 0.611856 0.324865
0.375189 0.613397 0.326635
0.383413 0.614801 0.328435
0.393271 0.616068 0.330571
0.404852 0.617975 0.333394
0.417792 0.619913 0.3364
0.431144 0.622278 0.339956
0.445167 0.624918 0.343847
0.459358 0.627008 0.347433
0.476509 0.630808 0.352361
0.49424 0.634943 0.357275
0.512413 0.638758 0.362768
0.531823 0.643137 0.368811
0.552193 0.647929 0.374884
0.572717 0.652628 0.380926
0.594064 0.658717 0.386984
0.616709 0.665461 0.393118
0.639429 0.671962 0.397375
0.664134 0.6795 0.402274
0.688685 0.687587 0.407309
0.713207 0.694926 0.412192
0.739162 0.70338 0.417594
0.763104 0.710994 0.422766
0.786374 0.719097 0.42771
0.808942 0.725658 0.430869
0.830823 0.7346 0.43563
0.850248 0.741527 0.441123
0.869718 0.74905 0.444511
0.888014 0.755459 0.446479
0.905684 0.761669 0.448142
0.372808 0.653727 0.347723
0.386465 0.655268 0.350118
0.391806 0.656001 0.351186
0.398413 0.656764 0.352392
0.406012 0.657969 0.354055
0.415122 0.659312 0.356023
0.424796 0.661036 0.358236
0.435492 0.662623 0.360494
0.447135 0.664149 0.36347
0.460197 0.666545 0.367239
0.474342 0.669337 0.371252
0.489586 0.672694 0.375113
0.504906 0.675685 0.378714
0.521737 0.679194 0.382879
0.539132 0.682902 0.386877
0.557458 0.686824 0.39144
0.577417 0.691356 0.397055
0.598611 0.697139 0.40238
0.620249 0.703899 0.406607
0.642023 0.709575 0.411383
0.665705 0.716182 0.417502
0.688548 0.722774 0.422492
0.711254 0.729397 0.426886
0.735576 0.736278 0.430991
0.75877 0.742687 0.434836
0.781064 0.75024 0.438392
0.802319 0.756237 0.441718
0.823865 0.762646 0.445792
0.844083 0.768292 0.449149
0.863279 0.775143 0.451896
0.880705 0.781826 0.452857
0.90042 0.786419 0.455161
0.915419 0.78999 0.457572
0.403815 0.695476 0.375448
0.417288 0.697337 0.377707
0.422553 0.698238 0.378759
0.428351 0.69865 0.379477
0.435004 0.699596 0.380713
0.442969 0.700771 0.382147
0.452415 0.702663 0.384298
0.463554 0.705257 0.387015
0.475685 0.708064 0.389883
0.487678 0.710216 0.39234
0.500801 0.713085 0.395621
0.514809 0.716152 0.3991
0.530404 0.719356 0.402487
0.547158 0.722515 0.405829
0.564614 0.725856 0.408988
0.583566 0.730831 0.412238
0.603052 0.735866 0.415747
0.621286 0.740246 0.420218
0.641337 0.745525 0.425254
0.663371 0.7514 0.429664
0.685206 0.756771 0.434119
0.708034 0.762631 0.43917
0.730983 0.767803 0.443473
0.75378 0.773373 0.447333
0.775433 0.779507 0.450019
0.796185 0.785 0.452323
0.817472 0.790646 0.454978
0.836362 0.795499 0.457954
0.855467 0.801175 0.460136
0.873228 0.805753 0.46099
0.890257 0.809537 0.462654
0.907225 0.813764 0.464256
0.922026 0.816236 0.464591
0.430686 0.734829 0.401419
0.44358 0.737057 0.403311
0.448859 0.737865 0.403983
0.454871 0.73875 0.40473
0.461967 0.740398 0.405859
0.47013 0.742092 0.406882
0.478874 0.744152 0.408118
0.488731 0.746654 0.409689
0.500175 0.749004 0.411749
0.512276 0.751446 0.41416
0.524788 0.753796 0.416419
0.538842 0.756161 0.418921
0.554437 0.759106 0.421927
0.570397 0.762341 0.424979
0.587091 0.766201 0.428077
0.604883 0.770657 0.431724
0.623011 0.775021 0.434928
0.641794 0.779736 0.437888
0.661814 0.783978 0.441993
0.683192 0.788952 0.447227
0.703868 0.793713 0.45124
0.724788 0.797986 0.454536
0.747234 0.802518 0.457893
0.768399 0.80705 0.460822
0.789059 0.812467 0.463722
0.809171 0.817304 0.464591
0.828809 0.821836 0.465904
0.848203 0.826871 0.469657
0.866453 0.83032 0.469856
0.883375 0.833509 0.470649
0.899809 0.837079 0.472389
0.917006 0.840055 0.471946
0.932555 0.842252 0.472511
0.454383 0.771557 0.423774
0.466651 0.77406 0.425162
0.472023 0.775219 0.425879
0.478218 0.776593 0.426734
0.484977 0.77818 0.427771
0.493065 0.779919 0.428855
0.501167 0.78114 0.429725
0.510933 0.782925 0.431098
0.521904 0.784802 0.432486
0.533257 0.786923 0.434073
0.546181 0.789364 0.436072
0.55967 0.791562 0.437842
0.574151 0.794736 0.440085
0.589654 0.79826 0.442557
0.605982 0.801984 0.445106
0.622553 0.805539 0.447578
0.640482 0.809857 0.450706
0.659663 0.814282 0.454658
0.679454 0.818357 0.458366
0.699382 0.8224 0.46157
0.719844 0.826413 0.464714
0.740124 0.83035 0.467918
0.761547 0.834852 0.471412
0.781552 0.838972 0.473838
0.801068 0.84268 0.475486
0.820432 0.846342 0.476799
0.838849 0.850172 0.47892
0.857481 0.853758 0.4804
0.875273 0.856016 0.480354
0.891493 0.859083 0.480919
0.907485 0.861418 0.481315
0.924865 0.863661 0.480537
0.935363 0.863203 0.478599
0.475563 0.805249 0.445869
0.487861 0.807431 0.447517
0.493065 0.808316 0.448188
0.49865 0.809415 0.449119
0.505516 0.810529 0.449851
0.513298 0.811826 0.450492
0.521523 0.813275 0.451179
0.530404 0.814527 0.451484
0.54078 0.816648 0.452873
0.551919 0.819104 0.454902
0.56379 0.821668 0.457053
0.57702 0.824338 0.458869
0.59115 0.826932 0.460288
0.606424 0.829969 0.462257
0.622248 0.833387 0.464912
0.638407 0.836576 0.467384
0.655589 0.840436 0.469902
0.674205 0.84509 0.47216
0.69308 0.84918 0.474235
0.712337 0.852125 0.476448
0.732311 0.855619 0.478889
0.752361 0.85951 0.480858
0.77174 0.862821 0.483116
0.791699 0.865843 0.485695
