app/src/main/assets/luts/eterna.cube
TITLE "Generated by Resolve"
LUT_3D_SIZE 5
0.00585946 0.00585946 0.00585946
0.167285 0.0207065 0.0251621
0.345586 0.0662089 0.0446479
0.613901 0.122789 0.0747845
0.898512 0.194354 0.104372
0.0851453 0.210361 0.0347753
0.213718 0.21387 0.0188296
0.384771 0.228305 0.0237736
0.616175 0.260517 0.0514076
0.899275 0.320043 0.0836652
0.183291 0.444694 0.0918898
0.28481 0.442695 0.0848707
0.449378 0.447929 0.0753033
0.660014 0.472801 0.040177
0.917922 0.515755 0.0644999
0.285939 0.753368 0.160601
0.378759 0.749508 0.157641
0.529458 0.746365 0.158984
0.716167 0.747921 0.144579
0.92604 0.749874 0.0564279
0.282643 0.999924 0.295689
0.331121 0.999496 0.299458
0.420584 0.999725 0.308858
0.566354 0.999695 0.335317
0.894179 0.999329 0.308598
0.0126345 0.0246586 0.146517
0.203784 0.0527199 0.184314
0.419333 0.0919661 0.215518
0.665339 0.141207 0.229404
0.926131 0.206867 0.177707
0.0688945 0.242771 0.239445
0.238361 0.239628 0.238178
0.427802 0.248966 0.240131
0.661494 0.278325 0.244556
0.923796 0.329519 0.197681
0.181292 0.474601 0.283436
0.298314 0.46862 0.27834
0.475807 0.469017 0.273625
0.68925 0.484169 0.265553
0.932265 0.517983 0.212192
0.278035 0.753933 0.339086
0.377691 0.749508 0.332723
0.536965 0.744549 0.325734
0.728099 0.744259 0.307805
0.935073 0.741039 0.230304
0.260166 0.997238 0.373266
0.319783 0.99704 0.380041
0.41886 0.998856 0.389624
0.567193 0.999893 0.402853
0.907408 0.999893 0.36112
0.0294804 0.0698253 0.26891
0.242573 0.096437 0.340352
0.487846 0.132082 0.408988
0.724147 0.177234 0.438117
0.951904 0.233494 0.430198
0.0511025 0.293004 0.461524
0.260365 0.285771 0.459831
0.476097 0.292409 0.461494
0.712703 0.314931 0.466148
0.944411 0.355108 0.437705
0.163912 0.521843 0.517266
0.307332 0.511803 0.51136
0.504509 0.506004 0.504494
0.71986 0.512428 0.491859
0.946197 0.528649 0.441459
0.250858 0.759884 0.543816
0.364752 0.754665 0.541131
0.539345 0.748699 0.536217
0.74345 0.744854 0.51899
0.947616 0.733074 0.437613
0.198032 0.993561 0.480629
0.273548 0.994079 0.482368
0.395178 0.99559 0.490318
0.56997 0.997269 0.504814
0.934264 0.999802 0.446174
0.0484321 0.138323 0.51165
0.296452 0.171572 0.626307
0.564095 0.20705 0.701122
0.792599 0.244526 0.729671
0.966049 0.287556 0.716976
0.0512398 0.388952 0.724834
0.260975 0.377859 0.73106
0.524117 0.373404 0.745022
0.762005 0.385214 0.747158
0.962036 0.404074 0.72224
0.0603189 0.587564 0.743023
0.272175 0.576837 0.752102
0.513848 0.566293 0.755474
0.750866 0.560113 0.75285
0.960571 0.556359 0.716518
0.127779 0.774395 0.739528
0.300633 0.76849 0.748867
0.515053 0.762707 0.755581
0.751766 0.754192 0.752422
0.961227 0.727474 0.687617
0.0834058 0.987671 0.623117
0.125689 0.988602 0.615518
0.313054 0.989487 0.622827
0.544472 0.992126 0.630198
0.964691 0.999725 0.567819
0.0649424 0.391135 0.96202
0.0987259 0.427192 0.961395
0.508385 0.443503 0.999847
0.786465 0.459785 0.999146
0.977981 0.456901 0.999603
0.0668803 0.551675 0.935347
0.0664683 0.549416 0.936294
0.312047 0.549859 0.966934
0.691752 0.553368 0.999588
0.965805 0.533471 0.999649
0.0677195 0.644724 0.919234
0.0663005 0.643275 0.921065
0.141222 0.639353 0.928084
0.600504 0.642969 0.984146
0.945129 0.621759 0.999802
0.0736248 0.739544 0.896956
0.0729686 0.737331 0.897505
0.0740368 0.733013 0.898421
0.496696 0.731395 0.952926
0.940688 0.724498 0.999619
0.0967422 0.946624 0.858274
0.0966812 0.949706 0.856992
0.0985885 0.957641 0.856413
0.109773 0.975418 0.854475
0.994141 0.996536 0.995178
