app/src/main/assets/luts/eterna.cube
TITLE "Generated by Resolve"
LUT_3D_SIZE 33
0.00585946 0.00585946 0.00585946
0.0535744 0.0074464 0.0112001
0.0685893 0.00680552 0.0136873
0.0855726 0.00819409 0.0167544
0.102068 0.0107271 0.0185245
0.116716 0.0125124 0.0202945
0.133227 0.0144045 0.0218967
0.150698 0.0176089 0.0242161
0.167285 0.0207065 0.0251621
0.185443 0.0247501 0.0278019
0.203555 0.0300908 0.0298466
0.221805 0.0368505 0.0309758
0.244007 0.0430762 0.0334783
0.266926 0.0488136 0.0361028
0.290791 0.054551 0.0388952
0.317357 0.0605478 0.0415351
0.345586 0.0662089 0.0446479
0.378698 0.07364 0.0481422
0.412894 0.0811475 0.0514534
0.447883 0.0881819 0.055314
0.484306 0.0942397 0.0600443
0.51928 0.100084 0.0641337
0.55079 0.107362 0.0677195
0.582574 0.1149 0.0714427
0.613901 0.122789 0.0747845
0.645975 0.129351 0.0780652
0.678325 0.138567 0.0809949
0.711864 0.147417 0.0840009
0.747158 0.156435 0.0882887
0.782238 0.165026 0.0922255
0.819562 0.175357 0.0965591
0.857893 0.184298 0.101015
0.898512 0.194354 0.104372
0.0154421 0.0607767 0.00611887
0.0678416 0.0649424 0.00808728
0.0843977 0.0662394 0.00972
0.0984512 0.0678416 0.0112001
0.114733 0.0708934 0.0104982
0.132174 0.0719463 0.0129397
0.147509 0.0758221 0.0144045
0.164172 0.0785687 0.0158541
0.180819 0.0813153 0.0179599
0.199207 0.085359 0.0203861
0.217868 0.0896925 0.0223545
0.237675 0.0923018 0.0246586
0.260395 0.0953841 0.0272374
0.282902 0.0985122 0.0300298
0.30811 0.10164 0.0334173
0.336736 0.105562 0.037232
0.367178 0.110689 0.0401312
0.397498 0.114763 0.0436561
0.427619 0.118837 0.0473945
0.455222 0.1243 0.0516213
0.486809 0.130877 0.0545663
0.517327 0.137606 0.057557
0.547951 0.144732 0.0609293
0.579812 0.150393 0.06421
0.612039 0.15697 0.0683757
0.643885 0.163622 0.0723583
0.67657 0.169467 0.0758831
0.709346 0.17673 0.0799268
0.743633 0.184207 0.0841077
0.781186 0.192966 0.0884718
0.817197 0.201907 0.0906081
0.857343 0.211109 0.0954604
0.896864 0.220432 0.0999466
0.0203098 0.0843366 0.00910964
0.0732433 0.0878004 0.0102998
0.0876478 0.090013 0.00891127
0.10277 0.091783 0.00857557
0.119341 0.0932174 0.00978103
0.135592 0.0944839 0.0110475
0.151492 0.0962997 0.0131991
0.168475 0.0983139 0.0129702
0.18468 0.0988479 0.0152743
0.203433 0.101213 0.0170443
0.22298 0.103685 0.0200198
0.243015 0.10695 0.0233616
0.264897 0.110155 0.0255894
0.287938 0.113222 0.0282139
0.313695 0.11632 0.0314336
0.341695 0.119982 0.0344854
0.370687 0.124712 0.0380407
0.399252 0.128801 0.0413977
0.427329 0.133471 0.0454719
0.455467 0.139559 0.0497749
0.486686 0.144549 0.0522621
0.517021 0.150362 0.0555734
0.54815 0.155947 0.0590219
0.578805 0.162036 0.0623178
0.611521 0.168322 0.0666209
0.643046 0.17438 0.0704356
0.676219 0.180423 0.0738231
0.708934 0.187243 0.0779889
0.74403 0.194888 0.0823377
0.780209 0.203143 0.0860456
0.816968 0.211597 0.0885328
0.857191 0.221103 0.0938582
0.896757 0.230793 0.0981308
0.0301518 0.102907 0.0153506
0.0809033 0.105669 0.0129702
0.09337 0.106676 0.011841
0.110811 0.107408 0.0135958
0.126055 0.109178 0.010956
0.140139 0.11162 0.0119936
0.156451 0.113817 0.0120241
0.173236 0.114641 0.0113069
0.189548 0.114595 0.0142214
0.206378 0.117296 0.0158236
0.22591 0.121111 0.0178378
0.247547 0.123949 0.0204623
0.269947 0.125963 0.0236057
0.293111 0.128985 0.026566
0.31931 0.132174 0.0300908
0.345556 0.135943 0.0329747
0.370321 0.141054 0.0345159
0.399695 0.14464 0.0392004
0.427207 0.149264 0.0429847
0.455894 0.153948 0.0459602
0.486397 0.158724 0.0497902
0.517296 0.163577 0.0535744
0.54725 0.168368 0.0571145
0.57847 0.174044 0.0609445
0.610132 0.180285 0.0648661
0.643122 0.186542 0.0684062
0.674907 0.193011 0.0715648
0.708858 0.198947 0.0758679
0.743618 0.206058 0.0799878
0.779126 0.214511 0.0834211
0.816434 0.222736 0.0873274
0.85626 0.232898 0.0920119
0.897047 0.242573 0.0960555
0.0388952 0.123659 0.0184482
0.0898756 0.125719 0.0191806
0.101152 0.127245 0.0162814
0.114046 0.128374 0.0131991
0.129259 0.129564 0.0119936
0.145983 0.130694 0.014023
0.160815 0.132113 0.0121462
0.177218 0.133135 0.0121462
0.194415 0.135195 0.0126497
0.212451 0.137316 0.0133364
0.231785 0.138994 0.0152743
0.252247 0.141299 0.0181735
0.274403 0.143404 0.0212711
0.29839 0.146044 0.0241245
0.320943 0.149676 0.0271305
0.345525 0.153353 0.0295567
0.371603 0.157351 0.0325933
0.400305 0.160449 0.0372778
0.428 0.164202 0.0403143
0.457176 0.168902 0.0439002
0.485863 0.172961 0.0476387
0.51725 0.177295 0.0514076
0.548104 0.182422 0.0548409
0.578317 0.18793 0.0584878
0.61033 0.193866 0.0620279
0.642634 0.200305 0.0653391
0.674937 0.206561 0.0695354
0.708812 0.212192 0.0733806
0.744411 0.21976 0.0773022
0.779629 0.227161 0.0813153
0.816144 0.23566 0.0858015
0.855909 0.246509 0.0899214
0.897902 0.255879 0.0941482
0.0516213 0.143755 0.0239261
0.0953994 0.146151 0.0204623
0.108263 0.147127 0.0191806
0.121233 0.147478 0.0176089
0.136294 0.14873 0.0167697
0.150912 0.149905 0.0148318
0.165881 0.151202 0.0124971
0.182239 0.151873 0.0117952
0.19939 0.153613 0.0111238
0.217548 0.155383 0.0113985
0.237644 0.15761 0.0136721
0.257008 0.159121 0.0162203
0.279042 0.161563 0.0185092
0.300435 0.164309 0.0209812
0.322042 0.167514 0.0239414
0.347997 0.170443 0.0273594
0.374578 0.172625 0.0312047
0.401404 0.174929 0.0350652
0.430396 0.179904 0.038529
0.458351 0.184421 0.0415808
0.487587 0.188312 0.0452583
0.517891 0.192721 0.0485237
0.548165 0.197482 0.0521401
0.579538 0.202564 0.0560769
0.610361 0.208545 0.0593271
0.643076 0.214862 0.0634012
0.674968 0.220935 0.0673686
0.709529 0.227329 0.0710155
0.74519 0.233982 0.0751659
0.78024 0.24181 0.0793774
0.8168 0.251392 0.0834363
0.856153 0.261875 0.088014
0.897276 0.269535 0.0915847
0.0610666 0.16643 0.0288396
0.101076 0.167285 0.0238956
0.114214 0.167315 0.0232242
0.127642 0.167803 0.0212558
0.142077 0.168948 0.0186618
0.155688 0.169879 0.0143893
0.170993 0.170748 0.0114595
0.186755 0.17142 0.00927749
0.203433 0.172488 0.00730907
0.221759 0.17438 0.009308
0.24065 0.17615 0.0111849
0.260365 0.177722 0.0138247
0.281743 0.179797 0.0163424
0.302937 0.182208 0.0187991
0.325933 0.184909 0.0220188
0.350607 0.187716 0.0251926
0.37734 0.190265 0.0290379
0.404715 0.192538 0.0329137
0.432486 0.196994 0.0348058
0.460273 0.201083 0.0386664
0.489128 0.205264 0.0424353
0.519295 0.209567 0.046067
0.549569 0.213703 0.0497139
0.580377 0.218143 0.0530709
0.611963 0.223896 0.0575265
0.642939 0.230198 0.0610666
0.676951 0.236759 0.0648966
0.710704 0.242679 0.0691081
0.745663 0.249699 0.0731365
0.781567 0.258412 0.0772869
0.818158 0.267567 0.0811627
0.857374 0.276265 0.0854963
0.898054 0.28484 0.0890059
0.0735637 0.186755 0.0340276
0.110018 0.1879 0.0272068
0.122316 0.188296 0.0256046
0.134844 0.188769 0.0233921
0.147646 0.189868 0.0194095
0.161395 0.190951 0.016434
0.175769 0.191058 0.0155947
0.191791 0.191867 0.0142061
0.208286 0.19263 0.0128481
0.226871 0.193637 0.0129854
0.244892 0.194873 0.0130159
0.264622 0.196887 0.0130617
0.284504 0.199176 0.0133516
0.306493 0.201434 0.0164187
0.329198 0.203632 0.0191958
0.354894 0.205829 0.023209
0.380484 0.20798 0.0264439
0.407599 0.211261 0.0296788
0.434836 0.214893 0.0336767
0.463325 0.21912 0.036286
0.49163 0.223056 0.0393988
0.521798 0.227329 0.0431373
0.552605 0.23151 0.0465858
0.582208 0.236393 0.0502785
0.613657 0.241138 0.0546883
0.645029 0.247028 0.0580148
0.678126 0.253315 0.062089
0.712612 0.260075 0.0662852
0.74699 0.26688 0.0706493
0.782864 0.275212 0.074342
0.819974 0.28336 0.0784772
0.858656 0.291737 0.0826276
0.899306 0.301366 0.0868544
0.0851453 0.210361 0.0347753
0.116701 0.210727 0.0303349
0.128496 0.210529 0.0284276
0.141253 0.210925 0.026566
0.155077 0.211627 0.0248417
0.1682 0.211933 0.0231022
0.18204 0.212085 0.0212253
0.197696 0.212146 0.0197604
0.213718 0.21387 0.0188296
0.230961 0.215274 0.0175784
0.250324 0.214817 0.0154726
0.270115 0.216083 0.0150912
0.289906 0.219059 0.0157778
0.310338 0.221485 0.0162814
0.33463 0.223453 0.019379
0.358892 0.225437 0.0216373
0.384771 0.228305 0.0237736
0.410925 0.231739 0.0267491
0.438392 0.235447 0.0299229
0.46717 0.237736 0.0335241
0.496468 0.24097 0.0370184
0.525597 0.244923 0.0404517
0.554803 0.251118 0.0437476
0.585443 0.255726 0.0475776
0.616175 0.260517 0.0514076
0.647562 0.265736 0.0554208
0.680125 0.271641 0.059205
0.714488 0.278935 0.0628824
0.74905 0.285389 0.0675822
0.783993 0.293294 0.0711223
0.821103 0.301762 0.0748913
0.859907 0.310597 0.0794232
0.899275 0.320043 0.0836652
0.0949264 0.233814 0.0424506
0.127428 0.233326 0.0384222
0.138582 0.233066 0.0368353
0.150652 0.232685 0.0350805
0.162066 0.233326 0.0332799
0.174685 0.234241 0.0319371
0.189303 0.23447 0.0302434
0.204501 0.234943 0.0277256
0.220722 0.236225 0.0249943
0.237781 0.23621 0.0234226
0.256245 0.237263 0.0227359
0.275471 0.24004 0.0222171
0.295048 0.241352 0.0209354
0.316243 0.242786 0.0196384
0.339574 0.244694 0.019913
0.36437 0.247333 0.0203555
0.388907 0.249943 0.0203403
0.415366 0.253147 0.0237736
0.442405 0.255543 0.0279393
0.470848 0.258518 0.0310369
0.499489 0.262104 0.0344091
0.527718 0.266865 0.0376745
0.557229 0.271321 0.0409705
0.58819 0.276051 0.0446326
0.619348 0.280125 0.0486915
0.651499 0.285527 0.05243
0.683467 0.292699 0.0561685
0.716838 0.299367 0.0603952
0.751675 0.305379 0.0645609
0.786282 0.312459 0.0677958
0.823285 0.321569 0.07187
0.861433 0.330709 0.076173
0.900938 0.339681 0.0798199
0.108354 0.25835 0.0510567
0.136934 0.257664 0.0464485
0.147585 0.25742 0.0456245
0.158526 0.257694 0.0451667
0.170443 0.258091 0.0443732
0.182879 0.25835 0.0406195
0.196612 0.259052 0.0373388
0.212268 0.259373 0.0356603
0.228458 0.259388 0.0345922
0.245396 0.260197 0.0345617
0.263371 0.26183 0.0316472
0.28275 0.263783 0.0280461
0.302907 0.264454 0.0266117
0.323751 0.26598 0.0251774
0.345602 0.268574 0.0241093
0.369039 0.271031 0.0221103
0.394614 0.273548 0.0225834
0.420523 0.275044 0.0261082
0.44802 0.278065 0.0277256
0.475761 0.281071 0.0281376
0.504524 0.284718 0.0310826
0.533669 0.288701 0.0343023
0.561837 0.293706 0.0373693
0.591226 0.297353 0.0415961
0.62327 0.30222 0.0454566
0.655283 0.307164 0.0493477
0.687617 0.314565 0.0529946
0.719707 0.320455 0.0566262
0.753399 0.326818 0.0607462
0.788708 0.334203 0.0658579
0.825498 0.343099 0.0687114
0.864668 0.351888 0.0724804
0.902815 0.360693 0.0764324
0.119829 0.28423 0.0579843
0.147662 0.284398 0.055848
0.157183 0.28394 0.0545815
0.167651 0.284153 0.0533761
0.179477 0.284199 0.0510719
0.191882 0.284184 0.0492561
0.206027 0.283787 0.0474556
0.221118 0.283833 0.0461585
0.236683 0.284489 0.0462654
0.252842 0.285237 0.0433814
0.270451 0.286915 0.038117
0.289921 0.287938 0.0366827
0.310155 0.289387 0.0359045
0.33109 0.290913 0.0335546
0.353155 0.29247 0.0312963
0.377401 0.294865 0.0293431
0.401633 0.296849 0.0295872
0.427359 0.299519 0.0292821
0.454887 0.302449 0.0266728
0.48188 0.30518 0.0261082
0.510658 0.308186 0.0292973
0.53875 0.312383 0.0322576
0.568124 0.316899 0.0347295
0.597757 0.32108 0.0387732
0.62855 0.325994 0.0430152
0.659648 0.330999 0.0466926
0.691569 0.337102 0.0487526
0.723171 0.342687 0.052842
0.756298 0.349599 0.0575418
0.791974 0.3579 0.0620737
0.828641 0.366125 0.0648356
0.866529 0.374228 0.0686961
0.903334 0.383719 0.0739452
0.134066 0.311513 0.0646677
0.157473 0.311986 0.0624857
0.166552 0.311757 0.06215
0.176837 0.310658 0.0620737
0.18819 0.309926 0.0615549
0.200549 0.310323 0.0585184
0.213535 0.310765 0.0559548
0.228305 0.310979 0.0557259
0.244419 0.311833 0.0552987
0.262028 0.312581 0.052018
0.279942 0.313176 0.0493172
0.298283 0.314778 0.0480507
0.318044 0.315969 0.0458991
0.339422 0.317098 0.0436713
0.361975 0.31873 0.0399939
0.38471 0.31989 0.0361334
0.409277 0.322469 0.0361028
0.434775 0.325063 0.0349126
0.460624 0.327749 0.0308232
0.488777 0.330861 0.0319982
0.515938 0.334035 0.0316625
0.544594 0.338643 0.0306859
0.573602 0.342428 0.0320745
0.603784 0.346731 0.0353246
0.633585 0.35111 0.0395819
0.663859 0.356512 0.0433051
0.695125 0.361624 0.0470436
0.727932 0.367941 0.0501717
0.761898 0.374945 0.054139
0.796414 0.383139 0.0580148
0.831815 0.390646 0.061387
0.867384 0.397986 0.0668345
0.904921 0.407919 0.0727703
0.14493 0.341146 0.0699016
0.169055 0.339879 0.0692149
0.17847 0.339773 0.0695506
0.188342 0.339712 0.0692302
0.198352 0.339605 0.0680552
0.209079 0.339345 0.0669261
0.223438 0.33991 0.0665293
0.238453 0.340688 0.0660563
0.254505 0.340825 0.0630655
0.271595 0.341482 0.060502
0.289052 0.342504 0.0603494
0.307088 0.343069 0.0594949
0.327108 0.344213 0.0562142
0.348272 0.345342 0.0529946
0.370367 0.346319 0.0491951
0.394415 0.348013 0.0483253
0.418601 0.349828 0.0480964
0.444083 0.352575 0.0450141
0.470222 0.355962 0.0426184
0.496071 0.358694 0.038941
0.523522 0.362493 0.0349584
0.550652 0.366415 0.0285344
0.580118 0.370672 0.0297551
0.609766 0.374655 0.0327459
0.63888 0.37882 0.0362249
0.669581 0.384009 0.039765
0.70103 0.389654 0.04271
0.732464 0.395605 0.0451972
0.76556 0.402686 0.0503395
0.800275 0.408927 0.0538338
0.834974 0.416281 0.0581064
0.869383 0.42414 0.0650187
0.905272 0.433021 0.0707866
0.158206 0.372656 0.0767834
0.180972 0.372335 0.0754406
0.18938 0.371771 0.0754406
0.19855 0.371435 0.0756542
0.208972 0.371221 0.0758679
0.220996 0.37142 0.075761
0.233478 0.371344 0.0753033
0.247852 0.371099 0.0734722
0.263218 0.37113 0.0715038
0.280446 0.372061 0.0699931
0.297963 0.372641 0.0684825
0.316991 0.37351 0.0670329
0.336538 0.374365 0.066041
0.35761 0.375555 0.0634775
0.379995 0.377188 0.0609293
0.403738 0.37847 0.0588693
0.428885 0.380606 0.0569467
0.454032 0.383688 0.0540475
0.478889 0.386465 0.0505837
0.505135 0.389548 0.0475776
0.531868 0.392813 0.0412604
0.559258 0.396643 0.0376745
0.588876 0.400107 0.0365148
0.616754 0.403296 0.0357671
0.645624 0.408133 0.0340734
0.675746 0.413306 0.0357061
0.706462 0.419196 0.0378271
0.737408 0.424491 0.0415045
0.770001 0.430945 0.0456092
0.803403 0.437644 0.049836
0.837186 0.444572 0.0556954
0.872801 0.452003 0.06215
0.909422 0.459754 0.0690623
0.170001 0.408423 0.0830549
0.191882 0.407034 0.0833753
0.200549 0.406317 0.0836042
0.209949 0.406165 0.0830549
0.220157 0.405905 0.0821851
0.231617 0.406058 0.0813764
0.244526 0.40618 0.0799878
0.258335 0.406226 0.0783398
0.273289 0.405982 0.0770581
0.289906 0.406424 0.0764172
0.307668 0.406897 0.0758373
0.326192 0.406714 0.0749371
0.346792 0.407675 0.0744335
0.368719 0.409201 0.0744335
0.391577 0.410025 0.0728923
0.415091 0.411505 0.0707866
0.439002 0.414023 0.0667277
0.463066 0.416052 0.0633249
0.488685 0.418692 0.0612802
0.513878 0.421347 0.0582132
0.540719 0.42446 0.0534066
0.568246 0.428138 0.0489967
0.595346 0.431327 0.043946
0.623926 0.435431 0.0396277
0.65333 0.439445 0.0352789
0.683619 0.445029 0.0309148
0.712489 0.449042 0.0353857
0.742611 0.454826 0.0381018
0.77351 0.460807 0.0417487
0.807874 0.467262 0.0479591
0.841291 0.473243 0.0534066
0.876829 0.480095 0.0595712
0.913298 0.487572 0.0659342
0.183291 0.444694 0.0918898
0.203815 0.443091 0.0912032
0.211688 0.443473 0.0905013
0.221012 0.443809 0.0895552
0.231296 0.444053 0.0887465
0.242817 0.44332 0.087892
0.25568 0.442908 0.0872206
0.269841 0.442802 0.0861524
0.28481 0.442695 0.0848707
0.301259 0.442603 0.0840009
0.318715 0.442618 0.0833906
0.337789 0.443229 0.0832837
0.358923 0.444236 0.084062
0.379873 0.444556 0.0832227
0.402518 0.445396 0.0796826
0.42591 0.446906 0.0767376
0.449378 0.447929 0.0753033
0.473457 0.450217 0.0739452
0.498131 0.452003 0.0720378
0.52369 0.454994 0.0695201
0.550271 0.458061 0.066743
0.576898 0.460868 0.0603342
0.604868 0.464424 0.0529488
0.632151 0.46833 0.0454719
0.660014 0.472801 0.040177
0.688762 0.47686 0.0365759
0.717266 0.481209 0.0359503
0.746792 0.486351 0.0377203
0.778088 0.491783 0.0412757
0.810849 0.497368 0.047013
0.84506 0.502647 0.0513313
0.880125 0.508232 0.0583505
0.917922 0.515755 0.0644999
0.196155 0.482109 0.0998093
0.216754 0.482521 0.0972305
0.224323 0.482399 0.0964218
0.233448 0.481285 0.0962844
0.243626 0.480735 0.0963149
0.254765 0.480232 0.0964675
0.267689 0.480186 0.0956283
0.281468 0.479927 0.0945296
0.296925 0.479713 0.093431
0.313649 0.479988 0.0927901
0.331319 0.480247 0.0922103
0.349538 0.480171 0.0913558
0.369146 0.480659 0.0905928
0.390234 0.481483 0.0896162
0.411795 0.481468 0.0887922
0.435645 0.482277 0.0868696
0.460151 0.483146 0.0852216
0.484581 0.485023 0.0848859
0.509239 0.487327 0.0842908
0.533974 0.490242 0.0815442
0.559442 0.492302 0.0765393
0.586816 0.494896 0.0711986
0.612802 0.498604 0.0644541
0.639979 0.50248 0.057496
0.668086 0.505867 0.0512093
0.695003 0.509712 0.045304
0.722911 0.514656 0.0382849
0.752026 0.519127 0.0349432
0.78291 0.523705 0.0390478
0.814664 0.527657 0.0436103
0.848432 0.532525 0.0499123
0.883589 0.538018 0.0584573
0.916487 0.543664 0.0632944
0.210025 0.521828 0.105562
0.22916 0.520867 0.105226
0.236484 0.520409 0.105089
0.244694 0.519844 0.105028
0.25481 0.519173 0.104433
0.266392 0.518502 0.103593
0.279423 0.518181 0.103059
0.294026 0.517968 0.102373
0.310094 0.518212 0.101396
0.32607 0.518105 0.100099
0.343771 0.51812 0.0995499
0.361929 0.518303 0.0996109
0.38204 0.518563 0.0998093
0.402411 0.518486 0.0996872
0.424277 0.519677 0.0982986
0.447333 0.52079 0.0962539
0.470619 0.521157 0.0950332
0.495354 0.521935 0.0943313
0.519722 0.523995 0.0924239
0.544259 0.52578 0.0904707
0.569833 0.528572 0.0865187
0.595712 0.530892 0.082536
0.621881 0.534371 0.0789654
0.648264 0.537057 0.0735943
0.675288 0.539025 0.0658885
0.701152 0.543877 0.0530098
0.72845 0.547448 0.0451667
0.758053 0.551095 0.040589
0.787671 0.554391 0.0392157
0.819638 0.559152 0.0429847
0.853071 0.563592 0.0490578
0.889433 0.568627 0.0568856
0.918425 0.573144 0.062089
0.222919 0.561624 0.11252
0.239963 0.560784 0.110811
0.247944 0.560204 0.110506
0.257496 0.559594 0.110689
0.268696 0.558541 0.11078
0.280491 0.558007 0.110903
0.293202 0.55787 0.109926
0.306767 0.557183 0.108568
0.321935 0.557092 0.1075
0.338338 0.557168 0.108659
0.355642 0.557336 0.109728
0.374289 0.556909 0.109255
0.394629 0.557198 0.108721
0.415579 0.557778 0.10782
0.436835 0.558068 0.106447
0.4589 0.558587 0.105241
0.48191 0.559411 0.103655
0.504601 0.560311 0.102129
0.529168 0.56144 0.101183
0.553933 0.563287 0.0991226
0.578714 0.565301 0.0969406
0.603525 0.566873 0.0949874
0.628824 0.568505 0.0932326
0.654841 0.570809 0.0862898
0.681041 0.574121 0.0784161
0.707729 0.576791 0.0682383
0.735439 0.580041 0.0594644
0.763546 0.582742 0.0504463
0.79292 0.586664 0.0424506
0.82443 0.590951 0.0417639
0.85864 0.594812 0.0475624
0.894667 0.598047 0.0561837
0.924117 0.602029 0.0614786
0.23621 0.601434 0.120562
0.255177 0.600061 0.120089
0.26273 0.599664 0.11986
0.270878 0.598962 0.119554
0.280842 0.597925 0.118791
0.292073 0.597589 0.118059
0.304204 0.597284 0.117327
0.317784 0.596887 0.116884
0.333425 0.596841 0.117464
0.34931 0.596246 0.11809
0.367437 0.596323 0.117876
0.386694 0.596368 0.116762
0.406409 0.596384 0.115709
0.426612 0.596246 0.11545
0.447837 0.596567 0.115312
0.469795 0.597314 0.113985
0.491966 0.597391 0.112947
0.515343 0.598047 0.112383
0.539147 0.598947 0.11162
0.56199 0.600092 0.109194
0.586984 0.601205 0.107103
0.612497 0.602258 0.106661
0.637308 0.60354 0.103624
0.662348 0.605707 0.0995956
0.688106 0.607828 0.0936751
0.714488 0.610666 0.0873426
0.741512 0.613519 0.0758221
0.769146 0.616526 0.0612955
0.798795 0.619562 0.0485695
0.831296 0.622553 0.0436866
0.864179 0.625437 0.0474403
0.899351 0.628382 0.0551003
0.924178 0.630793 0.0605478
0.2495 0.64036 0.128115
0.267552 0.639384 0.126192
0.275013 0.63917 0.125856
0.283619 0.638819 0.125566
0.293309 0.638529 0.125216
0.304143 0.637873 0.124819
0.316487 0.637201 0.124681
0.330388 0.636957 0.124834
0.345998 0.636454 0.124819
0.362188 0.636088 0.124758
0.379278 0.635828 0.124636
0.396902 0.635019 0.124269
0.416953 0.634943 0.12462
0.437583 0.635019 0.124544
0.458625 0.634714 0.124498
0.480858 0.634638 0.125017
0.503319 0.63473 0.12462
0.525704 0.634699 0.123919
0.548348 0.635248 0.122515
0.572335 0.636011 0.121187
0.595651 0.636515 0.120043
0.620356 0.637568 0.119341
0.644953 0.639277 0.116442
0.669795 0.640421 0.112871
0.695583 0.642435 0.108186
0.721813 0.64419 0.100267
0.748775 0.646967 0.0911727
0.77702 0.64918 0.0784924
0.806668 0.65182 0.0609293
0.836667 0.654704 0.0507057
0.869993 0.657053 0.0490883
0.904372 0.658885 0.0546731
0.923445 0.659815 0.0588693
0.26157 0.679179 0.135958
0.279866 0.677699 0.135317
0.2869 0.677256 0.135225
0.295735 0.676555 0.134997
0.305394 0.676188 0.134859
0.316884 0.675654 0.134798
0.328923 0.67538 0.134813
0.342489 0.674723 0.134722
0.356893 0.673869 0.134371
0.372595 0.673609 0.134386
0.389563 0.673472 0.134386
0.408286 0.673228 0.134249
0.427527 0.672496 0.133776
0.4477 0.672099 0.134356
0.468101 0.672068 0.134752
0.488823 0.671778 0.135012
0.510414 0.671199 0.135668
0.533349 0.671382 0.136614
0.55729 0.672221 0.136507
0.580362 0.672374 0.134493
0.603647 0.67332 0.131777
0.627634 0.674296 0.130556
0.652354 0.675166 0.130068
0.677897 0.676188 0.124804
0.702968 0.677104 0.119341
0.728969 0.679164 0.113283
0.755413 0.680598 0.104021
0.783444 0.682673 0.0914473
0.812375 0.684703 0.0744945
0.842939 0.686656 0.0559701
0.877226 0.687922 0.0484627
0.910628 0.690974 0.0533913
0.926314 0.68925 0.0573281
0.274449 0.716258 0.146761
0.292729 0.715236 0.146059
0.29955 0.715038 0.145968
0.307469 0.714214 0.145449
0.316197 0.713771 0.145281
0.326635 0.713283 0.144961
0.338552 0.712932 0.145144
0.352422 0.712642 0.145525
0.367636 0.712184 0.146029
0.383383 0.711162 0.146075
0.400732 0.710765 0.146685
0.419181 0.71046 0.147387
0.438087 0.710201 0.147311
0.457801 0.709682 0.146853
0.478309 0.708904 0.146639
0.49987 0.708919 0.147051
0.522164 0.708965 0.147234
0.542748 0.709331 0.146685
0.564965 0.71017 0.146639
0.588357 0.710369 0.144472
0.611795 0.710277 0.14258
0.636286 0.710658 0.141955
0.660914 0.710628 0.140246
0.685267 0.71136 0.138033
0.710414 0.712642 0.132845
0.735546 0.713512 0.125887
0.7626 0.714534 0.117403
0.789899 0.716197 0.106798
0.818936 0.718044 0.090547
0.848676 0.718898 0.0691234
0.881773 0.719753 0.0553292
0.912749 0.720516 0.0548104
0.926986 0.719081 0.0570077
0.285939 0.753368 0.160601
0.302571 0.75288 0.159792
0.309468 0.75256 0.15938
0.317357 0.752117 0.158953
0.326818 0.751812 0.158785
0.33817 0.751003 0.158251
0.350179 0.750439 0.157778
0.363622 0.750042 0.157488
0.378759 0.749508 0.157641
0.3944 0.749035 0.158328
0.41062 0.748333 0.158801
0.428199 0.747616 0.158724
0.447364 0.747295 0.158846
0.467002 0.74696 0.159014
0.487129 0.746456 0.158816
0.508537 0.746242 0.158923
0.529458 0.746365 0.158984
0.551049 0.746517 0.158938
0.572747 0.746578 0.157107
0.595224 0.747524 0.155306
0.61825 0.747738 0.154131
0.642115 0.747219 0.15259
0.667643 0.746822 0.152071
0.691966 0.746746 0.149615
0.716167 0.747921 0.144579
0.741466 0.748638 0.137911
0.767758 0.749218 0.130724
0.79588 0.75024 0.124025
0.824018 0.750637 0.10692
0.854154 0.75169 0.0877089
0.88658 0.751949 0.0677501
0.918914 0.751858 0.0582132
0.92604 0.749874 0.0564279
0.294423 0.790616 0.171695
0.311574 0.789715 0.171176
0.319188 0.789334 0.170886
0.327901 0.788983 0.17052
0.337301 0.788678 0.170291
0.348638 0.78819 0.169818
0.359869 0.787274 0.169421
0.372549 0.786923 0.169604
0.386908 0.78645 0.169574
0.401694 0.786267 0.169696
0.418585 0.785733 0.16965
0.436484 0.784634 0.169436
0.455024 0.784344 0.169528
0.474006 0.784009 0.17023
0.494057 0.783688 0.17116
0.514092 0.783154 0.170687
0.53547 0.783154 0.170214
0.556893 0.78349 0.16994
0.578363 0.783505 0.169375
0.60119 0.783368 0.168551
0.625513 0.783185 0.16759
0.648264 0.782834 0.16553
0.671931 0.782788 0.163439
0.695018 0.783627 0.159808
0.718822 0.783871 0.155764
0.745174 0.783612 0.152331
0.772183 0.783444 0.147097
0.800031 0.78407 0.139681
0.828367 0.78439 0.126665
0.858854 0.784955 0.108949
0.890684 0.784482 0.0848554
0.919173 0.784085 0.0595865
0.926131 0.779614 0.0568246
0.302144 0.827054 0.182696
0.319341 0.826017 0.182589
0.32668 0.825528 0.182528
0.334401 0.825238 0.182712
0.343893 0.824948 0.182605
0.354498 0.824948 0.1823
0.365652 0.825025 0.181949
0.377997 0.824628 0.18114
0.392111 0.824414 0.181216
0.40734 0.823835 0.18172
0.423774 0.823117 0.182315
0.441398 0.8224 0.182483
