app/src/main/assets/luts/eternableachbypass.cube
TITLE "Generated by Resolve"
LUT_3D_SIZE 9
0 0 0
0.0517128 0.00743114 0.00926223
0.0854505 0.019028 0.0166018
0.137026 0.0373846 0.029633
0.219699 0.0547951 0.0443885
0.338766 0.0699321 0.0618601
0.438697 0.0864271 0.0793011
0.531899 0.117174 0.111208
0.616251 0.166644 0.151171
0.0389715 0.0752422 0.0371557
0.0818799 0.0836347 0.0403906
0.11577 0.0900435 0.0389715
0.170504 0.0973983 0.0463264
0.254261 0.105898 0.0603647
0.34995 0.116182 0.0763867
0.448493 0.132174 0.0956436
0.547723 0.169848 0.13283
0.639551 0.233722 0.186618
0.0790875 0.134813 0.0703746
0.10927 0.138537 0.070634
0.140948 0.143114 0.0722362
0.195651 0.149371 0.0701152
0.278157 0.158465 0.0817273
0.37142 0.168551 0.0977493
0.471382 0.192966 0.126131
0.577188 0.240787 0.171008
0.680735 0.31873 0.225742
0.128161 0.230289 0.115602
0.153063 0.231266 0.119326
0.185885 0.236393 0.124315
0.242908 0.245106 0.131884
0.324422 0.255787 0.138323
0.420691 0.273503 0.159564
0.526848 0.309422 0.194705
0.641871 0.367361 0.243458
0.751919 0.445518 0.293599
0.203418 0.383154 0.191424
0.230732 0.384131 0.195651
0.26772 0.387671 0.20351
0.328435 0.396094 0.218936
0.406287 0.411948 0.236027
0.50576 0.439002 0.259007
0.618723 0.480171 0.297459
0.732631 0.534691 0.345159
0.829114 0.594369 0.379309
0.312718 0.562448 0.293324
0.343908 0.565393 0.299107
0.38587 0.571694 0.309071
0.446403 0.583078 0.325139
0.522469 0.600717 0.346944
0.613657 0.627619 0.373358
0.715846 0.661143 0.397971
0.814252 0.696361 0.421469
0.893492 0.73106 0.43798
0.430686 0.734829 0.401419
0.461967 0.740398 0.405859
0.500175 0.749004 0.411749
0.554437 0.759106 0.421927
0.623011 0.775021 0.434928
0.703868 0.793713 0.45124
0.789059 0.812467 0.463722
0.866453 0.83032 0.469856
0.932555 0.842252 0.472511
0.510109 0.860731 0.489265
0.536751 0.866438 0.491722
0.572106 0.871397 0.493721
0.617655 0.881727 0.498527
0.677287 0.892195 0.505974
0.748531 0.904311 0.51284
0.82324 0.915633 0.515358
0.889921 0.921096 0.518105
0.944625 0.916274 0.505943
0.554604 0.921889 0.590112
0.568109 0.924544 0.591714
0.584421 0.927581 0.592554
0.609903 0.932799 0.59794
0.642496 0.938979 0.603555
0.686122 0.946151 0.61297
0.742596 0.953445 0.628733
0.81474 0.962585 0.646677
0.934035 0.974746 0.633295
0.00540169 0.00698863 0.0377661
0.0607919 0.0190585 0.0520333
0.0995193 0.0355535 0.0660105
0.157168 0.0512398 0.0786603
0.255558 0.0673991 0.0966201
0.368093 0.0790112 0.109636
0.461997 0.0971847 0.127932
0.551217 0.130358 0.156924
0.629633 0.181201 0.189151
0.0497444 0.0887617 0.0861067
0.0943618 0.0959945 0.0945144
0.133364 0.101549 0.098436
0.193545 0.107668 0.105821
0.281575 0.116716 0.117906
0.375952 0.125856 0.13106
0.473747 0.146456 0.151781
0.568124 0.186023 0.188159
0.654124 0.245182 0.230198
0.0895552 0.151904 0.120272
0.121508 0.15433 0.123156
0.156313 0.157992 0.126253
0.21735 0.164996 0.130831
0.303319 0.17258 0.14313
0.397879 0.183536 0.157549
0.499245 0.210895 0.186587
0.599741 0.262501 0.231434
0.699184 0.333516 0.277607
0.141176 0.25391 0.166796
0.16733 0.253132 0.167498
0.203021 0.256291 0.172015
0.264302 0.264881 0.180545
0.349325 0.275288 0.189517
0.446235 0.295018 0.210986
0.554177 0.332235 0.249546
0.665599 0.387762 0.298177
0.769711 0.460456 0.348577
0.219745 0.404211 0.242908
0.246876 0.404166 0.244923
0.286702 0.407309 0.25182
0.348775 0.415351 0.265522
0.426169 0.430014 0.281483
0.52726 0.456336 0.299504
0.641016 0.495689 0.338613
0.749554 0.545983 0.383337
0.840833 0.601236 0.416693
0.324056 0.576806 0.345144
0.35816 0.580423 0.350469
0.400656 0.586648 0.35761
0.460731 0.595651 0.370169
0.537179 0.613428 0.38967
0.627161 0.637186 0.411276
0.730358 0.669551 0.431464
0.824857 0.701762 0.452384
0.900969 0.731762 0.46421
0.435981 0.741878 0.4542
0.467216 0.747326 0.456916
0.505241 0.754162 0.460639
0.560647 0.765393 0.468528
0.629709 0.780026 0.478447
0.710933 0.797894 0.491203
0.795041 0.814511 0.49865
0.869963 0.83006 0.499123
0.935821 0.84007 0.496971
0.510201 0.86305 0.53846
0.536965 0.867903 0.539483
0.571283 0.875135 0.54258
0.619333 0.883497 0.546181
0.679713 0.893141 0.551492
0.751507 0.905104 0.556222
0.825711 0.91487 0.557427
0.893675 0.920729 0.554711
0.947387 0.915633 0.53051
0.552636 0.922957 0.613245
0.568322 0.926162 0.616037
0.585824 0.92958 0.618982
0.61091 0.9337 0.622644
0.644602 0.940169 0.629099
0.687922 0.946944 0.635798
0.743664 0.954833 0.649622
0.818112 0.964126 0.666209
0.936309 0.975631 0.648997
0.0125124 0.0157168 0.0598001
0.069749 0.0306706 0.0781872
0.112993 0.0465858 0.0942245
0.177249 0.0650797 0.114137
0.286 0.0788128 0.13344
0.390311 0.0913252 0.149096
0.483787 0.112642 0.170642
0.571359 0.146838 0.200351
0.646555 0.199405 0.237369
0.059678 0.100923 0.122683
0.104875 0.107652 0.130755
0.145052 0.113497 0.138094
0.210178 0.121553 0.148058
0.302037 0.129717 0.159869
0.398993 0.14168 0.174731
0.49688 0.163226 0.196902
0.58822 0.20531 0.232731
0.673014 0.265736 0.275364
0.0996567 0.169223 0.168627
0.133135 0.169497 0.168017
0.172549 0.173144 0.172396
0.236866 0.179431 0.17734
0.325582 0.187137 0.187686
0.422156 0.20174 0.205753
0.523735 0.233982 0.235431
0.623713 0.28603 0.279179
0.717693 0.353689 0.324025
0.155749 0.278874 0.225238
0.184222 0.277134 0.223758
0.221866 0.279988 0.225467
0.286015 0.286793 0.232212
0.374197 0.298238 0.240543
0.472511 0.318715 0.264363
0.580591 0.355566 0.300023
0.688701 0.410636 0.346349
0.784756 0.475883 0.39118
0.237461 0.42858 0.308553
0.266606 0.428305 0.309102
0.307012 0.430503 0.311818
0.371084 0.438209 0.323018
0.452094 0.45417 0.335943
0.553475 0.479088 0.35375
0.665446 0.516579 0.387976
0.767575 0.561624 0.426123
0.855344 0.609873 0.451621
0.340002 0.595651 0.411856
0.373007 0.59823 0.414572
0.416281 0.602777 0.419654
0.477897 0.611688 0.430289
0.554238 0.627543 0.445777
0.645518 0.651987 0.462867
0.745937 0.68014 0.475227
0.835462 0.708263 0.490089
0.907881 0.733852 0.49575
0.442481 0.749294 0.510246
0.47425 0.755489 0.514046
0.512398 0.762005 0.517708
0.567727 0.773037 0.524437
0.637827 0.786114 0.532021
0.719493 0.802289 0.541161
0.802396 0.818143 0.546105
0.877714 0.832715 0.539788
0.940459 0.839811 0.528252
0.508492 0.865064 0.587579
0.53753 0.87013 0.589502
0.57232 0.877684 0.591608
0.620798 0.884886 0.595743
0.684688 0.895232 0.600565
0.755245 0.906386 0.603708
0.830137 0.915419 0.606317
0.896788 0.920424 0.597787
0.949996 0.914427 0.563958
0.545388 0.923262 0.636957
0.562142 0.926192 0.639918
0.582849 0.92987 0.643931
0.611505 0.935409 0.649592
0.645533 0.941848 0.653864
0.690318 0.94786 0.661738
0.747463 0.955718 0.67306
0.820432 0.964752 0.685054
0.940291 0.976379 0.667292
0.0236515 0.0272984 0.0860304
0.0849317 0.0450141 0.111803
0.130282 0.0623331 0.131655
0.203723 0.0795758 0.158267
0.316243 0.0947738 0.182956
0.416907 0.108675 0.201938
0.510079 0.133867 0.225086
0.59443 0.171176 0.259983
0.668315 0.225223 0.29723
0.0729381 0.117891 0.180148
0.119921 0.124605 0.192401
0.161608 0.129046 0.194507
0.233616 0.139742 0.204608
0.327306 0.150561 0.219852
0.426047 0.164263 0.235035
0.525414 0.189914 0.260746
0.614359 0.235096 0.29807
0.698116 0.292378 0.337179
0.114321 0.194568 0.246799
0.151446 0.194369 0.243366
0.192172 0.196399 0.242741
0.26186 0.205539 0.250553
0.352529 0.217273 0.261738
0.452567 0.233143 0.278981
0.554253 0.267262 0.307561
0.654643 0.316976 0.347814
0.743313 0.381201 0.38761
0.177356 0.314656 0.314611
0.208988 0.312673 0.311589
0.250645 0.314107 0.311269
0.31812 0.320546 0.318105
0.409262 0.332937 0.327123
0.508904 0.353094 0.346868
0.616953 0.390265 0.380026
0.720088 0.440787 0.419287
0.808194 0.50071 0.456138
0.263096 0.462333 0.398688
0.293812 0.460349 0.397024
0.337926 0.463447 0.399069
0.403708 0.471565 0.409506
0.484565 0.485634 0.41796
0.589105 0.510872 0.43772
0.695964 0.54374 0.467582
0.792432 0.581674 0.49601
0.873274 0.622278 0.51165
0.356008 0.6177 0.49102
0.390997 0.62034 0.493858
0.436164 0.623941 0.498833
0.49929 0.634562 0.508629
0.576013 0.649287 0.521737
0.666773 0.670497 0.534951
0.766766 0.696376 0.5449
0.852857 0.718318 0.555505
0.920485 0.738216 0.550118
0.446693 0.760922 0.579187
0.479957 0.765301 0.581506
0.520012 0.771984 0.585641
0.575463 0.78172 0.591684
0.647654 0.794537 0.600076
0.729229 0.809247 0.606928
0.811872 0.822828 0.609094
0.887388 0.835508 0.600763
0.946914 0.839963 0.581415
0.505806 0.867704 0.642832
0.534737 0.872831 0.645274
0.570382 0.878889 0.648783
0.622705 0.8869 0.653895
0.685237 0.896605 0.65771
0.759655 0.907912 0.662379
0.834501 0.915816 0.663737
0.900923 0.920562 0.652354
0.954482 0.913176 0.610986
0.535607 0.923659 0.668055
0.553185 0.927077 0.670207
0.574517 0.931014 0.673396
0.605097 0.937041 0.67863
0.646342 0.944396 0.687495
0.693553 0.950195 0.694438
0.750484 0.957397 0.703014
0.823423 0.966064 0.711864
0.947005 0.978134 0.691188
0.0451514 0.047776 0.131624
0.102403 0.0654459 0.163622
0.153231 0.0801709 0.191882
0.24387 0.0977493 0.230518
0.354467 0.116732 0.263233
0.452186 0.134798 0.284794
0.546319 0.164416 0.316777
0.627359 0.208972 0.353262
0.702541 0.259419 0.389609
0.0918441 0.140505 0.274281
0.140368 0.147387 0.286824
0.188693 0.15523 0.289158
0.26836 0.165148 0.297353
0.364355 0.178637 0.311788
0.464546 0.197513 0.33228
0.562783 0.231037 0.360281
0.653468 0.275395 0.396948
0.733959 0.331304 0.432639
0.136797 0.229343 0.348486
0.176867 0.22884 0.344656
0.223346 0.231968 0.343648
0.300237 0.241871 0.350454
0.392752 0.256077 0.363561
0.491661 0.280476 0.384085
0.595865 0.315847 0.413764
0.693874 0.362463 0.44976
0.779293 0.420844 0.485832
0.205249 0.358633 0.417426
0.23772 0.355398 0.413825
0.285176 0.357015 0.414801
0.358083 0.364843 0.421561
0.445563 0.378805 0.434485
0.54992 0.405142 0.458793
0.657374 0.438087 0.489525
0.754955 0.480919 0.521614
0.836728 0.52932 0.54728
0.288762 0.498848 0.493996
0.321233 0.499046 0.492988
0.368353 0.502525 0.497292
0.437003 0.510903 0.507271
0.524224 0.525017 0.523781
0.625284 0.546654 0.541756
0.730312 0.575814 0.567208
0.820783 0.607782 0.586679
0.893935 0.637613 0.593759
0.373999 0.643793 0.575814
0.410208 0.64593 0.578836
0.456535 0.650141 0.584344
0.520439 0.659617 0.593515
0.599908 0.674266 0.607492
0.692195 0.693477 0.6215
0.789197 0.712871 0.629175
0.872755 0.729091 0.635157
0.936126 0.744656 0.626169
0.450233 0.772274 0.649012
0.483879 0.776913 0.652125
0.526375 0.783215 0.656931
0.585107 0.792554 0.665934
0.65742 0.80412 0.674144
0.740093 0.817212 0.683055
0.822416 0.830259 0.683955
0.899504 0.840269 0.67158
0.956924 0.83978 0.648569
0.501808 0.869032 0.70135
0.531319 0.874113 0.704387
0.567712 0.880201 0.708476
0.620386 0.888792 0.715038
0.686107 0.898711 0.720073
0.761883 0.907835 0.726757
0.839063 0.916915 0.72752
0.907301 0.92108 0.715755
0.957992 0.91165 0.669978
0.523156 0.923552 0.704005
0.541665 0.927016 0.706432
0.56379 0.931426 0.70927
0.595087 0.937163 0.712383
0.639078 0.945449 0.720653
0.6963 0.951797 0.732189
0.754391 0.95877 0.739422
0.828183 0.96817 0.74641
0.95314 0.980072 0.721096
0.07187 0.0731212 0.211185
0.126909 0.0893873 0.253361
0.187823 0.105409 0.292882
0.29279 0.127001 0.341238
0.401266 0.14612 0.37171
0.500404 0.172412 0.398978
0.590814 0.210422 0.430793
0.669184 0.252598 0.467475
0.743053 0.304936 0.503975
0.114275 0.175494 0.393606
0.165835 0.179599 0.399313
0.224262 0.188037 0.400137
0.313603 0.200427 0.411185
0.414511 0.219287 0.426642
0.51487 0.244617 0.448371
0.613993 0.282414 0.47892
0.699275 0.324971 0.513649
0.775845 0.38088 0.548409
0.165881 0.279561 0.458259
0.208209 0.278416 0.455879
0.261448 0.281132 0.456733
0.346914 0.292393 0.465965
0.444083 0.310689 0.480095
0.54583 0.337697 0.502968
0.650629 0.372351 0.535378
0.73959 0.417563 0.568444
0.815991 0.466636 0.598093
0.236393 0.408667 0.520439
0.272251 0.407019 0.518395
0.324605 0.410117 0.521233
0.403235 0.418173 0.533394
0.498802 0.435676 0.551537
0.60087 0.45919 0.576318
0.700404 0.492149 0.603784
0.789044 0.527687 0.632044
0.863401 0.561913 0.647196
0.310246 0.540948 0.586831
0.346471 0.541039 0.588571
0.398749 0.544182 0.595041
0.473198 0.554025 0.608301
0.56112 0.569726 0.625803
0.660914 0.591424 0.649805
0.757992 0.614969 0.673503
0.843366 0.636103 0.687449
0.911925 0.656733 0.687877
0.387686 0.669367 0.654276
0.425544 0.672679 0.659464
0.474693 0.679637 0.668376
0.54139 0.68835 0.680415
0.62269 0.700893 0.696345
0.714824 0.716579 0.713832
0.809186 0.732143 0.724392
0.888975 0.743145 0.728038
0.949004 0.752834 0.715251
0.449836 0.783413 0.714168
0.485618 0.788602 0.720989
0.530343 0.795193 0.728237
0.589853 0.804883 0.737896
0.667353 0.815366 0.750072
0.750774 0.828153 0.76109
0.83537 0.838071 0.765286
0.911162 0.844831 0.756451
0.963134 0.838849 0.728054
0.489601 0.868467 0.750393
0.52137 0.87361 0.756359
0.559319 0.879454 0.762905
0.613428 0.887861 0.771298
0.681773 0.898039 0.780301
0.761929 0.908232 0.789487
0.843076 0.917113 0.794324
0.913054 0.921782 0.783368
0.963546 0.908598 0.733867
0.503838 0.923323 0.742611
0.523079 0.926101 0.744335
0.547066 0.930343 0.747402
0.580346 0.936614 0.751415
0.626535 0.943999 0.756848
0.687175 0.952193 0.767681
0.757824 0.961105 0.782284
0.832822 0.970199 0.786007
0.961624 0.982849 0.754559
0.101732 0.102998 0.335195
0.159533 0.120195 0.382635
0.235859 0.143099 0.428305
0.354482 0.169726 0.475212
0.459281 0.19408 0.498695
0.557031 0.229191 0.525628
0.645899 0.267628 0.559396
0.722194 0.313313 0.595315
0.786557 0.364462 0.627161
0.141665 0.226734 0.51017
0.199954 0.231846 0.514611
0.267781 0.241947 0.5205
0.367758 0.258701 0.533394
0.473075 0.282582 0.549981
0.577813 0.312917 0.577462
0.674266 0.350042 0.612039
0.755993 0.395422 0.646616
0.820127 0.440421 0.67039
0.194903 0.342916 0.557961
0.244587 0.344045 0.562814
0.306203 0.349966 0.566751
0.399741 0.36286 0.581018
0.502647 0.38146 0.603662
0.611566 0.409476 0.633066
0.710857 0.444327 0.665324
0.790112 0.480598 0.692775
0.85803 0.514336 0.712489
0.264057 0.467399 0.6094
0.304128 0.466896 0.61323
0.360784 0.470588 0.622126
0.448005 0.481636 0.640452
0.549249 0.499123 0.665339
0.653666 0.523552 0.692744
0.751583 0.550179 0.721523
0.829526 0.572931 0.742123
0.89189 0.595865 0.752361
0.325612 0.585138 0.663569
0.366018 0.58677 0.670451
0.424063 0.592157 0.682277
0.503578 0.602243 0.700252
0.596155 0.616587 0.722545
0.696925 0.635615 0.75024
0.790494 0.653117 0.772107
0.866209 0.669139 0.788052
0.924102 0.681575 0.787655
0.390204 0.694606 0.717418
0.429694 0.699901 0.725811
0.479835 0.705852 0.738079
0.550774 0.715938 0.755764
0.638178 0.72845 0.776364
0.733486 0.742306 0.797009
0.823407 0.755657 0.816205
0.895644 0.763622 0.820905
0.954253 0.764004 0.809979
0.436896 0.792828 0.763729
0.474968 0.797391 0.771862
0.523476 0.805631 0.784848
0.58764 0.815152 0.798032
0.667765 0.826856 0.815305
0.758618 0.838209 0.831495
0.844633 0.846098 0.844312
0.918441 0.848325 0.841138
0.966461 0.838148 0.814817
0.465614 0.863249 0.787137
0.497032 0.869001 0.795407
0.538308 0.875074 0.804211
0.595697 0.884642 0.815259
0.667643 0.896178 0.82884
0.753857 0.90663 0.844984
0.841672 0.916259 0.855131
0.916823 0.920485 0.850477
0.969177 0.906172 0.809522
0.472221 0.920409 0.780789
0.492866 0.923522 0.783825
0.517952 0.927962 0.786648
0.554711 0.935103 0.791943
0.604898 0.943633 0.799191
0.669551 0.951598 0.807599
0.74931 0.961975 0.818494
0.839216 0.973327 0.833646
0.970016 0.985092 0.796384
0.134401 0.151858 0.49575
0.203265 0.177905 0.534493
0.300587 0.210742 0.573602
0.417563 0.243275 0.600977
0.527428 0.277592 0.625055
0.630411 0.316777 0.662272
0.718578 0.360937 0.700267
0.786892 0.405509 0.733028
0.836484 0.446815 0.753231
0.185046 0.3196 0.602502
0.237613 0.321736 0.609476
0.315435 0.334081 0.621881
0.42678 0.353704 0.642664
0.542977 0.380041 0.675486
0.65272 0.41323 0.711589
0.745571 0.450355 0.74609
0.813291 0.481605 0.770703
0.866926 0.509575 0.790051
0.227832 0.428611 0.636027
0.275929 0.43125 0.644007
0.342687 0.436545 0.657481
0.446525 0.452125 0.684779
0.562692 0.47422 0.717784
0.673793 0.50106 0.751232
0.768505 0.527642 0.782895
0.841138 0.550942 0.807919
0.894881 0.568704 0.820844
0.271397 0.533608 0.678416
0.317418 0.535485 0.68751
0.37937 0.540322 0.70222
0.476066 0.554284 0.726894
0.58761 0.572381 0.759548
0.69781 0.592996 0.793011
0.793606 0.612863 0.823575
0.867781 0.627665 0.844388
0.922133 0.636988 0.851362
0.323476 0.632181 0.720913
0.364782 0.633768 0.729824
0.422004 0.639765 0.743893
0.510628 0.651911 0.770336
0.611704 0.666636 0.799985
0.720562 0.684657 0.830991
0.816007 0.697932 0.857466
0.889632 0.706279 0.874434
0.94226 0.703456 0.874891
0.367575 0.715434 0.758007
0.404883 0.720531 0.768872
0.456947 0.727596 0.783597
0.535866 0.739193 0.807446
0.632059 0.753704 0.833967
0.735348 0.767422 0.861067
0.830014 0.777554 0.882567
0.904906 0.780392 0.89482
0.957366 0.772869 0.888579
0.395453 0.786435 0.788678
0.428733 0.790951 0.797269
0.476722 0.79881 0.810437
0.547799 0.810941 0.830304
0.637522 0.824399 0.853773
0.738689 0.837263 0.879393
0.834287 0.846769 0.898116
0.912963 0.849836 0.907652
0.963439 0.839414 0.895933
0.415213 0.849088 0.808682
0.443458 0.853666 0.816617
0.484901 0.860883 0.827237
0.546151 0.871489 0.843244
0.625803 0.884916 0.862577
0.722133 0.898604 0.885512
0.825666 0.909483 0.904952
0.914473 0.916228 0.914061
0.975357 0.901808 0.891432
0.41767 0.912551 0.81181
0.432807 0.915785 0.815
0.456336 0.920836 0.819242
0.495918 0.927703 0.827695
0.551278 0.937148 0.836347
0.626093 0.948608 0.850095
0.718593 0.960464 0.863157
0.834089 0.974578 0.881132
0.979324 0.989181 0.863615
0.22211 0.323339 0.643778
0.243412 0.355581 0.653361
0.327184 0.379904 0.672343
0.459052 0.414313 0.711604
0.588754 0.453086 0.75671
0.701411 0.492576 0.797848
0.788525 0.523095 0.835523
0.852415 0.544747 0.864683
0.897505 0.556466 0.879118
0.267048 0.45539 0.675593
0.266712 0.455222 0.675303
0.285832 0.458351 0.681376
0.405997 0.484672 0.718837
0.547677 0.518822 0.765209
0.678218 0.552514 0.81178
0.783154 0.577279 0.852186
0.858656 0.59173 0.88043
0.913314 0.599741 0.89897
0.278798 0.519738 0.697505
0.278264 0.517922 0.696345
0.281697 0.518242 0.697261
0.37026 0.534539 0.722667
0.515312 0.566461 0.769543
0.654444 0.599435 0.819684
0.772564 0.623941 0.863874
0.861662 0.635615 0.894118
0.920577 0.637385 0.911925
0.28632 0.578515 0.713787
0.286946 0.576959 0.713085
0.290318 0.575692 0.714412
0.35433 0.587518 0.733135
0.489006 0.613016 0.773892
0.628885 0.64564 0.827634
0.758511 0.672938 0.874342
0.859846 0.685191 0.9075
0.929015 0.681529 0.927337
0.290974 0.632013 0.729152
0.29073 0.629923 0.729213
0.29688 0.629786 0.730617
0.34966 0.63798 0.745235
0.46389 0.659663 0.782269
0.604242 0.689693 0.833005
0.741268 0.718029 0.881575
0.853315 0.734646 0.917357
0.934905 0.728771 0.939025
0.286 0.678508 0.740597
0.28687 0.677455 0.739956
0.286213 0.676707 0.740139
0.339879 0.685069 0.75465
0.434745 0.70309 0.787808
0.573556 0.73077 0.836042
0.722011 0.760861 0.886351
0.848051 0.782315 0.926711
0.943648 0.777935 0.951614
0.278721 0.725704 0.750515
0.278172 0.724575 0.750668
0.27985 0.72401 0.751171
0.327916 0.733761 0.768597
0.409735 0.74934 0.795514
0.540917 0.774609 0.839902
0.698192 0.80354 0.89073
0.84271 0.828428 0.93402
0.951843 0.830106 0.959289
0.288441 0.788785 0.77557
0.288075 0.787793 0.775067
0.294896 0.788159 0.777111
0.339864 0.796841 0.791043
0.400381 0.808286 0.811826
0.507195 0.82707 0.844541
0.654108 0.852033 0.890471
0.826413 0.877272 0.938659
0.96466 0.886931 0.969741
0.29807 0.872816 0.802655
0.304845 0.875257 0.806745
0.331975 0.881987 0.8159
0.360113 0.891463 0.825422
0.395377 0.901015 0.836606
0.455726 0.91725 0.856535
0.563165 0.941482 0.889174
0.729732 0.964706 0.932113
0.998856 0.999451 0.999176
