app/src/main/assets/luts/eterna.cube
TITLE "Generated by Resolve"
LUT_3D_SIZE 9
0.00585946 0.00585946 0.00585946
0.102068 0.0107271 0.0185245
0.167285 0.0207065 0.0251621
0.244007 0.0430762 0.0334783
0.345586 0.0662089 0.0446479
0.484306 0.0942397 0.0600443
0.613901 0.122789 0.0747845
0.747158 0.156435 0.0882887
0.898512 0.194354 0.104372
0.0388952 0.123659 0.0184482
0.129259 0.129564 0.0119936
0.194415 0.135195 0.0126497
0.274403 0.143404 0.0212711
0.371603 0.157351 0.0325933
0.485863 0.172961 0.0476387
0.61033 0.193866 0.0620279
0.744411 0.21976 0.0773022
0.897902 0.255879 0.0941482
0.0851453 0.210361 0.0347753
0.155077 0.211627 0.0248417
0.213718 0.21387 0.0188296
0.289906 0.219059 0.0157778
0.384771 0.228305 0.0237736
0.496468 0.24097 0.0370184
0.616175 0.260517 0.0514076
0.74905 0.285389 0.0675822
0.899275 0.320043 0.0836652
0.134066 0.311513 0.0646677
0.18819 0.309926 0.0615549
0.244419 0.311833 0.0552987
0.318044 0.315969 0.0458991
0.409277 0.322469 0.0361028
0.515938 0.334035 0.0316625
0.633585 0.35111 0.0395819
0.761898 0.374945 0.054139
0.904921 0.407919 0.0727703
0.183291 0.444694 0.0918898
0.231296 0.444053 0.0887465
0.28481 0.442695 0.0848707
0.358923 0.444236 0.084062
0.449378 0.447929 0.0753033
0.550271 0.458061 0.066743
0.660014 0.472801 0.040177
0.778088 0.491783 0.0412757
0.917922 0.515755 0.0644999
0.23621 0.601434 0.120562
0.280842 0.597925 0.118791
0.333425 0.596841 0.117464
0.406409 0.596384 0.115709
0.491966 0.597391 0.112947
0.586984 0.601205 0.107103
0.688106 0.607828 0.0936751
0.798795 0.619562 0.0485695
0.924178 0.630793 0.0605478
0.285939 0.753368 0.160601
0.326818 0.751812 0.158785
0.378759 0.749508 0.157641
0.447364 0.747295 0.158846
0.529458 0.746365 0.158984
0.61825 0.747738 0.154131
0.716167 0.747921 0.144579
0.824018 0.750637 0.10692
0.92604 0.749874 0.0564279
0.303166 0.903471 0.203845
0.340993 0.902235 0.204257
0.391363 0.901274 0.20473
0.455833 0.900282 0.206134
0.535393 0.898116 0.208011
0.625147 0.895674 0.206806
0.721843 0.895171 0.200763
0.832258 0.891203 0.180148
0.929046 0.869886 0.0691691
0.282643 0.999924 0.295689
0.30486 0.999756 0.297169
0.331121 0.999496 0.299458
0.369512 0.999603 0.302235
0.420584 0.999725 0.308858
0.485939 0.999451 0.319524
0.566354 0.999695 0.335317
0.671473 0.999985 0.349584
0.894179 0.999329 0.308598
0.00970474 0.0134585 0.0958724
0.116243 0.0203403 0.108415
0.188632 0.0364538 0.118929
0.274922 0.0554055 0.12665
0.385748 0.0791791 0.129534
0.518517 0.101869 0.12752
0.637873 0.130983 0.112123
0.766278 0.163455 0.0953994
0.91284 0.199695 0.105653
0.0362249 0.138872 0.136324
0.141436 0.142611 0.141085
0.212497 0.146181 0.14107
0.29688 0.152804 0.140291
0.399084 0.165011 0.14229
0.512734 0.178622 0.141772
0.634409 0.200275 0.130343
0.763119 0.226917 0.101228
0.910216 0.259434 0.0956436
0.0768597 0.225879 0.155138
0.161913 0.223926 0.156146
0.227451 0.224674 0.153933
0.310079 0.229755 0.154421
0.407965 0.238224 0.155306
0.520821 0.249729 0.152056
0.639078 0.268421 0.145418
0.765393 0.2925 0.113787
0.910796 0.324987 0.083711
0.13193 0.326894 0.174228
0.193545 0.324147 0.171191
0.2551 0.324086 0.170214
0.333486 0.326635 0.169986
0.430198 0.331868 0.168002
0.538033 0.342031 0.167636
0.654292 0.358984 0.16083
0.778393 0.381415 0.13611
0.911727 0.41181 0.0728313
0.184024 0.458869 0.193118
0.236179 0.455726 0.190082
0.292058 0.454139 0.188647
0.369863 0.453605 0.187106
0.461555 0.456641 0.185992
0.56669 0.464622 0.183215
0.676249 0.476204 0.174044
0.791363 0.494148 0.154589
0.922805 0.517418 0.0803998
0.234867 0.607584 0.215656
0.282948 0.605264 0.214069
0.336965 0.60264 0.211078
0.413062 0.600229 0.209766
0.501335 0.601251 0.208484
0.595514 0.602701 0.205585
0.698497 0.607935 0.198444
0.811536 0.617655 0.180041
0.927413 0.62945 0.0924697
0.282307 0.75407 0.248692
0.325338 0.750912 0.246799
0.377798 0.747921 0.245396
0.449866 0.745693 0.244709
0.532692 0.744869 0.242023
0.62475 0.745373 0.238117
0.722148 0.744945 0.227863
0.831449 0.746624 0.20705
0.929381 0.745861 0.122728
0.297322 0.898939 0.284459
0.337423 0.898054 0.282856
0.386816 0.897002 0.278737
0.453986 0.894911 0.279545
0.537102 0.892485 0.280949
0.62797 0.891264 0.277653
0.725704 0.890272 0.270588
0.836362 0.886091 0.247303
0.935622 0.862806 0.178531
0.275334 0.999542 0.335256
0.300145 0.99971 0.338109
0.328008 0.99913 0.339696
0.366629 0.99884 0.341711
0.419974 0.99913 0.34789
0.485756 0.999771 0.354849
0.566201 0.999649 0.367926
0.67425 0.999313 0.377737
0.90045 0.999756 0.333333
0.0126345 0.0246586 0.146517
0.126528 0.0350958 0.169711
0.203784 0.0527199 0.184314
0.297795 0.0724956 0.199405
0.419333 0.0919661 0.215518
0.546029 0.113436 0.225864
0.665339 0.141207 0.229404
0.791485 0.171893 0.222766
0.926131 0.206867 0.177707
0.0332036 0.155566 0.207233
0.147707 0.157488 0.216495
0.225101 0.16051 0.220447
0.314199 0.16614 0.22298
0.421088 0.176104 0.229404
0.537163 0.191058 0.235004
0.658656 0.208453 0.236622
0.786664 0.233982 0.230686
0.926497 0.266163 0.189502
0.0688945 0.242771 0.239445
0.165911 0.239155 0.238468
0.238361 0.239628 0.238178
0.323217 0.243183 0.23714
0.427802 0.248966 0.240131
0.539879 0.261082 0.243854
0.661494 0.278325 0.244556
0.78793 0.300237 0.237537
0.923796 0.329519 0.197681
0.128191 0.345129 0.26157
0.197803 0.341405 0.260105
0.262959 0.339712 0.256535
0.345357 0.340871 0.255604
0.446067 0.34638 0.255726
0.557092 0.354864 0.256077
0.672618 0.369055 0.25391
0.794873 0.389654 0.24332
0.92459 0.41648 0.207126
0.181292 0.474601 0.283436
0.23772 0.470832 0.280797
0.298314 0.46862 0.27834
0.378851 0.467018 0.275029
0.475807 0.469017 0.273625
0.579782 0.47483 0.270329
0.68925 0.484169 0.265553
0.8047 0.499001 0.252888
0.932265 0.517983 0.212192
0.233173 0.615564 0.309911
0.282963 0.613016 0.305745
0.339406 0.609705 0.301305
0.416785 0.607141 0.298177
0.507942 0.60557 0.29572
0.605936 0.60766 0.291768
0.708431 0.611261 0.284566
0.820645 0.61886 0.266499
0.93431 0.626734 0.215335
0.278035 0.753933 0.339086
0.323064 0.752194 0.336965
0.377691 0.749508 0.332723
0.451789 0.746334 0.331319
0.536965 0.744549 0.325734
0.629175 0.744381 0.319432
0.728099 0.744259 0.307805
0.838666 0.743984 0.287861
0.935073 0.741039 0.230304
0.289357 0.894713 0.362615
0.332036 0.894011 0.360891
0.38291 0.892927 0.361212
0.452506 0.88986 0.359716
0.536583 0.888838 0.357244
0.629969 0.887282 0.35172
0.728481 0.885649 0.340764
0.840864 0.881529 0.316793
0.939391 0.856535 0.251408
0.260166 0.997238 0.373266
0.287419 0.997192 0.376303
0.319783 0.99704 0.380041
0.364446 0.997559 0.384726
0.41886 0.998856 0.389624
0.484993 0.999237 0.394034
0.567193 0.999893 0.402853
0.675288 0.999329 0.411063
0.907408 0.999893 0.36112
0.0186465 0.0426337 0.199222
0.141909 0.0564736 0.230991
0.221241 0.074403 0.252918
0.323293 0.0907607 0.278294
0.454078 0.10779 0.304372
0.57406 0.130785 0.316075
0.69369 0.156954 0.326513
0.816815 0.185245 0.329152
0.940032 0.217563 0.310231
0.0342412 0.174243 0.29424
0.153964 0.175723 0.308568
0.237461 0.178347 0.310918
0.333898 0.183246 0.315389
0.446174 0.192432 0.322667
0.564874 0.207126 0.33048
0.685374 0.224033 0.335836
0.811261 0.247517 0.335668
0.942916 0.276112 0.314809
0.0551156 0.264256 0.338323
0.169772 0.259892 0.339117
0.248188 0.258595 0.335927
0.341268 0.261646 0.335744
0.450446 0.268223 0.339284
0.566522 0.278355 0.343359
0.68571 0.292714 0.345785
0.809979 0.313787 0.341726
0.933944 0.34049 0.316121
0.119066 0.36965 0.37026
0.200961 0.36556 0.366506
0.27158 0.362325 0.363134
0.359884 0.361975 0.359945
0.465141 0.365179 0.358709
0.577981 0.372015 0.359121
0.692561 0.384054 0.356344
0.811032 0.401007 0.347585
0.934417 0.425452 0.319768
0.177752 0.496818 0.39707
0.239826 0.491264 0.392203
0.305028 0.488258 0.3879
0.389792 0.486885 0.385428
0.490196 0.485039 0.379797
0.596597 0.48893 0.37528
0.703365 0.496178 0.368917
0.817792 0.507225 0.35848
0.939147 0.523003 0.322545
0.225589 0.627634 0.419226
0.280369 0.62414 0.41561
0.339971 0.61973 0.411719
0.422232 0.616815 0.408103
0.516884 0.614908 0.404135
0.617258 0.614786 0.397391
0.720256 0.61799 0.387472
0.833448 0.622538 0.370092
0.939757 0.6262 0.32047
0.268345 0.75668 0.441733
0.317556 0.753201 0.439292
0.37351 0.750408 0.436759
0.449973 0.747356 0.434012
0.538659 0.746136 0.428931
0.634119 0.744137 0.420066
0.735164 0.742885 0.407065
0.847074 0.743618 0.387289
0.941268 0.73724 0.329076
0.274784 0.890043 0.451621
0.31928 0.889036 0.450538
0.373281 0.887175 0.450141
0.446967 0.885176 0.449805
0.534127 0.88307 0.44651
0.630686 0.882063 0.442206
0.731212 0.880217 0.429755
0.845243 0.875761 0.402289
0.944518 0.849668 0.333669
0.236439 0.995468 0.42237
0.267063 0.995514 0.425071
0.302617 0.996155 0.427375
0.349813 0.995544 0.431098
0.414511 0.996368 0.440482
0.484672 0.997986 0.444739
0.568399 0.998672 0.449317
0.678065 0.999695 0.451453
0.918563 0.999374 0.398871
0.0294804 0.0698253 0.26891
0.156115 0.0833448 0.309499
0.242573 0.096437 0.340352
0.355459 0.112764 0.377646
0.487846 0.132082 0.408988
0.606928 0.154009 0.42443
0.724147 0.177234 0.438117
0.845548 0.203677 0.445853
0.951904 0.233494 0.430198
0.0340887 0.19971 0.408637
0.158862 0.200717 0.425361
0.252293 0.20177 0.426871
0.355612 0.205859 0.430167
0.474845 0.215213 0.437995
0.595728 0.227222 0.447196
0.713954 0.24564 0.45301
0.836591 0.266423 0.456153
0.953719 0.29099 0.435721
0.0511025 0.293004 0.461524
0.174014 0.287739 0.460838
0.260365 0.285771 0.459831
0.360678 0.287846 0.458457
0.476097 0.292409 0.461494
0.595026 0.30106 0.466011
0.712703 0.314931 0.466148
0.832654 0.331472 0.463203
0.944411 0.355108 0.437705
0.103822 0.402197 0.493645
0.199603 0.395865 0.490852
0.279133 0.39202 0.487587
0.375341 0.389639 0.48632
0.487175 0.390616 0.483757
0.602945 0.396674 0.483101
0.714214 0.405783 0.479774
0.828336 0.419562 0.470527
0.944579 0.436652 0.442237
0.163912 0.521843 0.517266
0.234836 0.516915 0.512886
0.307332 0.511803 0.51136
0.397742 0.508537 0.506188
0.504509 0.506004 0.504494
0.611749 0.507637 0.499229
0.71986 0.512428 0.491859
0.833875 0.520897 0.478813
0.946197 0.528649 0.441459
0.212573 0.642893 0.532876
0.272297 0.638209 0.530266
0.337713 0.633692 0.527504
0.424872 0.629511 0.524895
0.52372 0.627344 0.521859
0.627802 0.625834 0.51635
0.732387 0.626291 0.505928
0.844373 0.627527 0.488075
0.946166 0.629313 0.437568
0.250858 0.759884 0.543816
0.303838 0.756924 0.542397
0.364752 0.754665 0.541131
0.444953 0.751949 0.538903
0.539345 0.748699 0.536217
0.640894 0.746822 0.530312
0.74345 0.744854 0.51899
0.857221 0.743526 0.498161
0.947616 0.733074 0.437613
0.252216 0.884978 0.541329
0.300938 0.883528 0.541176
0.357351 0.881682 0.540917
0.434424 0.879713 0.541283
0.526909 0.878401 0.539956
0.627771 0.877104 0.536873
0.733684 0.875013 0.525658
0.851789 0.869673 0.500862
0.949157 0.841291 0.429435
0.198032 0.993561 0.480629
0.234012 0.994064 0.481209
0.273548 0.994079 0.482368
0.327153 0.993942 0.485222
0.395178 0.99559 0.490318
0.482216 0.995804 0.502129
0.56997 0.997269 0.504814
0.680201 0.999359 0.502953
0.934264 0.999802 0.446174
0.0431373 0.0973373 0.366934
0.173541 0.113542 0.419348
0.267964 0.127977 0.462776
0.3935 0.145693 0.513634
0.525414 0.162646 0.544045
0.64448 0.182544 0.562173
0.758648 0.204715 0.577096
0.874388 0.228687 0.585168
0.961364 0.254536 0.570321
0.0390173 0.237034 0.552163
0.163073 0.234897 0.5608
0.267201 0.23505 0.563287
0.382406 0.238697 0.568887
0.508339 0.247105 0.578546
0.62945 0.257771 0.587457
0.746899 0.273198 0.59498
0.862684 0.290822 0.594095
0.957931 0.312535 0.574517
0.0463569 0.333349 0.591928
0.167056 0.327077 0.594324
0.268391 0.323201 0.594751
0.379873 0.322698 0.597513
0.50251 0.325689 0.6009
0.62359 0.332891 0.604349
0.739895 0.342473 0.605127
0.853223 0.357702 0.599542
0.954803 0.375097 0.577707
0.0734112 0.441932 0.614237
0.189258 0.435218 0.617731
0.279866 0.429435 0.616907
0.386069 0.425544 0.617105
0.506493 0.425116 0.619638
0.623346 0.426764 0.617182
0.734615 0.432273 0.612024
0.848173 0.441642 0.605051
0.953735 0.452796 0.578546
0.121538 0.551644 0.631052
0.219867 0.545769 0.631846
0.300999 0.53962 0.633539
0.401205 0.535561 0.631571
0.513726 0.532738 0.630137
0.627222 0.531777 0.627802
0.738003 0.53344 0.621698
0.851575 0.536583 0.610071
0.953445 0.540017 0.575906
0.178195 0.66038 0.641154
0.251484 0.655329 0.640833
0.327337 0.650645 0.64268
0.421393 0.646693 0.641032
0.527382 0.642344 0.63917
0.636927 0.639506 0.636851
0.744167 0.638773 0.627894
0.857847 0.637232 0.613947
0.953002 0.634287 0.570535
0.217075 0.766171 0.64477
0.279255 0.763272 0.645548
0.344884 0.760159 0.64477
0.432197 0.756649 0.644526
0.534874 0.75314 0.643412
0.642405 0.751156 0.640772
0.749554 0.748837 0.633051
0.865324 0.746105 0.617227
0.954559 0.730236 0.562905
0.209613 0.87895 0.6271
0.266423 0.877607 0.629618
0.328267 0.87538 0.631418
0.412055 0.873167 0.633539
0.51017 0.872251 0.633112
0.619593 0.870802 0.632166
0.732784 0.868376 0.625177
0.854704 0.863478 0.604349
0.956176 0.832059 0.538857
0.119036 0.991455 0.541314
0.1729 0.991424 0.543816
0.227771 0.991531 0.545403
0.290288 0.991943 0.547906
0.365316 0.992874 0.550256
0.459831 0.993774 0.555673
0.56733 0.995315 0.567514
0.683253 0.997818 0.563195
0.950317 0.999634 0.499092
0.0484321 0.138323 0.51165
0.189166 0.15375 0.572137
0.296452 0.171572 0.626307
0.435386 0.190692 0.681743
0.564095 0.20705 0.701122
0.68275 0.224704 0.71754
0.792599 0.244526 0.729671
0.89987 0.267231 0.732692
0.966049 0.287556 0.716976
0.048249 0.291432 0.703334
0.143847 0.286198 0.703502
0.273533 0.286412 0.710872
0.404334 0.287709 0.720043
0.538842 0.292378 0.729885
0.661936 0.301625 0.736873
0.776257 0.313466 0.742275
0.886259 0.330312 0.740871
0.964523 0.344045 0.722103
0.0512398 0.388952 0.724834
0.131792 0.382147 0.725277
0.260975 0.377859 0.73106
0.388403 0.374731 0.737881
0.524117 0.373404 0.745022
0.649439 0.377325 0.74815
0.762005 0.385214 0.747158
0.874311 0.394675 0.743465
0.962036 0.404074 0.72224
0.0538949 0.490867 0.737758
0.139834 0.483604 0.739559
0.261173 0.477394 0.745739
0.384115 0.472175 0.750744
0.515084 0.469184 0.753246
0.638666 0.468574 0.75346
0.75378 0.469978 0.7514
0.8663 0.473198 0.74493
0.961212 0.476127 0.722087
0.0603189 0.587564 0.743023
0.165728 0.581888 0.748058
0.272175 0.576837 0.752102
0.388617 0.570962 0.75436
0.513848 0.566293 0.755474
0.636454 0.562722 0.75639
0.750866 0.560113 0.75285
0.864576 0.558785 0.745235
0.960571 0.556359 0.716518
0.082414 0.681041 0.740948
0.204974 0.675853 0.751308
0.291737 0.671595 0.753918
0.39765 0.667048 0.754665
0.517632 0.662287 0.757
0.636988 0.658091 0.758053
0.753368 0.654673 0.754345
0.868605 0.651484 0.743908
0.9608 0.641932 0.706767
0.127779 0.774395 0.739528
0.219776 0.771603 0.743938
0.300633 0.76849 0.748867
0.399435 0.765286 0.751354
0.515053 0.762707 0.755581
0.635325 0.758404 0.756466
0.751766 0.754192 0.752422
0.871748 0.748302 0.738811
0.961227 0.727474 0.687617
0.102129 0.871153 0.708598
0.191897 0.868696 0.715496
0.271031 0.867124 0.719524
0.364553 0.865644 0.723339
0.475715 0.86479 0.728115
0.59765 0.86334 0.731182
0.722866 0.861906 0.728344
0.855085 0.855604 0.713252
0.962829 0.822385 0.655451
0.0834058 0.987671 0.623117
0.0821698 0.988388 0.617182
0.125689 0.988602 0.615518
0.221546 0.988571 0.620722
0.313054 0.989487 0.622827
0.419104 0.990585 0.624399
0.544472 0.992126 0.630198
0.684337 0.995621 0.638529
0.964691 0.999725 0.567819
0.049012 0.206729 0.710384
0.180835 0.228443 0.769329
0.307393 0.252293 0.824567
0.454032 0.267567 0.854185
0.593576 0.280583 0.87158
0.713527 0.29543 0.885466
0.818189 0.313588 0.890562
0.921874 0.330678 0.891951
0.970748 0.344457 0.870604
0.0582742 0.377478 0.854582
0.0744488 0.36994 0.846387
0.237949 0.367742 0.861143
0.395865 0.366232 0.875792
0.550027 0.369436 0.888716
0.681193 0.374945 0.894575
0.795285 0.383551 0.897108
0.901839 0.391501 0.89453
0.969696 0.396506 0.877043
0.0611276 0.468589 0.868849
0.0610971 0.460868 0.85948
0.192569 0.454093 0.869078
0.358267 0.4495 0.883024
0.517281 0.447379 0.891676
0.656733 0.447196 0.897078
0.777279 0.448035 0.898344
0.888823 0.451652 0.894392
0.968963 0.450294 0.876081
0.0623178 0.553933 0.875212
0.0626993 0.54696 0.867674
0.16733 0.540246 0.873991
0.333425 0.534524 0.884901
0.493187 0.528847 0.890379
0.637186 0.525719 0.89633
0.761547 0.523186 0.898009
0.87895 0.521614 0.894896
0.969192 0.514076 0.873304
0.0632639 0.633082 0.87602
0.0637522 0.627619 0.869368
0.169223 0.622309 0.874357
0.324086 0.616007 0.882765
0.476524 0.609796 0.888609
0.623682 0.605371 0.894957
0.751202 0.601129 0.896056
0.872755 0.59556 0.891386
0.969177 0.578592 0.866758
0.066743 0.705242 0.864881
0.0788739 0.701747 0.861753
0.164904 0.697353 0.865171
0.315175 0.692103 0.874617
0.46363 0.687175 0.882811
0.609262 0.683207 0.888869
0.742046 0.677226 0.890593
0.868177 0.668696 0.884108
0.969039 0.649439 0.852323
0.0735637 0.775235 0.849714
0.0832074 0.773114 0.845777
0.14342 0.770535 0.847227
0.293248 0.767132 0.858671
0.43595 0.763729 0.867475
0.587488 0.759548 0.873808
0.725841 0.755978 0.876997
0.860029 0.747677 0.86894
0.969482 0.725399 0.827695
0.081178 0.858015 0.820798
0.0805524 0.856397 0.81529
0.108751 0.854002 0.814755
0.245655 0.852995 0.824369
0.382315 0.852003 0.833158
0.53341 0.850675 0.842145
0.68716 0.849454 0.84651
0.84094 0.843931 0.840879
0.971542 0.813718 0.791882
0.0911879 0.982452 0.744961
0.0901808 0.983124 0.73785
0.0900435 0.98436 0.73138
0.0894636 0.984115 0.719356
0.155184 0.984466 0.71313
0.31751 0.985931 0.718395
0.476631 0.988373 0.72108
0.66685 0.993362 0.728023
0.974884 0.999863 0.674617
0.0649424 0.391135 0.96202
0.0651713 0.419318 0.958465
0.0987259 0.427192 0.961395
0.318791 0.435019 0.992432
0.508385 0.443503 0.999847
0.663859 0.452262 0.999283
0.786465 0.459785 0.999146
0.895613 0.462547 0.99971
0.977981 0.456901 0.999603
0.0651102 0.501045 0.944808
0.0648966 0.49987 0.944686
0.0654917 0.500908 0.944442
0.157031 0.501564 0.95729
0.396689 0.505333 0.986084
0.585473 0.509544 0.999802
0.736477 0.509636 0.999146
0.864393 0.507195 0.999588
0.978469 0.496406 0.999863
0.0668803 0.551675 0.935347
0.0659648 0.549996 0.936645
0.0664683 0.549416 0.936294
0.0693065 0.548547 0.936065
0.312047 0.549859 0.966934
0.521889 0.553506 0.991577
0.691752 0.553368 0.999588
0.837522 0.547341 0.999664
0.965805 0.533471 0.999649
0.0661326 0.599374 0.927413
0.0662699 0.59855 0.927382
0.0664836 0.597162 0.928176
0.0665599 0.595041 0.927947
0.232486 0.594079 0.94995
0.457252 0.596796 0.974685
0.645075 0.599893 0.997665
0.803815 0.593622 0.999863
0.955062 0.577188 0.99968
0.0677195 0.644724 0.919234
0.0669261 0.644175 0.918563
0.0663005 0.643275 0.921065
0.0663767 0.641321 0.92079
0.141222 0.639353 0.928084
0.392737 0.639704 0.957732
0.600504 0.642969 0.984146
0.771862 0.639704 0.999969
0.945129 0.621759 0.999802
0.0695964 0.690044 0.908721
0.0696269 0.688334 0.908415
0.0689097 0.687724 0.908537
0.0689555 0.685985 0.909194
0.0877089 0.683848 0.912428
0.320653 0.682124 0.939529
0.552926 0.684001 0.970062
0.744457 0.687022 0.995468
0.937713 0.670253 0.999268
0.0736248 0.739544 0.896956
0.0736858 0.738125 0.897215
0.0729686 0.737331 0.897505
0.0734112 0.735973 0.897612
0.0740368 0.733013 0.898421
0.230411 0.730617 0.919066
0.496696 0.731395 0.952926
0.717784 0.736126 0.983673
0.940688 0.724498 0.999619
0.0811627 0.809216 0.882948
0.0809491 0.808194 0.882704
0.0800336 0.807523 0.882963
0.0803845 0.804959 0.884092
0.0801862 0.801617 0.884276
0.0959487 0.79884 0.88751
0.398535 0.795972 0.927504
0.674632 0.798032 0.966995
0.959182 0.793957 0.999847
0.0967422 0.946624 0.858274
0.0974899 0.94815 0.857984
0.0966812 0.949706 0.856992
0.096788 0.953033 0.858015
0.0985885 0.957641 0.856413
0.0992752 0.965362 0.855528
0.109773 0.975418 0.854475
0.424872 0.981476 0.900938
0.994141 0.996536 0.995178
