app/src/main/assets/luts/eternableachbypass.cube
TITLE "Generated by Resolve"
LUT_3D_SIZE 5
0 0 0
0.0854505 0.019028 0.0166018
0.219699 0.0547951 0.0443885
0.438697 0.0864271 0.0793011
0.616251 0.166644 0.151171
0.0790875 0.134813 0.0703746
0.140948 0.143114 0.0722362
0.278157 0.158465 0.0817273
0.471382 0.192966 0.126131
0.680735 0.31873 0.225742
0.203418 0.383154 0.191424
0.26772 0.387671 0.20351
0.406287 0.411948 0.236027
0.618723 0.480171 0.297459
0.829114 0.594369 0.379309
0.430686 0.734829 0.401419
0.500175 0.749004 0.411749
0.623011 0.775021 0.434928
0.789059 0.812467 0.463722
0.932555 0.842252 0.472511
0.554604 0.921889 0.590112
0.584421 0.927581 0.592554
0.642496 0.938979 0.603555
0.742596 0.953445 0.628733
0.934035 0.974746 0.633295
0.0125124 0.0157168 0.0598001
0.112993 0.0465858 0.0942245
0.286 0.0788128 0.13344
0.483787 0.112642 0.170642
0.646555 0.199405 0.237369
0.0996567 0.169223 0.168627
0.172549 0.173144 0.172396
0.325582 0.187137 0.187686
0.523735 0.233982 0.235431
0.717693 0.353689 0.324025
0.237461 0.42858 0.308553
0.307012 0.430503 0.311818
0.452094 0.45417 0.335943
0.665446 0.516579 0.387976
0.855344 0.609873 0.451621
0.442481 0.749294 0.510246
0.512398 0.762005 0.517708
0.637827 0.786114 0.532021
0.802396 0.818143 0.546105
0.940459 0.839811 0.528252
0.545388 0.923262 0.636957
0.582849 0.92987 0.643931
0.645533 0.941848 0.653864
0.747463 0.955718 0.67306
0.940291 0.976379 0.667292
0.0451514 0.047776 0.131624
0.153231 0.0801709 0.191882
0.354467 0.116732 0.263233
0.546319 0.164416 0.316777
0.702541 0.259419 0.389609
0.136797 0.229343 0.348486
0.223346 0.231968 0.343648
0.392752 0.256077 0.363561
0.595865 0.315847 0.413764
0.779293 0.420844 0.485832
0.288762 0.498848 0.493996
0.368353 0.502525 0.497292
0.524224 0.525017 0.523781
0.730312 0.575814 0.567208
0.893935 0.637613 0.593759
0.450233 0.772274 0.649012
0.526375 0.783215 0.656931
0.65742 0.80412 0.674144
0.822416 0.830259 0.683955
0.956924 0.83978 0.648569
0.523156 0.923552 0.704005
0.56379 0.931426 0.70927
0.639078 0.945449 0.720653
0.754391 0.95877 0.739422
0.95314 0.980072 0.721096
0.101732 0.102998 0.335195
0.235859 0.143099 0.428305
0.459281 0.19408 0.498695
0.645899 0.267628 0.559396
0.786557 0.364462 0.627161
0.194903 0.342916 0.557961
0.306203 0.349966 0.566751
0.502647 0.38146 0.603662
0.710857 0.444327 0.665324
0.85803 0.514336 0.712489
0.325612 0.585138 0.663569
0.424063 0.592157 0.682277
0.596155 0.616587 0.722545
0.790494 0.653117 0.772107
0.924102 0.681575 0.787655
0.436896 0.792828 0.763729
0.523476 0.805631 0.784848
0.667765 0.826856 0.815305
0.844633 0.846098 0.844312
0.966461 0.838148 0.814817
0.472221 0.920409 0.780789
0.517952 0.927962 0.786648
0.604898 0.943633 0.799191
0.74931 0.961975 0.818494
0.970016 0.985092 0.796384
0.22211 0.323339 0.643778
0.327184 0.379904 0.672343
0.588754 0.453086 0.75671
0.788525 0.523095 0.835523
0.897505 0.556466 0.879118
0.278798 0.519738 0.697505
0.281697 0.518242 0.697261
0.515312 0.566461 0.769543
0.772564 0.623941 0.863874
0.920577 0.637385 0.911925
0.290974 0.632013 0.729152
0.29688 0.629786 0.730617
0.46389 0.659663 0.782269
0.741268 0.718029 0.881575
0.934905 0.728771 0.939025
0.278721 0.725704 0.750515
0.27985 0.72401 0.751171
0.409735 0.74934 0.795514
0.698192 0.80354 0.89073
0.951843 0.830106 0.959289
0.29807 0.872816 0.802655
0.331975 0.881987 0.8159
0.395377 0.901015 0.836606
0.563165 0.941482 0.889174
0.998856 0.999451 0.999176
