app/src/main/assets/luts/Fuji-PROVIA.cube
TITLE "Generated by Resolve"
LUT_3D_SIZE 5
0 0 0
0.15024 0.0100557 0.00770581
0.407736 0.031281 0.0232395
0.745281 0.0539254 0.05243
0.999512 0.095491 0.180285
0.0101778 0.183764 0.000381476
0.184588 0.186328 0.000274662
0.439872 0.199237 0.000167849
0.737881 0.227588 0.000366217
0.999298 0.266285 0.100511
0.0165408 0.482307 0.00015259
0.193591 0.476081 0.000381476
0.458152 0.472724 7.62951e-05
0.756619 0.479393 0
0.999237 0.491493 0.0393988
1.5259e-05 0.828428 0.00030518
0.0755322 0.820737 0.000564584
0.400504 0.803159 0.000244144
0.740017 0.788205 0
0.999146 0.766323 0.0231937
0 0.999908 0.00575265
0 0.999893 0.00500496
0 0.999954 0.00788891
0.0112001 0.999786 0.0204776
0.892989 0.999603 0.0411994
0.00447089 0.00819409 0.112947
0.203937 0.0222782 0.152712
0.497765 0.0345769 0.2
0.800397 0.0584573 0.253285
0.999619 0.0949874 0.370245
0.00714122 0.223255 0.234775
0.213748 0.216251 0.214328
0.48632 0.218982 0.203387
0.782666 0.238193 0.222293
0.999283 0.264134 0.309926
0.0103609 0.505043 0.236881
0.199863 0.493538 0.210575
0.480156 0.483207 0.18233
0.776135 0.480308 0.182818
0.999344 0.484276 0.255222
0.000167849 0.819104 0.206912
0.0756847 0.809842 0.182589
0.405753 0.792096 0.149371
0.748074 0.775311 0.12845
0.999741 0.753628 0.207446
0 0.999405 0.142794
0.000122072 0.99968 0.145769
4.57771e-05 0.999435 0.144686
0.0117342 0.999725 0.142031
0.909972 0.999741 0.128634
0.0267033 0.0253758 0.295949
0.264912 0.0387427 0.387671
0.58378 0.050721 0.480369
0.856901 0.0792859 0.529061
0.999847 0.114656 0.617685
0.00453193 0.279194 0.554208
0.241901 0.262898 0.52726
0.538293 0.258442 0.508812
0.826886 0.265034 0.511803
0.999985 0.279698 0.563668
0.00563058 0.540398 0.571221
0.197787 0.523812 0.540352
0.503182 0.504631 0.503624
0.79649 0.49369 0.477852
0.999649 0.486458 0.511162
7.62951e-05 0.818189 0.538338
0.0636912 0.807721 0.511284
0.405447 0.787732 0.467964
0.757671 0.767559 0.428885
0.9991 0.73904 0.450645
1.5259e-05 0.999527 0.353826
4.57771e-05 0.999924 0.342672
0 0.999954 0.330678
0.00665293 0.999649 0.321965
0.942016 0.999695 0.269001
0.0616922 0.0693523 0.637385
0.352468 0.0884871 0.777539
0.664988 0.11043 0.84596
0.912077 0.137774 0.8663
0.999786 0.168276 0.899321
0.000350958 0.365011 0.918593
0.250538 0.344884 0.896071
0.584405 0.324865 0.870573
0.862562 0.317983 0.850172
0.999786 0.319646 0.860212
0.000350958 0.596704 0.920012
0.159976 0.577478 0.892653
0.510765 0.55021 0.851438
0.818509 0.528695 0.817838
0.999786 0.508293 0.812375
0.000183108 0.831556 0.879866
0.0154726 0.82237 0.861631
0.384863 0.799176 0.8177
0.767956 0.771893 0.76939
0.999603 0.725307 0.723171
0.000183108 0.999695 0.641047
0.000228885 0.99971 0.620981
0.000167849 0.999496 0.587228
0.000656138 0.999878 0.549279
0.975784 0.99971 0.447623
0.0641794 0.336782 0.999939
0.274754 0.361059 0.999725
0.661036 0.365118 0.999435
0.915724 0.365408 0.999588
0.999786 0.346563 0.999252
0.000411994 0.535164 0.999847
0.000289921 0.532387 0.999908
0.430976 0.513985 0.999756
0.803937 0.499931 0.999664
0.999847 0.448005 0.999512
0.000366217 0.654582 0.999954
0.000701915 0.652308 0.999908
0.174395 0.638346 0.999741
0.684215 0.618891 0.999832
0.999725 0.564248 0.999786
0.000366217 0.771771 0.999969
0.000350958 0.770214 0.999603
7.62951e-05 0.763653 0.999695
0.512016 0.736446 0.999695
0.996521 0.696406 0.999939
0.000259403 0.968353 0.999786
4.57771e-05 0.971099 0.999985
0.000244144 0.976623 0.999985
0.00233463 0.988235 0.999939
0.99353 0.996414 0.995407
