app/src/main/assets/luts/Fuji-REALA.cube
TITLE "Generated by Resolve"
LUT_3D_SIZE 33
0 0 0
0.016022 0.00030518 1.5259e-05
0.0208286 0 0.000579843
0.0320897 0.000350958 0.000228885
0.043061 9.15541e-05 0.000335698
0.0540169 0.000244144 0.000259403
0.0686503 0.000549325 0.000320439
0.0839399 0.00077821 1.5259e-05
0.102235 4.57771e-05 9.15541e-05
0.125689 0.00115969 3.0518e-05
0.162356 0.0028687 7.62951e-05
0.202747 0.00300603 1.5259e-05
0.24892 0.00375372 0.000213626
0.2916 0.0037995 0.000228885
0.331807 0.00141909 1.5259e-05
0.3738 0.00352483 0.000213626
0.412375 0.00199893 0.00015259
0.452277 0.00196841 3.0518e-05
0.49044 0.000244144 7.62951e-05
0.527321 0.00117494 0.000106813
0.564736 0.00231937 0.000167849
0.59968 1.5259e-05 0.000411994
0.627924 0.0027924 0.000488289
0.659281 0.00433356 0.00144961
0.689662 0.0069276 0.00708019
0.721172 0.0201419 0.0183413
0.750942 0.0384833 0.0282444
0.781262 0.0536812 0.0413519
0.812573 0.0728008 0.0588388
0.83946 0.0985275 0.0804913
0.868894 0.137484 0.111269
0.895201 0.170886 0.145846
0.906722 0.18674 0.176669
0.00170901 0.0222019 0.000259403
0.0256046 0.0252232 0.000137331
0.0356146 0.0262608 0.000259403
0.0470436 0.027512 0.000228885
0.0613718 0.0281376 4.57771e-05
0.0790112 0.0299992 0.00030518
0.0989853 0.0321202 0.000167849
0.125154 0.0351873 0.00015259
0.155612 0.0374304 0.000183108
0.191135 0.0392309 0.00030518
0.226062 0.040177 0.000595102
0.260105 0.04065 0.000610361
0.297169 0.040528 0.000122072
0.332113 0.0390326 1.5259e-05
0.367971 0.0383001 4.57771e-05
0.4056 0.0381476 7.62951e-05
0.440986 0.038468 6.10361e-05
0.474189 0.0386511 4.57771e-05
0.508003 0.0390936 1.5259e-05
0.538705 0.0375219 0
0.569024 0.0371252 0
0.598901 0.0386969 0
0.629038 0.0423133 0
0.659312 0.0452583 6.10361e-05
0.690227 0.0518196 0.00355535
0.720378 0.0610513 0.00900282
0.751461 0.0725414 0.0226139
0.781552 0.0867323 0.035111
0.811093 0.102129 0.0510719
0.841016 0.121553 0.0716564
0.87013 0.152987 0.0987259
0.900572 0.190661 0.137697
0.910811 0.205173 0.165347
0.00343328 0.0347143 0.000198367
0.0291752 0.0392157 6.10361e-05
0.0404974 0.0410163 9.15541e-05
0.0549783 0.043061 7.62951e-05
0.072343 0.045594 4.57771e-05
0.090837 0.0479591 0.000183108
0.11429 0.0509346 0.000381476
0.143603 0.0535897 0.000381476
0.173068 0.055375 0.000122072
0.207965 0.0559243 0.000198367
0.243473 0.0562448 0.000396735
0.276295 0.0574655 0.000335698
0.309178 0.0581369 0
0.342641 0.0572213 1.5259e-05
0.376959 0.0561532 3.0518e-05
0.411185 0.054902 9.15541e-05
0.443946 0.0542916 0.000122072
0.4757 0.0552529 3.0518e-05
0.506889 0.0545357 0
0.537743 0.0536507 1.5259e-05
0.568292 0.0532387 3.0518e-05
0.598215 0.0548562 1.5259e-05
0.628763 0.0569924 0
0.6589 0.0596475 0
0.690425 0.0676585 0.00228885
0.720119 0.0770428 0.00675975
0.751369 0.0888685 0.0181277
0.781857 0.101244 0.0315099
0.811704 0.115114 0.0475471
0.841123 0.132891 0.0672618
0.871473 0.160204 0.0949416
0.902464 0.198825 0.134997
0.91194 0.21297 0.161166
0.00428778 0.0526589 0.000137331
0.037705 0.0581674 3.0518e-05
0.0503548 0.0606851 4.57771e-05
0.0687266 0.0652018 3.0518e-05
0.0865949 0.0676585 0.000442512
0.106798 0.0706493 0.000289921
0.132479 0.072694 0.000122072
0.16025 0.0728161 4.57771e-05
0.186557 0.0724804 0.00015259
0.21886 0.0745403 4.57771e-05
0.252018 0.076936 7.62951e-05
0.286183 0.0772869 0.00015259
0.319966 0.0761578 6.10361e-05
0.350515 0.0755169 6.10361e-05
0.384222 0.0745861 0.000366217
0.415534 0.0733196 0.000396735
0.442985 0.0735027 7.62951e-05
0.475776 0.073579 7.62951e-05
0.505821 0.0727703 0.000167849
0.536294 0.0717174 0.000228885
0.567742 0.0713512 7.62951e-05
0.598657 0.0734112 1.5259e-05
0.628016 0.0758679 0
0.659739 0.0789044 4.57771e-05
0.690211 0.0862287 0.000595102
0.720821 0.0957961 0.00491341
0.751293 0.106294 0.0146029
0.782238 0.116732 0.0278325
0.811887 0.128527 0.0428931
0.841337 0.146105 0.0628519
0.87248 0.170336 0.0915541
0.903166 0.207446 0.128985
0.913832 0.222141 0.157183
0.00939956 0.0805066 0.000183108
0.0446326 0.0851453 0.000244144
0.059205 0.0876936 0.000167849
0.0769665 0.0894331 0.000427253
0.0981765 0.0914931 0.000732433
0.121813 0.094255 0.000244144
0.146578 0.0949874 0.000167849
0.172076 0.0949111 0.000198367
0.200275 0.0954604 0.000167849
0.230381 0.096025 0.00030518
0.261067 0.0964523 0.000701915
0.293919 0.0970779 0.000411994
0.325521 0.0963455 0.000259403
0.356573 0.0961166 4.57771e-05
0.386816 0.0979934 0.000183108
0.416236 0.0969558 0.00030518
0.445853 0.0956283 0.000503548
0.47628 0.0939651 0.000320439
0.506218 0.0931563 0.000274662
0.537774 0.0935683 6.10361e-05
0.568276 0.0946212 1.5259e-05
0.598184 0.0959029 1.5259e-05
0.628641 0.0979934 6.10361e-05
0.659831 0.10071 1.5259e-05
0.690303 0.108003 0.000137331
0.72166 0.116472 0.0043183
0.752087 0.124956 0.011429
0.782574 0.134829 0.0236515
0.812726 0.147097 0.0396124
0.842527 0.16228 0.059968
0.874479 0.183261 0.0885634
0.904646 0.218418 0.122881
0.91725 0.234638 0.153674
0.0130159 0.107759 0.000411994
0.0508736 0.112291 0.000198367
0.0676432 0.113817 0.000183108
0.0845808 0.114641 0.000411994
0.10576 0.116869 0.000259403
0.128374 0.118669 0.000350958
0.153735 0.120134 0.000671397
0.18024 0.119554 0.000381476
0.208972 0.119585 0.000274662
0.237949 0.119112 0.000183108
0.268544 0.118608 0.000106813
0.298436 0.117845 0.000564584
0.32871 0.118074 0.000259403
0.356954 0.118685 3.0518e-05
0.38468 0.120287 0
0.41503 0.120195 0.000106813
0.445518 0.119326 0.000228885
0.475837 0.117449 0.000518807
0.507774 0.117098 0.000137331
0.537972 0.118379 0
0.568597 0.118654 0
0.599176 0.119417 1.5259e-05
0.62977 0.121004 0
0.660395 0.124361 0
0.691173 0.131518 0
0.722622 0.139467 0.00228885
0.75256 0.147372 0.00585946
0.782925 0.155505 0.0198825
0.813458 0.165682 0.0361181
0.844282 0.179553 0.0565347
0.875746 0.200473 0.0829938
0.906462 0.231373 0.117678
0.920653 0.248066 0.149813
0.0153353 0.138811 0.00015259
0.0545815 0.140978 0.000350958
0.0704814 0.1411 0.000167849
0.0877394 0.14226 0.000137331
0.10724 0.144793 0.000228885
0.131106 0.146532 0.000350958
0.157824 0.148196 0.000244144
0.185397 0.14844 0.000137331
0.214389 0.14522 9.15541e-05
0.242496 0.145052 0.000640879
0.270008 0.143999 0.000717174
0.297642 0.142245 0.000335698
0.32723 0.141848 0.000198367
0.354589 0.14255 0.00015259
0.382925 0.143664 0.000259403
0.413352 0.144106 0.000213626
0.444312 0.14316 0.000167849
0.47538 0.14197 3.0518e-05
0.507485 0.143389 9.15541e-05
0.537636 0.143969 0.00015259
0.568658 0.144854 0.000122072
0.600214 0.145068 4.57771e-05
0.631464 0.146441 0
0.663264 0.149538 0
0.692897 0.155856 0
0.72256 0.162509 0.000106813
0.754284 0.169467 0.00477607
0.784176 0.175677 0.0160525
0.815045 0.185092 0.0318303
0.846418 0.19852 0.0516213
0.878721 0.218448 0.0787671
0.90837 0.245121 0.114656
0.924331 0.264454 0.148775
0.0188144 0.16878 0.00030518
0.058793 0.170245 0.000122072
0.0744793 0.170932 0.000106813
0.0906691 0.171618 0.00030518
0.111009 0.173648 0.00047303
0.133593 0.175402 0.000534066
0.158145 0.17525 0.000320439
0.185672 0.175708 0.000366217
0.213596 0.175616 0.000366217
0.243915 0.173449 9.15541e-05
0.270359 0.172259 0.000244144
0.298222 0.171649 0.000244144
0.325795 0.171344 0
0.353491 0.170886 0.00047303
0.381796 0.170016 0.000579843
0.412924 0.169009 0.000106813
0.443229 0.167758 6.10361e-05
0.475013 0.16788 0.00030518
0.506508 0.168505 0.0009308
0.538094 0.171557 0.000656138
0.568673 0.172625 0.000350958
0.600168 0.172473 1.5259e-05
0.633082 0.173266 4.57771e-05
0.6636 0.17612 4.57771e-05
0.694987 0.180423 0
0.725246 0.186099 0
0.755703 0.192477 0.00383001
0.786725 0.198856 0.0107424
0.816815 0.207385 0.0277256
0.850416 0.218784 0.0485237
0.883696 0.2374 0.0766461
0.911299 0.261448 0.111116
0.928145 0.282155 0.145876
0.01944 0.201923 0.000137331
0.0594339 0.201541 0.000213626
0.0748302 0.201358 0.000320439
0.0931411 0.201465 0.000411994
0.113451 0.20177 0.000488289
0.135195 0.202014 0.00030518
0.158602 0.202335 0.000183108
0.185946 0.202976 0.000167849
0.214008 0.204227 7.62951e-05
0.242588 0.20473 4.57771e-05
0.271092 0.201785 3.0518e-05
0.29926 0.200107 0
0.326009 0.19942 0.000167849
0.35227 0.197162 0.000640879
0.382315 0.196185 0.000381476
0.411795 0.195499 0.000122072
0.442405 0.195346 3.0518e-05
0.472999 0.195605 0.000183108
0.505074 0.196109 0.000228885
0.53753 0.19646 9.15541e-05
0.569131 0.197375 1.5259e-05
0.600107 0.19823 1.5259e-05
0.632563 0.200366 0.000137331
0.665141 0.202152 0.000122072
0.696864 0.204929 0
0.727413 0.21091 1.5259e-05
0.757702 0.216434 0.00062562
0.788785 0.222995 0.00645457
0.820264 0.230457 0.0256657
0.853971 0.241123 0.044358
0.886976 0.25977 0.0710155
0.91577 0.282017 0.105684
0.932067 0.301259 0.141466
0.0252995 0.230961 0.000122072
0.0638285 0.229648 0.000381476
0.0795453 0.229313 0.000442512
0.0965286 0.229007 0.000518807
0.114412 0.229145 0.000259403
0.134493 0.229709 0
0.160403 0.230961 1.5259e-05
0.186481 0.231449 1.5259e-05
0.212802 0.231601 0
0.241566 0.230304 6.10361e-05
0.271519 0.229831 0.000122072
0.299306 0.230274 3.0518e-05
0.326238 0.227497 0.000244144
0.354055 0.224979 0.000381476
0.382528 0.225193 0.000320439
0.412131 0.224948 0.000183108
0.441321 0.22388 0
0.473213 0.224018 0
0.504677 0.223728 0.00015259
0.536812 0.223896 0.000503548
0.567163 0.22417 0.000198367
0.597848 0.225727 9.15541e-05
0.632029 0.227161 0.000335698
0.664698 0.228916 0.000137331
0.696696 0.230594 0
0.728084 0.234684 0
0.758755 0.240345 0.000366217
0.791196 0.247333 0.00761425
0.825116 0.255406 0.0218814
0.856916 0.265766 0.0397955
0.892088 0.282719 0.0662852
0.922103 0.305348 0.104036
0.936996 0.323049 0.138949
0.031632 0.259846 0.000259403
0.0652934 0.258137 0.00030518
0.0789044 0.258015 0.000183108
0.0962844 0.258076 0.000167849
0.115267 0.25835 0.00015259
0.136858 0.259022 0.000122072
0.16022 0.259876 0.000122072
0.186603 0.259373 0.000274662
0.214008 0.258625 0.000335698
0.2421 0.25864 0.000289921
0.270573 0.259586 0.000137331
0.300191 0.2607 1.5259e-05
0.329274 0.258503 4.57771e-05
0.357107 0.257053 1.5259e-05
0.384207 0.256672 0
0.412573 0.255222 3.0518e-05
0.443122 0.25452 4.57771e-05
0.474113 0.253819 6.10361e-05
0.505333 0.253681 0.000183108
0.536233 0.253498 0.000167849
0.567117 0.254108 6.10361e-05
0.600366 0.254719 6.10361e-05
0.633036 0.256519 4.57771e-05
0.664271 0.256413 4.57771e-05
0.696559 0.257435 7.62951e-05
0.728145 0.259342 9.15541e-05
0.76112 0.265858 6.10361e-05
0.793759 0.272526 0.00456245
0.827436 0.281086 0.0139467
0.862867 0.292241 0.0358892
0.898848 0.306493 0.0637522
0.930816 0.331884 0.106386
0.941787 0.345434 0.135576
0.0399939 0.289174 0.00138857
0.0711833 0.288899 6.10361e-05
0.0852064 0.288243 0.000106813
0.10071 0.288396 0.000167849
0.119677 0.288685 0.000137331
0.139391 0.288899 7.62951e-05
0.16347 0.288502 0.000259403
0.188983 0.288396 0.000427253
0.216297 0.288151 0.000610361
0.243839 0.288151 0.000671397
0.271962 0.28925 0.000549325
0.300557 0.289067 0.00030518
0.329305 0.289509 4.57771e-05
0.357168 0.288716 9.15541e-05
0.385962 0.287114 0.000122072
0.416007 0.285466 3.0518e-05
0.445045 0.285069 6.10361e-05
0.475349 0.285084 9.15541e-05
0.505928 0.284642 4.57771e-05
0.536126 0.28423 4.57771e-05
0.568261 0.283742 1.5259e-05
0.600732 0.283864 0.000167849
0.6336 0.284092 0.000213626
0.66537 0.28394 7.62951e-05
0.697002 0.285481 0.00015259
0.729595 0.287526 0.00015259
0.763897 0.290929 1.5259e-05
0.796338 0.297551 0.000228885
0.830259 0.306828 0.0106966
0.867323 0.318776 0.0311284
0.90428 0.331533 0.059617
0.939803 0.358816 0.107301
0.946334 0.369421 0.130022
0.0630198 0.320333 0.00271611
0.0861524 0.320775 0.00318914
0.0972305 0.3205 0.00306706
0.110948 0.319265 0.00233463
0.126207 0.318441 0.00149538
0.146014 0.318151 0.000946059
0.166522 0.317784 0.000167849
0.191241 0.317891 0.000396735
0.217304 0.318578 0.000518807
0.244907 0.318303 0.000518807
0.272679 0.318242 0.000457771
0.300526 0.319829 0.000274662
0.329213 0.320256 0.000167849
0.358846 0.320623 0.000106813
0.387961 0.319585 4.57771e-05
0.417395 0.317494 0
0.447868 0.31606 1.5259e-05
0.477287 0.31516 0.000137331
0.505623 0.314275 0.000213626
0.537331 0.314061 0.000198367
0.568536 0.313481 0.000244144
0.601633 0.313664 0.000213626
0.633494 0.313176 0.000122072
0.665232 0.313527 6.10361e-05
0.697658 0.314229 3.0518e-05
0.731258 0.31635 0
0.766125 0.318624 3.0518e-05
0.798947 0.325017 0.00015259
0.835523 0.33434 0.00894179
0.873152 0.346151 0.027039
0.909895 0.361181 0.0573281
0.94435 0.383917 0.102876
0.950317 0.395438 0.125109
0.088777 0.353536 0.0226291
0.106294 0.35201 0.0141146
0.11426 0.352102 0.0109255
0.124529 0.351583 0.00802625
0.13817 0.350118 0.00563058
0.152499 0.348516 0.00289921
0.17348 0.349157 0.0024567
0.195071 0.34995 0.00140383
0.219654 0.34995 0.000961318
0.245472 0.350332 0.000244144
0.273747 0.350408 0.000167849
0.302251 0.350393 0.000122072
0.330632 0.351904 0.000106813
0.360098 0.352056 6.10361e-05
0.390249 0.350301 1.5259e-05
0.42063 0.349264 0.000183108
0.449989 0.34873 0.000488289
0.478859 0.347051 0.000274662
0.50869 0.346044 9.15541e-05
0.538476 0.345388 0.000289921
0.570565 0.344991 0.000335698
0.603204 0.343679 0.00015259
0.633936 0.344442 4.57771e-05
0.666148 0.344732 0
0.699397 0.344472 1.5259e-05
0.734936 0.346899 1.5259e-05
0.770275 0.350668 1.5259e-05
0.804059 0.354574 4.57771e-05
0.841382 0.363775 0.00355535
0.878904 0.374823 0.0204623
0.916594 0.39173 0.0549477
0.945129 0.409827 0.0951705
0.954955 0.42269 0.121981
0.110445 0.385916 0.043122
0.124544 0.383749 0.0347601
0.133211 0.383383 0.0311894
0.14258 0.383322 0.0274357
0.153445 0.383337 0.0228885
0.167544 0.383185 0.0162966
0.181857 0.382696 0.00880446
0.202365 0.381033 0.00463874
0.225193 0.379507 0.00178531
0.250813 0.380896 0.00120546
0.276738 0.382269 0.000427253
0.304189 0.382681 0.000183108
0.33193 0.382818 0.000137331
0.360784 0.382269 0.000106813
0.390753 0.382116 0.00015259
0.4206 0.381308 0.000549325
0.45182 0.380606 0.000640879
0.483055 0.380148 0.000213626
0.511772 0.378958 0.000213626
0.540581 0.377371 0.000350958
0.571817 0.375738 0.00015259
0.603189 0.375601 4.57771e-05
0.637491 0.376333 1.5259e-05
0.670253 0.375494 1.5259e-05
0.704219 0.376638 3.0518e-05
0.740093 0.380407 0
0.775418 0.383978 1.5259e-05
0.810758 0.387518 0.000167849
0.848371 0.394842 0.000900282
0.886183 0.407492 0.0194858
0.922927 0.423651 0.0545205
0.94902 0.438972 0.0915389
0.959167 0.451591 0.116808
0.132845 0.420569 0.0641337
0.147189 0.419272 0.0573892
0.152926 0.418677 0.0545968
0.161486 0.418067 0.0502327
0.17142 0.417136 0.0449226
0.182422 0.416556 0.0395361
0.198291 0.415747 0.0312963
0.215244 0.41471 0.0215
0.234455 0.414176 0.0128481
0.256123 0.414633 0.00437934
0.279774 0.414618 0.000335698
0.30486 0.413748 0.000106813
0.33196 0.413977 0.000381476
0.360143 0.414572 0.000411994
0.390219 0.413947 0.000595102
0.421103 0.414008 0.000946059
0.452796 0.41442 0.000534066
0.484367 0.414084 0.000106813
0.513863 0.412451 0.000106813
0.543526 0.411414 7.62951e-05
0.574945 0.410773 6.10361e-05
0.607507 0.411505 3.0518e-05
0.639826 0.411978 0
0.673518 0.412528 0
0.709117 0.413565 0
0.747143 0.416709 0
0.782208 0.418936 0
0.818189 0.423362 0.000106813
0.85478 0.429709 0.00265507
0.894118 0.4421 0.0139162
0.931258 0.456947 0.0540932
0.95494 0.470558 0.0873426
0.963027 0.48188 0.107576
0.157198 0.456336 0.085893
0.168811 0.454154 0.0796216
0.175174 0.454093 0.0771038
0.182544 0.453864 0.0740673
0.191531 0.453529 0.0698253
0.203098 0.452277 0.0628672
0.215778 0.451301 0.0557565
0.231128 0.45066 0.0475776
0.247959 0.449958 0.0383154
0.266743 0.449104 0.0286564
0.287144 0.448249 0.0186618
0.309514 0.447654 0.00924697
0.335424 0.446876 0.00404364
0.3617 0.446143 0.000396735
0.390555 0.446998 0.000534066
0.420783 0.447623 0.000442512
0.45243 0.446998 0.000122072
0.484062 0.447578 1.5259e-05
0.516732 0.447898 3.0518e-05
0.547738 0.448051 1.5259e-05
0.579751 0.447944 1.5259e-05
0.611948 0.448631 0.000137331
0.645884 0.44979 0.000183108
0.679057 0.450858 6.10361e-05
0.71519 0.453269 0.000183108
0.752209 0.455467 0.000228885
0.788403 0.457572 3.0518e-05
0.824933 0.461891 1.5259e-05
0.862623 0.468727 0.00062562
0.901091 0.478386 0.0109102
0.93962 0.491295 0.048188
0.963745 0.504067 0.081117
0.967208 0.513771 0.0957504
0.18085 0.491875 0.107408
0.193332 0.491264 0.10219
0.198001 0.490837 0.100084
0.205066 0.489586 0.0963302
0.213092 0.488884 0.092668
0.22179 0.488167 0.0887617
0.234257 0.487678 0.0820325
0.247578 0.486976 0.0746929
0.263035 0.486122 0.0656291
0.280827 0.485374 0.0544594
0.299596 0.484581 0.0429694
0.32018 0.484031 0.0314336
0.342016 0.484092 0.0185245
0.366781 0.48397 0.00993362
0.392172 0.482994 0.00015259
0.42327 0.483238 6.10361e-05
0.455024 0.483635 0
0.487831 0.48513 0
0.520363 0.486381 0
0.55227 0.486961 1.5259e-05
0.584955 0.487236 0.000183108
0.620081 0.488243 0.000427253
0.652857 0.489754 0.000289921
0.687587 0.491478 0.000228885
0.724178 0.49395 0.000350958
0.759426 0.496132 0.000244144
0.796185 0.499352 3.0518e-05
0.832822 0.504204 0
0.871733 0.508873 0.000503548
0.910323 0.51632 0.011902
0.946349 0.528313 0.0371557
0.969879 0.538888 0.0692454
0.972045 0.546609 0.0835279
0.206897 0.531624 0.130312
0.217472 0.530449 0.126101
0.222248 0.529824 0.124163
0.227497 0.529061 0.121981
0.234821 0.528206 0.1187
0.244144 0.527352 0.114336
0.254627 0.526909 0.109941
0.26746 0.526253 0.103426
0.282887 0.525643 0.0947738
0.297993 0.524651 0.0859693
0.316136 0.524132 0.0724041
0.334554 0.52372 0.0592203
0.35555 0.523659 0.0467536
0.376837 0.523308 0.033753
0.402808 0.523842 0.0212558
0.43125 0.523995 0.00535592
0.461479 0.524529 0.000411994
0.494377 0.52604 4.57771e-05
0.527031 0.527245 6.10361e-05
0.559915 0.528008 0.000137331
0.593851 0.530541 9.15541e-05
0.628168 0.532036 4.57771e-05
0.663249 0.532998 7.62951e-05
0.698344 0.53489 0.000198367
0.733989 0.536385 0.000411994
0.769451 0.53933 0.000213626
0.804822 0.542519 0.000183108
0.842512 0.546258 0.000213626
0.880446 0.548821 0.000183108
0.919615 0.556222 0.0068513
0.95668 0.565606 0.0315709
0.974548 0.573877 0.0505684
0.976516 0.580713 0.0644541
0.23447 0.573709 0.15523
0.242786 0.57258 0.151873
0.247272 0.571969 0.150088
0.253437 0.571466 0.147936
0.260487 0.570443 0.145113
0.268132 0.56994 0.142535
0.278645 0.569543 0.138155
0.289998 0.56846 0.132799
0.302998 0.568002 0.127306
0.318639 0.567742 0.118929
0.334905 0.567758 0.110628
0.352453 0.567071 0.0987106
0.371908 0.567056 0.0854505
0.393652 0.567208 0.0687572
0.417548 0.567132 0.047776
0.443793 0.56788 0.0326696
0.473854 0.569467 0.0238956
0.503319 0.570184 0.0143587
0.535042 0.569848 0.00486763
0.568063 0.571603 1.5259e-05
0.602182 0.574838 0
0.637369 0.576837 0
0.673213 0.57882 0
0.708873 0.579232 3.0518e-05
0.744198 0.581476 0.000137331
0.778485 0.583749 0.000396735
0.815869 0.586175 0.000411994
0.852552 0.588449 0.000335698
0.889403 0.592371 0.000259403
0.928496 0.595438 9.15541e-05
0.968719 0.605402 0.020676
0.977035 0.608194 0.0278935
0.979706 0.615702 0.0462196
0.264973 0.619928 0.183871
0.274357 0.618143 0.179568
0.27837 0.617624 0.17792
0.282536 0.61677 0.175967
0.288716 0.615534 0.173114
0.297169 0.615152 0.170336
0.306279 0.614816 0.167498
0.316655 0.614435 0.163897
0.329335 0.614359 0.158572
0.341878 0.613581 0.152697
0.357443 0.613291 0.14519
0.374594 0.612894 0.136248
0.392935 0.612833 0.126253
0.414267 0.613611 0.113649
0.436774 0.614969 0.100359
0.462318 0.616114 0.0786297
0.48777 0.61648 0.057084
0.516625 0.616037 0.0395666
0.546166 0.616358 0.0222782
0.577066 0.618219 0.0112001
0.6112 0.619852 0.000198367
0.647852 0.621317 7.62951e-05
0.683482 0.622538 0
0.719982 0.625147 0
0.753536 0.626673 0.000259403
0.788739 0.628962 0.000411994
0.826795 0.631388 6.10361e-05
0.862379 0.633677 0.00030518
0.898573 0.635523 0.000228885
0.938506 0.63888 0.00161746
0.972839 0.643259 0.00689708
0.979629 0.646464 0.0148623
0.981094 0.649821 0.032578
0.310384 0.667033 0.224948
0.315022 0.665003 0.219577
0.319066 0.664805 0.217594
0.323659 0.664469 0.215167
0.328756 0.664179 0.212467
0.334035 0.663493 0.209094
0.341527 0.662959 0.205127
0.35079 0.663066 0.20119
0.360922 0.662959 0.196551
0.373129 0.662776 0.189914
0.386648 0.66273 0.182361
0.400534 0.662074 0.173861
0.418433 0.662593 0.164187
0.436576 0.663172 0.154635
0.458869 0.663828 0.141375
0.483085 0.665095 0.12755
0.50837 0.665492 0.106783
0.533913 0.665446 0.0839551
0.561486 0.66566 0.0577096
0.590875 0.665888 0.0289616
0.62269 0.666255 0.0193179
0.656535 0.667399 0.00959792
0.692683 0.669871 0.00418097
0.727687 0.671061 9.15541e-05
0.761944 0.672999 0.000289921
0.797894 0.674922 0.00015259
0.833951 0.677455 3.0518e-05
0.869718 0.677394 0.000137331
0.907942 0.679683 3.0518e-05
0.946807 0.680552 7.62951e-05
0.973144 0.68336 0
0.981247 0.686122 0.00593576
0.982635 0.686519 0.0252232
0.367773 0.716564 0.281041
0.372625 0.714611 0.27538
0.374609 0.714015 0.273442
0.376837 0.713085 0.270756
0.38088 0.712764 0.268269
0.386328 0.712383 0.264912
0.392233 0.712367 0.26186
0.398352 0.71191 0.257755
0.40679 0.711376 0.251179
0.416419 0.71162 0.245045
0.426963 0.712047 0.238193
0.440284 0.712612 0.228901
0.453391 0.712718 0.218631
0.469581 0.713085 0.205081
0.486763 0.71368 0.190173
0.50605 0.714382 0.174258
0.528313 0.715602 0.157794
0.553002 0.716701 0.138613
0.580179 0.716793 0.114672
0.607309 0.71632 0.0877089
0.636652 0.717357 0.0594644
0.668223 0.717937 0.038529
0.701259 0.71812 0.0190433
0.735729 0.719249 0.00965896
0.769848 0.720104 0.00143435
0.805646 0.722042 0.000274662
0.841016 0.722454 0.000137331
0.878172 0.723369 0.000183108
0.915923 0.723278 0
0.955001 0.723659 0
0.97908 0.724208 0
0.98175 0.726802 1.5259e-05
0.984375 0.724147 0.0211032
0.42945 0.763378 0.342214
0.432532 0.762387 0.338552
0.434943 0.762295 0.337041
0.436805 0.761395 0.334264
0.439567 0.761028 0.332067
0.442878 0.760616 0.329534
0.447608 0.760418 0.326101
0.453696 0.760357 0.321706
0.46006 0.760143 0.316808
0.466926 0.759457 0.310506
0.477394 0.760098 0.304707
0.488365 0.760861 0.298909
0.500679 0.761334 0.289738
0.51368 0.76144 0.278279
0.528008 0.761532 0.265354
0.546105 0.763012 0.251743
0.56466 0.76437 0.236408
0.584253 0.765286 0.216861
0.605402 0.766979 0.19649
0.629755 0.76733 0.165835
0.654521 0.767132 0.133455
0.683238 0.76762 0.0960555
0.71339 0.767346 0.0623484
0.745327 0.767666 0.0358587
0.778012 0.767742 0.0173037
0.810925 0.767147 3.0518e-05
0.84802 0.768048 0.000106813
0.884306 0.768429 4.57771e-05
0.922683 0.768643 0
0.959243 0.767514 3.0518e-05
0.984817 0.766735 0.000564584
0.984894 0.767315 0.00489815
0.985107 0.760662 0.0194858
0.490318 0.809949 0.40618
0.49395 0.809079 0.403052
0.495232 0.808591 0.401587
0.496529 0.80795 0.399786
0.499138 0.80763 0.397757
0.502007 0.806806 0.394385
0.505394 0.806271 0.391348
0.509392 0.805905 0.388373
0.515404 0.805692 0.384176
0.522255 0.805722 0.379767
0.529 0.805524 0.374853
0.538079 0.805493 0.36791
0.54905 0.806027 0.360845
0.560769 0.806622 0.353155
0.574258 0.807111 0.342596
0.588693 0.807996 0.332616
0.605005 0.80914 0.319097
0.621714 0.810483 0.305699
0.639582 0.811719 0.283024
0.658442 0.814252 0.260029
0.679973 0.815564 0.226642
0.702525 0.815854 0.190249
0.730434 0.816251 0.15346
0.757366 0.816083 0.112627
0.786847 0.814847 0.0565194
0.819577 0.814084 0.031281
0.853239 0.813092 0.0121614
0.888258 0.811994 6.10361e-05
0.927138 0.810987 1.5259e-05
0.966857 0.809445 0
0.983841 0.807813 0.000183108
0.986313 0.806439 0.00640879
0.986374 0.798245 0.0184024
0.549706 0.851987 0.467338
0.551202 0.850996 0.4645
0.552453 0.850492 0.462913
0.553964 0.849989 0.46125
0.555673 0.849546 0.459617
0.557488 0.848859 0.457481
0.559426 0.847898 0.454383
0.563775 0.847852 0.451667
0.568505 0.847684 0.448524
0.573709 0.847837 0.445869
0.581567 0.848371 0.442054
0.58909 0.848402 0.437186
0.59823 0.849287 0.433158
0.608804 0.849577 0.426444
0.61976 0.849851 0.419577
0.631983 0.850355 0.410574
0.645808 0.851682 0.402197
0.661143 0.853361 0.391409
0.677302 0.854795 0.378119
0.694789 0.856352 0.36228
0.713497 0.858015 0.343771
0.733257 0.859297 0.316991
0.755291 0.861036 0.286366
0.779187 0.86096 0.227375
0.80354 0.860136 0.169131
0.830762 0.858488 0.108751
