app/src/main/assets/luts/Fuji-ASTIA.cube
TITLE "Generated by Resolve"
LUT_3D_SIZE 5
0 0 0
0.126528 0.00639353 0.000961318
0.395834 0.0174716 0
0.723064 0.0155489 0.00477607
0.999588 0.0015259 0.17911
0.0334173 0.179187 9.15541e-05
0.189487 0.176638 0.000732433
0.448203 0.181918 3.0518e-05
0.718318 0.193347 0.000167849
0.999756 0.174105 0.107683
0.100847 0.512764 0.000442512
0.270787 0.504067 0.000228885
0.498924 0.496025 9.15541e-05
0.735531 0.494102 6.10361e-05
0.99913 0.464668 0.0400854
0.201129 0.824445 0.000793469
0.345129 0.81854 0.000244144
0.543542 0.808362 6.10361e-05
0.756512 0.796429 0.000534066
0.999374 0.753475 0.0546883
0.137194 0.999496 0.0748455
0.218204 0.999832 0.062501
0.35053 0.999863 0.0490272
0.539086 0.999603 0.0566873
0.932387 0.999512 0.101991
9.15541e-05 0.00541695 0.106218
0.165515 0.0120241 0.132937
0.480247 0.0128481 0.160769
0.774639 0.00747692 0.221057
0.99942 0.000122072 0.395941
0.0109255 0.217426 0.241352
0.201633 0.203189 0.200458
0.484443 0.197848 0.170748
0.751659 0.199863 0.199542
0.999481 0.160357 0.337514
0.0715801 0.526482 0.248432
0.261402 0.51284 0.20499
0.509026 0.500542 0.163851
0.7514 0.489708 0.166567
0.999634 0.448646 0.270558
0.159808 0.806088 0.245167
0.32163 0.800351 0.207218
0.537606 0.7906 0.160876
0.761929 0.778317 0.137682
0.999374 0.735973 0.243656
0.0847028 0.999725 0.236133
0.186374 0.999741 0.225193
0.337987 0.999634 0.203983
0.535744 0.999863 0.180667
0.945357 0.99968 0.190753
0.0047303 0.0131533 0.309621
0.206928 0.016495 0.403067
0.558068 0.0107424 0.488731
0.819348 0.0119631 0.541665
0.999893 0.000137331 0.660166
0.000320439 0.27364 0.624292
0.198489 0.251164 0.574151
0.518822 0.237888 0.523919
0.783764 0.22768 0.519814
0.999786 0.168521 0.598871
0.0205234 0.551492 0.631235
0.228946 0.535515 0.576394
0.515587 0.516503 0.515785
0.765484 0.497581 0.48275
0.999756 0.443717 0.528862
0.0785534 0.79617 0.602396
0.268528 0.78851 0.556085
0.520943 0.777844 0.497017
0.765103 0.763302 0.446647
0.999603 0.718029 0.473854
0.00260929 0.999878 0.460655
0.0825666 0.999725 0.434623
0.289128 0.999527 0.395682
0.530205 0.999588 0.363165
0.971054 0.999741 0.32369
0.0043946 0.0391089 0.713085
0.249958 0.0498817 0.836606
0.613611 0.0561532 0.874052
0.858473 0.0579995 0.873487
0.99968 0.00863661 0.921477
0.000961318 0.36379 0.981659
0.124849 0.340398 0.946273
0.527062 0.315831 0.877256
0.806195 0.290211 0.840711
0.999969 0.216022 0.86276
0.000671397 0.596674 0.969558
0.105425 0.580087 0.929015
0.482643 0.557778 0.854063
0.775158 0.530495 0.801999
0.99968 0.46392 0.797635
0.000701915 0.802121 0.941604
0.101778 0.79472 0.9037
0.45771 0.78265 0.827665
0.760266 0.761975 0.760708
0.999725 0.70013 0.71281
0.000289921 0.999359 0.724392
0.000167849 0.999771 0.707088
0.111406 0.999634 0.650401
0.479103 0.999573 0.571725
0.988739 0.999634 0.472114
0.000457771 0.341466 0.999588
0.000350958 0.37818 0.999802
0.436347 0.353048 0.999741
0.8103 0.33254 0.999802
0.999878 0.243748 0.999527
0.00047303 0.530053 0.999557
0.00047303 0.526162 0.999893
0.0946212 0.515007 0.999786
0.679637 0.493904 0.999893
0.99971 0.390967 0.999359
0.00102235 0.639094 0.999924
0.00047303 0.636439 1
0.0010071 0.626566 0.999863
0.550713 0.612573 0.999924
0.981613 0.537484 0.999191
0.00030518 0.743435 0.999802
0.000350958 0.7402 0.999863
0.000656138 0.732509 0.999878
0.37818 0.719081 0.999969
0.966567 0.67248 0.999878
0.000259403 0.959854 0.999863
0.000167849 0.961913 0.999664
0.00077821 0.967163 0.999863
0.000488289 0.972274 0.999802
0.993744 0.996826 0.995468
