app/src/main/assets/luts/Fuji-ClassicChrome.cube
TITLE "Generated by Resolve"
LUT_3D_SIZE 9
0 0 0
0.0391546 0.00138857 0.000701915
0.102037 0.00416571 0.0015259
0.20708 0.0111849 0.00422675
0.3561 0.0205539 0.012192
0.54258 0.0397803 0.0243534
0.701595 0.0698863 0.0463264
0.831037 0.117006 0.0863508
0.951507 0.183398 0.162615
0.00480659 0.0475624 0.00228885
0.0612802 0.0525063 0.00114443
0.137987 0.0588693 0.00260929
0.256199 0.0687266 0.00521859
0.394888 0.0857099 0.012726
0.547112 0.106935 0.0225071
0.694514 0.142275 0.0456397
0.823438 0.190204 0.0866102
0.949508 0.260868 0.162966
0.0183261 0.135576 0.00534066
0.0846113 0.138613 0.0040589
0.164965 0.142473 0.00497444
0.279988 0.152789 0.00762951
0.41384 0.168032 0.0142367
0.561135 0.191775 0.0257725
0.698192 0.229282 0.0487373
0.822583 0.275532 0.0927138
0.942 0.338933 0.166064
0.0528878 0.276173 0.0167086
0.119783 0.275715 0.0161288
0.205493 0.27808 0.0166476
0.319448 0.28751 0.0197757
0.445624 0.299687 0.0283207
0.582513 0.31931 0.0439765
0.709041 0.346548 0.0665904
0.826841 0.383337 0.105058
0.949462 0.435447 0.175875
0.099382 0.443412 0.0421149
0.170275 0.442145 0.0412757
0.25716 0.440681 0.0441749
0.365637 0.44361 0.0501411
0.484428 0.44976 0.0578012
0.611124 0.46244 0.073991
0.727398 0.483238 0.0967575
0.840604 0.510002 0.132509
0.955749 0.547936 0.202579
0.157824 0.611505 0.0820172
0.226932 0.608881 0.0825208
0.310567 0.607797 0.085893
0.412329 0.607019 0.0917067
0.52462 0.609659 0.100053
0.642405 0.616526 0.114321
0.750912 0.626474 0.136751
0.856245 0.640787 0.175753
0.952392 0.664652 0.251499
0.200656 0.754803 0.127001
0.268818 0.752911 0.126833
0.346136 0.751675 0.129473
0.443198 0.751034 0.135851
0.554116 0.751888 0.143877
0.664866 0.754711 0.159945
0.769894 0.758267 0.18613
0.872648 0.765347 0.228763
0.953353 0.777707 0.310811
0.175479 0.889982 0.159213
0.239918 0.889158 0.160021
0.325933 0.888319 0.164996
0.426383 0.886595 0.173068
0.547372 0.884413 0.191974
0.667475 0.885573 0.214466
0.778775 0.88838 0.243076
0.884031 0.890257 0.284825
0.959014 0.877379 0.350347
0.10634 0.965148 0.271565
0.14168 0.964172 0.273411
0.183581 0.96318 0.277226
0.251408 0.961028 0.28574
0.34107 0.960403 0.298222
0.442466 0.960586 0.318639
0.563531 0.961395 0.349172
0.704967 0.964828 0.386603
0.932311 0.976898 0.433783
0.000122072 0.0009308 0.0237278
0.0463417 0.00358587 0.0301518
0.122744 0.00820935 0.0380713
0.248096 0.0153964 0.0502022
0.405936 0.026978 0.063508
0.582132 0.046891 0.0801556
0.724773 0.0795148 0.106157
0.848035 0.12369 0.149554
0.955856 0.190997 0.222263
0.0028687 0.061387 0.0673533
0.0641031 0.0658274 0.0638437
0.153887 0.0709239 0.0655985
0.282551 0.0805524 0.0688792
0.424384 0.0947127 0.0782635
0.578698 0.117052 0.0920272
0.716564 0.153048 0.116365
0.837934 0.199084 0.157305
0.957137 0.265064 0.228626
0.0112306 0.159884 0.0903487
0.0824598 0.158251 0.0856031
0.171817 0.162036 0.0826429
0.299733 0.170397 0.0861982
0.438849 0.185657 0.0926375
0.583413 0.209415 0.105989
0.716197 0.242359 0.129473
0.835447 0.285084 0.168597
0.948241 0.343786 0.237705
0.0406653 0.301183 0.118563
0.117342 0.298375 0.11281
0.208713 0.299931 0.109911
0.330709 0.305547 0.111666
0.463066 0.315084 0.117418
0.596643 0.332937 0.130861
0.722286 0.358679 0.153094
0.83714 0.392111 0.190539
0.955276 0.439719 0.255421
0.0882277 0.458701 0.151965
0.165408 0.455543 0.147311
0.254871 0.4542 0.146593
0.36875 0.454841 0.146792
0.491661 0.460273 0.15198
0.619684 0.47158 0.163256
0.736049 0.489509 0.183886
0.846677 0.514946 0.217655
0.956481 0.549172 0.283223
0.142687 0.618219 0.194766
0.219867 0.615778 0.193957
0.305852 0.614404 0.190646
0.410895 0.612818 0.191165
0.528801 0.615473 0.197009
0.646265 0.620401 0.205554
0.756237 0.629252 0.219776
0.860227 0.643351 0.255756
0.951476 0.66511 0.326284
0.184955 0.755688 0.238361
0.255711 0.753964 0.236042
0.337041 0.752102 0.234318
0.437552 0.751949 0.23444
0.5514 0.752499 0.238148
0.666392 0.754482 0.252171
0.77171 0.758511 0.271168
0.875914 0.766033 0.305211
0.95314 0.777066 0.375723
0.158358 0.888533 0.268421
0.226276 0.887724 0.266667
0.312398 0.886244 0.267491
0.421225 0.884062 0.274067
0.544564 0.882506 0.286137
0.669062 0.883452 0.301762
0.779339 0.886595 0.322927
0.886641 0.88922 0.355383
0.960647 0.876234 0.407172
0.0935378 0.965103 0.327504
0.130388 0.96405 0.331197
0.176226 0.962509 0.336782
0.243748 0.961166 0.340703
0.335836 0.96054 0.351293
0.440925 0.959518 0.365972
0.562387 0.961501 0.389776
0.706233 0.965454 0.421302
0.937392 0.978149 0.462516
0.000457771 0.00299077 0.0632334
0.0515602 0.00640879 0.0752575
0.140642 0.012253 0.0900282
0.279225 0.0208133 0.110887
0.448157 0.0338598 0.134264
0.614725 0.0576028 0.160494
0.746456 0.0916609 0.192096
0.859922 0.137942 0.240742
0.961059 0.202182 0.31284
0.000808728 0.0772564 0.144808
0.0662242 0.0806439 0.145602
0.165652 0.0856336 0.147219
0.302312 0.0944381 0.151339
0.451591 0.109972 0.16141
0.602258 0.134035 0.178256
0.732601 0.167727 0.205417
0.849882 0.213031 0.248829
0.962142 0.276921 0.317266
0.00614939 0.18407 0.196612
0.0801251 0.180331 0.185641
0.182025 0.183017 0.182132
0.315923 0.189685 0.178836
0.459083 0.20293 0.184085
0.601434 0.227131 0.200504
0.72903 0.258534 0.224491
0.844785 0.298756 0.262623
0.95288 0.352636 0.325765
0.0294499 0.325597 0.235309
0.110689 0.321767 0.225498
0.211063 0.320348 0.218067
0.338323 0.323842 0.215457
0.473426 0.332998 0.218418
0.610483 0.348058 0.227985
0.733532 0.371069 0.248951
0.844907 0.40354 0.282521
0.956725 0.446418 0.340154
0.0760052 0.475868 0.272633
0.154849 0.471885 0.264607
0.25211 0.468986 0.258808
0.370275 0.469657 0.254856
0.498482 0.473854 0.255833
0.62916 0.484199 0.265263
0.744183 0.499901 0.279911
0.853208 0.523171 0.308385
0.95491 0.553994 0.362203
0.12958 0.626932 0.314458
0.207584 0.624002 0.308415
0.299443 0.621592 0.30367
0.408118 0.62063 0.30074
0.530922 0.621439 0.301518
0.651423 0.626337 0.305135
0.760327 0.633097 0.31632
0.864225 0.645808 0.343038
0.951995 0.667414 0.398154
0.167727 0.757 0.348333
0.240772 0.755322 0.345724
0.32549 0.755093 0.341543
0.430869 0.75436 0.338582
0.550729 0.753964 0.340856
0.668086 0.755993 0.347539
0.775158 0.760052 0.359197
0.879484 0.766934 0.386603
0.955962 0.777432 0.442313
0.136156 0.888045 0.373938
0.207813 0.887022 0.370855
0.297368 0.884749 0.372122
0.411749 0.88191 0.375479
0.539803 0.881773 0.382177
0.667308 0.883207 0.39263
0.781186 0.885649 0.407156
0.888731 0.888228 0.427543
0.961624 0.87332 0.462806
0.0772717 0.964538 0.38027
0.10663 0.9635 0.382818
0.158679 0.962463 0.389258
0.237537 0.960967 0.397269
0.330556 0.959884 0.405478
0.438422 0.960052 0.415305
0.562173 0.962051 0.433845
0.706462 0.965652 0.457679
0.94229 0.978759 0.491508
0.000350958 0.00544747 0.11783
0.0621805 0.0107881 0.143816
0.160601 0.0187991 0.170871
0.31162 0.0287327 0.202045
0.492027 0.0470283 0.243915
0.642985 0.0732586 0.271595
0.766705 0.107805 0.304952
0.873808 0.155856 0.347875
0.962921 0.220676 0.410117
0.000595102 0.0979934 0.260395
0.0627909 0.100862 0.267948
0.177096 0.105089 0.267903
0.326467 0.114931 0.270863
0.480339 0.130617 0.280522
0.627497 0.156649 0.296757
0.75082 0.187823 0.320928
0.862669 0.233341 0.357565
0.960647 0.292485 0.412314
0.00148013 0.216114 0.334157
0.0736248 0.210681 0.32047
0.185779 0.210361 0.312245
0.329885 0.218479 0.307851
0.477806 0.231174 0.310994
0.620325 0.251331 0.32015
0.744793 0.27863 0.339162
0.85687 0.317006 0.371481
0.955825 0.365255 0.419974
0.0165713 0.354223 0.372992
0.10071 0.349081 0.361273
0.208286 0.346716 0.351003
0.344366 0.348028 0.345327
0.487068 0.355749 0.343755
0.624933 0.368399 0.349874
0.745434 0.388754 0.362844
0.855558 0.417166 0.388907
0.957427 0.457191 0.432059
0.0544747 0.49926 0.409842
0.142153 0.492866 0.397024
0.247074 0.490013 0.389258
0.37377 0.489952 0.382742
0.50753 0.491463 0.378912
0.638163 0.500145 0.382742
0.753414 0.513558 0.391684
0.860273 0.531594 0.41146
0.955261 0.561639 0.453544
0.106035 0.637919 0.440421
0.189487 0.634974 0.433204
0.286213 0.632136 0.427283
0.403281 0.630472 0.420218
0.53019 0.631617 0.417075
0.654124 0.63473 0.417365
0.764813 0.641459 0.423468
0.868681 0.65214 0.442069
0.953094 0.671473 0.482719
0.139849 0.761517 0.470085
0.216251 0.75967 0.464775
0.305745 0.75848 0.459571
0.418738 0.757259 0.453956
0.545266 0.757412 0.452796
0.668696 0.758663 0.453696
0.778546 0.762737 0.460075
0.883635 0.769757 0.480735
0.957 0.777661 0.519905
0.108156 0.886259 0.490517
0.176089 0.884764 0.487114
0.269718 0.883177 0.484321
0.395789 0.880461 0.485283
0.529641 0.880125 0.487114
0.664179 0.881987 0.492363
0.780713 0.884749 0.499977
0.890654 0.886503 0.512184
0.963088 0.870375 0.530587
0.0668498 0.963439 0.448768
0.0817273 0.963195 0.448127
0.124285 0.961868 0.450187
0.205661 0.960754 0.455879
0.321279 0.959335 0.470451
0.433738 0.96022 0.477668
0.560006 0.961791 0.48864
0.708782 0.966522 0.505089
0.95053 0.980941 0.532204
0.000839246 0.0128328 0.204166
0.0711376 0.0198978 0.247501
0.183749 0.0294957 0.285771
0.353353 0.0456245 0.334356
0.531289 0.0664225 0.374899
0.671336 0.0941482 0.397452
0.785565 0.131701 0.426947
0.89015 0.180072 0.463554
0.963699 0.242481 0.512993
0.00190738 0.127306 0.410071
0.058793 0.130678 0.415747
0.186206 0.13434 0.411917
0.34757 0.142718 0.410163
0.504051 0.159472 0.41445
0.64831 0.18201 0.426505
0.769268 0.216617 0.443976
0.876448 0.259815 0.475822
0.961624 0.311162 0.517571
0.00270085 0.252644 0.482536
0.0620432 0.246632 0.466178
0.185885 0.245167 0.457084
0.339803 0.252125 0.447578
0.495537 0.262547 0.445975
0.63917 0.280674 0.45156
0.76025 0.306767 0.463081
0.867964 0.340673 0.487373
0.958709 0.382574 0.52462
0.00683604 0.387793 0.519402
0.080293 0.38114 0.505409
0.200183 0.37792 0.493751
0.348119 0.378317 0.48481
0.497414 0.384268 0.478065
0.639979 0.395377 0.479866
0.758572 0.412482 0.487541
0.8654 0.436774 0.50248
0.958923 0.470665 0.534798
0.0344396 0.524376 0.548501
0.11754 0.518502 0.535576
0.228443 0.514733 0.528069
0.368414 0.513115 0.519432
0.512459 0.513771 0.512261
0.646677 0.521111 0.509499
0.762585 0.531273 0.510918
0.867185 0.546853 0.520867
0.954513 0.572457 0.552621
0.0742351 0.651331 0.570199
0.156283 0.648142 0.563333
0.261585 0.644678 0.555367
0.389227 0.643168 0.54757
0.52694 0.643412 0.541436
0.657557 0.646128 0.53872
0.76997 0.651835 0.539178
0.874876 0.661494 0.548211
0.95346 0.678584 0.576349
0.102174 0.767193 0.592752
0.178317 0.764904 0.586679
0.276539 0.763867 0.581765
0.40264 0.76321 0.575097
0.538674 0.762417 0.569787
0.66836 0.764477 0.569345
0.781903 0.767941 0.570901
0.888853 0.775143 0.581674
0.95697 0.779797 0.603403
0.0808576 0.882933 0.605859
0.135531 0.881804 0.600702
0.230976 0.880613 0.596826
0.365805 0.87805 0.596155
0.511986 0.877943 0.595209
0.654749 0.880568 0.596826
0.779461 0.88394 0.598428
0.892729 0.88539 0.600259
0.964691 0.86772 0.605112
0.0713207 0.96231 0.532433
0.0714427 0.962676 0.52842
0.0865492 0.962203 0.525261
0.158328 0.960952 0.525505
0.278798 0.959213 0.531563
0.427817 0.959655 0.549187
0.557931 0.961761 0.555016
0.709712 0.967651 0.563439
0.962783 0.983047 0.579324
0.00178531 0.0256352 0.337041
0.0807355 0.0385443 0.390219
0.213458 0.0528115 0.439445
0.394507 0.0713359 0.494392
0.563058 0.0941329 0.520195
0.696452 0.12549 0.539025
0.804456 0.164843 0.559808
0.904005 0.212329 0.587991
0.962249 0.269673 0.619257
0.00308232 0.169329 0.581308
0.0420081 0.167498 0.576379
0.186694 0.171283 0.568154
0.362402 0.180163 0.562448
0.527245 0.19707 0.561471
0.670985 0.220722 0.568597
0.786419 0.253727 0.577569
0.889662 0.290333 0.598993
0.960678 0.336858 0.624826
0.00259403 0.298283 0.634485
0.0370031 0.292088 0.620447
0.170077 0.289937 0.606897
0.345968 0.292866 0.597147
0.51075 0.302647 0.59147
0.657847 0.318471 0.59115
0.776684 0.340291 0.598383
0.880354 0.367758 0.608331
0.958877 0.406119 0.631128
0.0099031 0.426047 0.659892
0.0474556 0.419837 0.647684
0.175631 0.415976 0.636835
0.342077 0.413733 0.625895
0.505806 0.419074 0.619226
0.651637 0.427207 0.615473
0.768887 0.44126 0.614694
0.875578 0.459159 0.621271
0.957168 0.491463 0.641718
0.0221408 0.551995 0.677546
0.0758526 0.546395 0.667048
0.197345 0.541772 0.658045
0.352071 0.539788 0.649271
0.507378 0.540352 0.641108
0.650675 0.545007 0.636042
0.770565 0.552529 0.634745
0.875074 0.566384 0.638743
0.954452 0.588647 0.654078
0.0412757 0.66775 0.691875
0.106752 0.664057 0.684779
0.219486 0.661631 0.677424
0.36524 0.659129 0.669993
0.516487 0.658854 0.662913
0.657847 0.660563 0.658244
0.775891 0.666407 0.655985
0.882185 0.674449 0.659449
0.955444 0.688685 0.673838
0.0599374 0.776013 0.705882
0.122698 0.773404 0.701656
0.225635 0.771878 0.695918
0.368338 0.769894 0.691035
0.521782 0.769955 0.684993
0.665797 0.772427 0.68191
0.785443 0.776425 0.680781
0.894347 0.783642 0.685145
0.95993 0.780362 0.687694
0.0615396 0.879683 0.706538
0.0901045 0.879103 0.701045
0.167102 0.877028 0.697124
0.313634 0.874235 0.694621
0.475731 0.874861 0.692882
0.636835 0.877501 0.693187
0.773541 0.880644 0.692302
0.891493 0.883757 0.690867
0.966552 0.863981 0.682094
0.0788128 0.960555 0.62385
0.0773175 0.961135 0.618677
0.0769818 0.961318 0.612558
0.102525 0.960555 0.60592
0.213031 0.959884 0.604471
0.380652 0.959564 0.612085
0.550393 0.962448 0.626856
0.708583 0.968551 0.628901
0.973632 0.984863 0.630411
0.0021973 0.055848 0.522988
0.0790112 0.0709239 0.577157
0.230549 0.0891127 0.626291
0.422797 0.113573 0.668772
0.587961 0.140581 0.675685
0.718318 0.172625 0.683803
0.821546 0.21059 0.694987
0.915938 0.255314 0.708309
0.960876 0.308095 0.725109
0.00448615 0.229267 0.742641
0.0175174 0.225513 0.731685
0.15996 0.228962 0.722148
0.361883 0.236957 0.712261
0.543038 0.251057 0.7075
0.688029 0.27361 0.706538
0.801419 0.298375 0.711345
0.902495 0.33106 0.717067
0.960433 0.371984 0.731807
0.00714122 0.353933 0.768597
0.00833143 0.347585 0.758526
0.128084 0.34522 0.747478
0.328527 0.345922 0.735805
0.514199 0.351843 0.727428
0.667979 0.364584 0.722896
0.787335 0.381125 0.723217
0.891035 0.404944 0.726955
0.960128 0.437095 0.736767
0.0150912 0.473381 0.782834
0.0197757 0.46598 0.774182
0.11693 0.460777 0.764706
0.310277 0.458991 0.752987
0.495689 0.460624 0.746456
0.653452 0.467445 0.740108
0.777951 0.477791 0.737133
0.883284 0.493553 0.737743
0.956634 0.519295 0.746227
0.0251011 0.586374 0.793576
0.0355688 0.580621 0.785595
0.125536 0.576257 0.777844
0.305409 0.573144 0.769451
0.487617 0.572503 0.76173
0.647944 0.575708 0.755688
0.77406 0.582238 0.7505
0.881163 0.593347 0.750072
0.953933 0.611749 0.755978
0.0381781 0.689448 0.801526
0.0472877 0.685313 0.795926
0.138598 0.681895 0.790478
0.308248 0.680247 0.782803
0.48513 0.679774 0.776486
0.64892 0.681361 0.771038
0.776379 0.686198 0.766125
0.88864 0.692988 0.765988
0.956832 0.702556 0.766613
0.0503548 0.787045 0.813733
0.0560311 0.784863 0.808484
0.129122 0.782422 0.802548
0.293935 0.782406 0.797391
0.48191 0.781735 0.792355
0.651453 0.783108 0.787289
0.783963 0.786679 0.784802
0.897292 0.790494 0.780941
0.960739 0.781292 0.769543
0.0628824 0.873411 0.801282
0.062974 0.8719 0.796643
0.0855573 0.871534 0.79118
0.210849 0.868376 0.785626
0.406058 0.86836 0.782162
0.596567 0.872282 0.781186
0.757305 0.876997 0.779477
0.888411 0.879362 0.777264
0.967971 0.859632 0.760861
0.0842756 0.959396 0.721035
0.0838788 0.959838 0.71577
0.0835126 0.959594 0.709178
0.0826734 0.960174 0.698909
0.117769 0.959472 0.688853
0.29276 0.958724 0.685435
0.505043 0.961334 0.69131
0.706981 0.969497 0.706096
0.982284 0.987076 0.690822
0.00419623 0.115267 0.743221
0.0322271 0.137591 0.78497
0.194736 0.166735 0.820661
0.408194 0.190784 0.82533
0.592447 0.218235 0.824445
0.726802 0.250294 0.823926
0.833936 0.285359 0.828611
0.927031 0.324071 0.834791
0.960342 0.370214 0.83621
0.00637827 0.316976 0.881437
0.00665293 0.310414 0.872892
0.0701152 0.311315 0.865797
0.307973 0.316472 0.853025
0.524834 0.329778 0.845762
0.688853 0.346716 0.842695
0.809567 0.368124 0.84239
0.912093 0.394263 0.843351
0.959609 0.42826 0.846281
0.0153201 0.428397 0.895109
0.0133516 0.421942 0.888853
0.0356146 0.416739 0.880766
0.238956 0.416648 0.869703
0.476265 0.421897 0.861143
0.659876 0.430777 0.855604
0.791424 0.444572 0.851667
0.898665 0.463935 0.849867
0.957 0.490593 0.849241
0.0237888 0.537438 0.90692
0.0233616 0.530678 0.900298
0.0278782 0.52369 0.893782
0.189532 0.52018 0.883131
0.437964 0.52105 0.87364
0.636133 0.526619 0.867247
0.777356 0.53402 0.863584
0.889082 0.548074 0.858244
0.95465 0.563699 0.856184
0.0347295 0.635737 0.914641
0.0327153 0.630198 0.909072
0.0361181 0.625055 0.903212
0.164431 0.620768 0.894881
0.409644 0.619715 0.887236
0.620661 0.622507 0.87953
0.769238 0.627832 0.872221
0.886091 0.63537 0.867796
0.95494 0.636912 0.859373
0.0439918 0.715984 0.917372
0.0436408 0.713207 0.913359
0.0426795 0.709682 0.908309
0.13666 0.70692 0.901961
0.381369 0.707134 0.895384
0.603983 0.708568 0.886488
0.762554 0.711925 0.880629
0.884184 0.714504 0.872755
0.958572 0.709209 0.858412
0.0538338 0.786984 0.914244
0.0540322 0.785031 0.911208
0.0545968 0.782834 0.906828
0.108202 0.781292 0.899855
0.329137 0.780453 0.892287
0.569467 0.782361 0.885557
0.747982 0.787121 0.880262
0.881865 0.789975 0.873579
0.963638 0.780728 0.854902
0.0634012 0.862028 0.899062
0.0632029 0.860868 0.895369
0.0641794 0.8598 0.89218
0.073579 0.85832 0.885481
0.218036 0.856352 0.877592
0.479072 0.858763 0.87306
0.703471 0.86566 0.871565
0.868238 0.870939 0.868528
0.970214 0.855604 0.845716
0.0921798 0.95845 0.834989
0.0918593 0.958556 0.82945
0.0913558 0.959274 0.822858
0.0902724 0.958633 0.814176
0.0885023 0.959381 0.801297
0.117632 0.958221 0.785672
0.371557 0.959014 0.776501
0.671351 0.968444 0.78677
0.985595 0.990845 0.773327
0.00849927 0.306081 0.984497
0.0104982 0.338506 0.986816
0.0110933 0.351781 0.985794
0.133806 0.367712 0.980285
0.433921 0.389334 0.970748
0.653773 0.409827 0.967773
0.794827 0.429175 0.967285
0.899245 0.45034 0.966934
0.957183 0.466758 0.964355
0.0171054 0.449989 0.976333
0.0174563 0.449302 0.976013
0.0180972 0.449973 0.976394
0.0243534 0.454978 0.97496
0.259251 0.466636 0.968856
0.547662 0.482841 0.965347
0.738857 0.492195 0.966903
0.868086 0.503563 0.963668
0.955917 0.511833 0.962921
0.0230411 0.520775 0.969543
0.0232547 0.519646 0.969528
0.0239109 0.518029 0.96878
0.0234684 0.519234 0.969757
0.12192 0.523903 0.967758
0.45388 0.537133 0.964462
0.687236 0.548241 0.964294
0.841077 0.553231 0.962325
0.951644 0.555108 0.961227
0.0291295 0.583627 0.967819
0.0294194 0.58204 0.967727
0.029984 0.579965 0.967239
0.0304265 0.579538 0.966049
0.0429847 0.580987 0.965988
0.354147 0.590295 0.962646
0.629526 0.603311 0.961059
0.807507 0.609735 0.959747
0.94461 0.605524 0.960479
0.035935 0.639811 0.963485
0.0358282 0.637766 0.963149
0.0360723 0.636728 0.961486
0.0360876 0.635355 0.961578
0.0361639 0.634592 0.962386
0.244282 0.638743 0.961883
0.568627 0.651637 0.959518
0.776577 0.66276 0.958251
0.936507 0.657435 0.961303
0.0419318 0.689509 0.959854
0.0417029 0.689097 0.960433
0.0408942 0.687694 0.959197
0.0411231 0.686351 0.960281
0.0395972 0.685328 0.960723
0.130144 0.686183 0.960159
0.497398 0.695872 0.957458
0.749645 0.711147 0.957656
0.93286 0.710536 0.962692
0.0484474 0.743267 0.958602
0.0483406 0.741634 0.958328
0.0478828 0.741039 0.958404
0.0476387 0.740291 0.958694
0.0482795 0.737072 0.958892
0.0729381 0.736477 0.958984
0.407965 0.741802 0.955779
0.723537 0.758724 0.95758
0.935714 0.766125 0.965423
0.0588388 0.811337 0.955779
0.0584421 0.810346 0.955795
0.0577249 0.809216 0.956344
0.0572061 0.807919 0.957321
0.0574807 0.805081 0.956405
0.0571145 0.803143 0.956237
0.225544 0.801587 0.955749
0.667109 0.812863 0.957259
0.95227 0.830259 0.971145
0.0885023 0.926986 0.939773
0.0896162 0.92813 0.93959
0.0900435 0.929107 0.939818
0.0903487 0.932097 0.938842
0.0910658 0.936309 0.938659
0.0934462 0.942443 0.937606
0.0970321 0.950484 0.934691
0.179065 0.955139 0.937057
0.993591 0.995499 0.994202
