app/src/main/assets/luts/Fuji-ClassicChrome.cube
TITLE "Generated by Resolve"
LUT_3D_SIZE 5
0 0 0
0.102037 0.00416571 0.0015259
0.3561 0.0205539 0.012192
0.701595 0.0698863 0.0463264
0.951507 0.183398 0.162615
0.0183261 0.135576 0.00534066
0.164965 0.142473 0.00497444
0.41384 0.168032 0.0142367
0.698192 0.229282 0.0487373
0.942 0.338933 0.166064
0.099382 0.443412 0.0421149
0.25716 0.440681 0.0441749
0.484428 0.44976 0.0578012
0.727398 0.483238 0.0967575
0.955749 0.547936 0.202579
0.200656 0.754803 0.127001
0.346136 0.751675 0.129473
0.554116 0.751888 0.143877
0.769894 0.758267 0.18613
0.953353 0.777707 0.310811
0.10634 0.965148 0.271565
0.183581 0.96318 0.277226
0.34107 0.960403 0.298222
0.563531 0.961395 0.349172
0.932311 0.976898 0.433783
0.000457771 0.00299077 0.0632334
0.140642 0.012253 0.0900282
0.448157 0.0338598 0.134264
0.746456 0.0916609 0.192096
0.961059 0.202182 0.31284
0.00614939 0.18407 0.196612
0.182025 0.183017 0.182132
0.459083 0.20293 0.184085
0.72903 0.258534 0.224491
0.95288 0.352636 0.325765
0.0760052 0.475868 0.272633
0.25211 0.468986 0.258808
0.498482 0.473854 0.255833
0.744183 0.499901 0.279911
0.95491 0.553994 0.362203
0.167727 0.757 0.348333
0.32549 0.755093 0.341543
0.550729 0.753964 0.340856
0.775158 0.760052 0.359197
0.955962 0.777432 0.442313
0.0772717 0.964538 0.38027
0.158679 0.962463 0.389258
0.330556 0.959884 0.405478
0.562173 0.962051 0.433845
0.94229 0.978759 0.491508
0.000839246 0.0128328 0.204166
0.183749 0.0294957 0.285771
0.531289 0.0664225 0.374899
0.785565 0.131701 0.426947
0.963699 0.242481 0.512993
0.00270085 0.252644 0.482536
0.185885 0.245167 0.457084
0.495537 0.262547 0.445975
0.76025 0.306767 0.463081
0.958709 0.382574 0.52462
0.0344396 0.524376 0.548501
0.228443 0.514733 0.528069
0.512459 0.513771 0.512261
0.762585 0.531273 0.510918
0.954513 0.572457 0.552621
0.102174 0.767193 0.592752
0.276539 0.763867 0.581765
0.538674 0.762417 0.569787
0.781903 0.767941 0.570901
0.95697 0.779797 0.603403
0.0713207 0.96231 0.532433
0.0865492 0.962203 0.525261
0.278798 0.959213 0.531563
0.557931 0.961761 0.555016
0.962783 0.983047 0.579324
0.0021973 0.055848 0.522988
0.230549 0.0891127 0.626291
0.587961 0.140581 0.675685
0.821546 0.21059 0.694987
0.960876 0.308095 0.725109
0.00714122 0.353933 0.768597
0.128084 0.34522 0.747478
0.514199 0.351843 0.727428
0.787335 0.381125 0.723217
0.960128 0.437095 0.736767
0.0251011 0.586374 0.793576
0.125536 0.576257 0.777844
0.487617 0.572503 0.76173
0.77406 0.582238 0.7505
0.953933 0.611749 0.755978
0.0503548 0.787045 0.813733
0.129122 0.782422 0.802548
0.48191 0.781735 0.792355
0.783963 0.786679 0.784802
0.960739 0.781292 0.769543
0.0842756 0.959396 0.721035
0.0835126 0.959594 0.709178
0.117769 0.959472 0.688853
0.505043 0.961334 0.69131
0.982284 0.987076 0.690822
0.00849927 0.306081 0.984497
0.0110933 0.351781 0.985794
0.433921 0.389334 0.970748
0.794827 0.429175 0.967285
0.957183 0.466758 0.964355
0.0230411 0.520775 0.969543
0.0239109 0.518029 0.96878
0.12192 0.523903 0.967758
0.687236 0.548241 0.964294
0.951644 0.555108 0.961227
0.035935 0.639811 0.963485
0.0360723 0.636728 0.961486
0.0361639 0.634592 0.962386
0.568627 0.651637 0.959518
0.936507 0.657435 0.961303
0.0484474 0.743267 0.958602
0.0478828 0.741039 0.958404
0.0482795 0.737072 0.958892
0.407965 0.741802 0.955779
0.935714 0.766125 0.965423
0.0885023 0.926986 0.939773
0.0900435 0.929107 0.939818
0.0910658 0.936309 0.938659
0.0970321 0.950484 0.934691
0.993591 0.995499 0.994202
