app/src/main/assets/luts/Fuji-REALA.cube
TITLE "Generated by Resolve"
LUT_3D_SIZE 9
0 0 0
0.043061 9.15541e-05 0.000335698
0.102235 4.57771e-05 9.15541e-05
0.24892 0.00375372 0.000213626
0.412375 0.00199893 0.00015259
0.564736 0.00231937 0.000167849
0.689662 0.0069276 0.00708019
0.812573 0.0728008 0.0588388
0.906722 0.18674 0.176669
0.00939956 0.0805066 0.000183108
0.0981765 0.0914931 0.000732433
0.200275 0.0954604 0.000167849
0.325521 0.0963455 0.000259403
0.445853 0.0956283 0.000503548
0.568276 0.0946212 1.5259e-05
0.690303 0.108003 0.000137331
0.812726 0.147097 0.0396124
0.91725 0.234638 0.153674
0.01944 0.201923 0.000137331
0.113451 0.20177 0.000488289
0.214008 0.204227 7.62951e-05
0.326009 0.19942 0.000167849
0.442405 0.195346 3.0518e-05
0.569131 0.197375 1.5259e-05
0.696864 0.204929 0
0.820264 0.230457 0.0256657
0.932067 0.301259 0.141466
0.0630198 0.320333 0.00271611
0.126207 0.318441 0.00149538
0.217304 0.318578 0.000518807
0.329213 0.320256 0.000167849
0.447868 0.31606 1.5259e-05
0.568536 0.313481 0.000244144
0.697658 0.314229 3.0518e-05
0.835523 0.33434 0.00894179
0.950317 0.395438 0.125109
0.157198 0.456336 0.085893
0.191531 0.453529 0.0698253
0.247959 0.449958 0.0383154
0.335424 0.446876 0.00404364
0.45243 0.446998 0.000122072
0.579751 0.447944 1.5259e-05
0.71519 0.453269 0.000183108
0.862623 0.468727 0.00062562
0.967208 0.513771 0.0957504
0.264973 0.619928 0.183871
0.288716 0.615534 0.173114
0.329335 0.614359 0.158572
0.392935 0.612833 0.126253
0.48777 0.61648 0.057084
0.6112 0.619852 0.000198367
0.753536 0.626673 0.000259403
0.898573 0.635523 0.000228885
0.981094 0.649821 0.032578
0.490318 0.809949 0.40618
0.499138 0.80763 0.397757
0.515404 0.805692 0.384176
0.54905 0.806027 0.360845
0.605005 0.80914 0.319097
0.679973 0.815564 0.226642
0.786847 0.814847 0.0565194
0.927138 0.810987 1.5259e-05
0.986374 0.798245 0.0184024
0.665202 0.929488 0.593484
0.668177 0.930068 0.592889
0.678309 0.931273 0.593225
0.702068 0.935271 0.593347
0.740612 0.941649 0.590341
0.796521 0.94992 0.579232
0.868009 0.962112 0.557702
0.950408 0.965438 0.396139
0.992477 0.934081 0.0547951
0.662364 0.929641 0.603296
0.663478 0.929686 0.60296
0.6654 0.930037 0.60174
0.671199 0.931044 0.601602
0.682689 0.93225 0.601251
0.702983 0.935653 0.601633
0.738735 0.941909 0.60148
0.800595 0.952682 0.597726
0.969772 0.983322 0.514305
0.000488289 0.000167849 0.0415503
0.0601053 0.00195315 0.0517433
0.168826 0.00427253 0.0735332
0.31136 0.00331121 0.0814069
0.448798 0.000198367 0.0798657
0.586816 0.00106813 0.0792401
0.708186 0.000427253 0.0852369
0.825208 0.0666209 0.135439
0.907469 0.185458 0.246296
0.00262455 0.0957198 0.100511
0.111879 0.113115 0.111299
0.218921 0.107164 0.10103
0.337453 0.0991989 0.0889906
0.458289 0.0931258 0.0794995
0.582269 0.0929427 0.0759594
0.707256 0.0984665 0.0844129
0.829908 0.130495 0.119448
0.917494 0.232181 0.23035
0.00907912 0.213107 0.0954452
0.109712 0.214359 0.0956283
0.217472 0.213413 0.0872053
0.336965 0.207767 0.079942
0.459754 0.20502 0.0738994
0.586343 0.203494 0.0712444
0.712612 0.204028 0.0774853
0.843107 0.214115 0.102037
0.933272 0.300801 0.220798
0.0431067 0.336934 0.0884108
0.121218 0.330327 0.075288
0.218982 0.327245 0.0659495
0.336706 0.327016 0.0631723
0.459358 0.320943 0.0570077
0.58233 0.317617 0.0545663
0.716594 0.319982 0.0654765
0.860044 0.33666 0.101045
0.953216 0.395438 0.210483
0.143923 0.462547 0.124575
0.18201 0.457572 0.106188
0.242084 0.454154 0.0809796
0.339361 0.452293 0.0470741
0.461189 0.452583 0.0415351
0.593149 0.451896 0.0408942
0.731914 0.457023 0.0483101
0.881743 0.474327 0.0794995
0.973617 0.515145 0.189929
0.262211 0.626764 0.20827
0.285801 0.622522 0.194186
0.326497 0.619593 0.175311
0.395178 0.618662 0.142916
0.494621 0.620722 0.0763409
0.622171 0.622583 0.0312657
0.76437 0.628229 0.0342107
0.910582 0.636362 0.0640726
0.98706 0.647608 0.140887
0.48397 0.806577 0.412604
0.490776 0.803677 0.40145
0.507866 0.801724 0.385763
0.542885 0.802182 0.3617
0.599863 0.804456 0.314504
0.677806 0.81004 0.213611
0.790631 0.807492 0.0619974
0.933455 0.804669 0.0458228
0.991394 0.79527 0.124056
0.663966 0.929503 0.59794
0.666789 0.929732 0.596368
0.676127 0.930983 0.595575
0.699992 0.935058 0.594247
0.739406 0.941527 0.591363
0.793545 0.947616 0.575174
0.867704 0.962509 0.558816
0.951156 0.96614 0.404547
0.992905 0.926787 0.0881056
0.661173 0.929824 0.61416
0.662013 0.929931 0.61413
0.664027 0.930312 0.613764
0.669841 0.930953 0.612299
0.681437 0.932784 0.612131
0.701732 0.93576 0.611078
0.737133 0.941649 0.61004
0.800031 0.952575 0.605524
0.972305 0.983993 0.51986
0.000518807 0.00169375 0.0981613
0.0891737 0.00756847 0.144335
0.208011 0.00798047 0.170703
0.336767 0.00598154 0.182147
0.475212 0.0016022 0.188495
0.607233 0.00161746 0.191775
0.726543 0.00425727 0.204425
0.841108 0.0835126 0.247593
0.910674 0.190158 0.34995
0.000183108 0.0945144 0.200977
0.0961624 0.110048 0.214557
0.223682 0.11577 0.220615
0.343816 0.105821 0.206775
0.470359 0.0983444 0.19733
0.595193 0.0990311 0.195529
0.720546 0.10277 0.200183
0.842695 0.139651 0.233082
0.92047 0.237827 0.331197
0.000640879 0.204013 0.2121
0.0928969 0.214282 0.216571
0.224659 0.226535 0.224491
0.343923 0.216876 0.208652
0.468971 0.210834 0.198825
0.59472 0.204974 0.193622
0.722881 0.206989 0.195193
0.856321 0.226215 0.223102
0.934874 0.30341 0.321218
0.0102846 0.331487 0.206653
0.110353 0.340368 0.21239
0.2224 0.34136 0.207889
0.343618 0.337438 0.201114
0.467369 0.33109 0.190494
0.59791 0.327749 0.185824
0.734646 0.328328 0.190723
0.876387 0.34432 0.219165
0.957031 0.400305 0.310613
0.0902571 0.476829 0.221653
0.152255 0.475044 0.211643
0.231586 0.46949 0.194949
0.345098 0.466453 0.183185
0.474357 0.467063 0.178531
0.611246 0.464302 0.176715
0.752468 0.469825 0.180987
0.903166 0.486549 0.20766
0.979568 0.519753 0.287907
0.255589 0.642649 0.292134
0.277089 0.637644 0.275639
0.317205 0.633005 0.25124
0.390372 0.6309 0.218402
0.501778 0.631861 0.180331
0.638651 0.633356 0.168353
0.779232 0.635615 0.171359
0.92488 0.640833 0.189258
0.991867 0.647318 0.251591
0.477943 0.808515 0.456657
0.484794 0.805035 0.444434
0.501366 0.802777 0.427497
0.536736 0.801816 0.401709
0.596689 0.804791 0.356176
0.675776 0.808057 0.251148
0.798413 0.806729 0.167452
0.941497 0.80296 0.168887
0.994781 0.790417 0.232151
0.660426 0.929564 0.621347
0.662791 0.92958 0.618051
0.672663 0.931701 0.615976
0.695415 0.934752 0.611856
0.732982 0.938964 0.602808
0.787945 0.945098 0.584253
0.8598 0.955184 0.55259
0.947188 0.959152 0.389517
0.995789 0.919066 0.180468
0.660716 0.930098 0.627756
0.660838 0.93019 0.627878
0.66212 0.930343 0.627222
0.667933 0.931594 0.628275
0.680247 0.933196 0.626886
0.700877 0.936187 0.625269
0.736263 0.942 0.624125
0.798978 0.95317 0.618433
0.976532 0.985199 0.527459
0.000488289 0.00411994 0.207767
0.10042 0.0065919 0.252857
0.224353 0.0146639 0.284764
0.356268 0.0106661 0.303365
0.503548 0.00395209 0.321859
0.629541 0.00787366 0.324086
0.747143 0.0163119 0.333165
0.859602 0.113603 0.377142
0.914565 0.203235 0.468666
7.62951e-05 0.0932631 0.311864
0.070222 0.102693 0.330312
0.220798 0.123186 0.348516
0.356954 0.118898 0.345464
0.486534 0.112276 0.334005
0.614771 0.112917 0.328984
0.740337 0.116411 0.329946
0.864393 0.166506 0.366735
0.924269 0.251087 0.453254
0.000289921 0.201129 0.334585
0.062623 0.208896 0.338903
0.204501 0.222705 0.348501
0.350561 0.23154 0.350225
0.478019 0.222171 0.33492
0.607828 0.21622 0.327321
0.740627 0.21738 0.3308
0.873442 0.245502 0.358373
0.937758 0.315297 0.44007
0.00030518 0.320302 0.333135
0.0718547 0.328374 0.335195
0.202594 0.34023 0.341863
0.346929 0.350301 0.347677
0.479393 0.343664 0.335027
0.613565 0.338781 0.32784
0.753338 0.341665 0.330922
0.896071 0.356588 0.354681
0.958923 0.40885 0.430091
0.00460822 0.46949 0.339132
0.100801 0.47747 0.343786
0.226535 0.488075 0.347601
0.357031 0.488823 0.342458
0.494133 0.483101 0.334432
0.632959 0.483543 0.329
0.774838 0.488457 0.330983
0.919478 0.500343 0.353674
0.983169 0.524788 0.413199
0.244892 0.656901 0.419303
0.267811 0.656107 0.407477
0.307286 0.653849 0.388281
0.390326 0.650874 0.360906
0.511833 0.648875 0.335729
0.654093 0.646403 0.327733
0.795026 0.645533 0.323766
0.940154 0.647257 0.335546
0.996612 0.648554 0.382589
0.46891 0.812222 0.538872
0.474464 0.808865 0.526482
0.491539 0.806668 0.511559
0.526802 0.804349 0.487205
0.59086 0.807019 0.445808
0.675608 0.810727 0.35964
0.806104 0.807782 0.313298
0.950912 0.802731 0.316335
0.998245 0.78529 0.361608
0.655207 0.930816 0.666835
0.657572 0.930816 0.663127
0.66601 0.932143 0.660105
0.685924 0.93402 0.651942
0.718212 0.934646 0.635676
0.776593 0.941924 0.617151
0.846967 0.947417 0.571633
0.940993 0.950011 0.401328
0.998276 0.907439 0.295476
0.658015 0.930724 0.6486
0.657969 0.930724 0.648402
0.658854 0.931075 0.648402
0.6645 0.931762 0.648661
0.677913 0.93373 0.650614
0.698573 0.936812 0.6486
0.734386 0.942916 0.644846
0.798154 0.954025 0.637125
0.980835 0.986557 0.540597
0.00077821 0.00723278 0.321752
0.0968948 0.0049897 0.357015
0.235676 0.0215457 0.40238
0.380102 0.020325 0.439109
0.526818 0.0246738 0.458701
0.649653 0.0316625 0.459709
0.767514 0.0681315 0.475196
0.880812 0.180514 0.521813
0.902846 0.261097 0.59997
0.000183108 0.104494 0.44622
0.043595 0.105333 0.458579
0.201236 0.122148 0.474739
0.364889 0.1364 0.488533
0.50219 0.134676 0.478386
0.634409 0.131777 0.472679
0.764813 0.145541 0.478538
0.88571 0.215106 0.51722
0.921447 0.289601 0.587274
0.000320439 0.20206 0.469215
0.0276188 0.207202 0.469673
0.179477 0.221408 0.479149
0.342794 0.240711 0.490974
0.493278 0.242374 0.487724
0.631434 0.238392 0.48014
0.769055 0.241505 0.484245
0.899336 0.28246 0.515785
0.940688 0.337819 0.578271
0.000457771 0.322454 0.473716
0.0327153 0.327489 0.476158
0.172763 0.339193 0.482963
0.333867 0.354192 0.49247
0.495903 0.367391 0.500084
0.637659 0.364172 0.490181
0.779217 0.366339 0.491417
0.917845 0.383474 0.514534
0.96083 0.423957 0.567422
0.00196841 0.468635 0.487236
0.0525673 0.474723 0.486931
0.185565 0.485145 0.493706
0.342596 0.499657 0.503639
0.511086 0.512825 0.510994
0.65391 0.508385 0.498939
0.79704 0.509957 0.497505
0.937484 0.516365 0.508919
0.983276 0.530663 0.548562
0.226017 0.65745 0.548791
0.240421 0.655009 0.538537
0.280552 0.656428 0.530037
0.382559 0.666728 0.524742
0.522133 0.667323 0.513268
0.667536 0.662196 0.499641
0.810742 0.65716 0.491264
0.954818 0.654337 0.494316
0.998657 0.652079 0.520943
0.458915 0.815137 0.634714
0.461677 0.812314 0.624811
0.477516 0.811154 0.613275
0.515312 0.810697 0.594537
0.579309 0.810803 0.561685
0.673091 0.814267 0.499687
0.812375 0.807446 0.474235
0.958465 0.800015 0.470954
0.998795 0.777539 0.491646
0.648768 0.93196 0.726482
0.651774 0.932631 0.722927
0.65597 0.932433 0.716884
0.66598 0.929397 0.704356
0.699916 0.930465 0.690074
0.754467 0.933364 0.665415
0.830625 0.938903 0.619013
0.934966 0.940688 0.463188
0.998016 0.893629 0.41648
0.65565 0.932219 0.67982
0.655238 0.932021 0.678492
0.655253 0.931823 0.677546
0.658518 0.932128 0.676036
0.669932 0.93373 0.675319
0.696559 0.938399 0.679377
0.732738 0.944259 0.674662
0.796918 0.954803 0.66421
0.986435 0.987655 0.557244
0.00030518 0.0135042 0.439857
0.0890364 0.00755322 0.477546
0.238788 0.026276 0.537987
0.398779 0.0732586 0.577356
0.538994 0.107851 0.595117
0.658396 0.153658 0.603403
0.770382 0.216129 0.625071
0.872465 0.297215 0.667414
0.876066 0.339559 0.713252
0.000595102 0.122438 0.603601
0.0112612 0.110521 0.598154
0.176928 0.128115 0.613581
0.359899 0.158862 0.623636
0.516228 0.182956 0.627619
0.647974 0.211185 0.626474
0.768658 0.258274 0.636835
0.881605 0.326604 0.667384
0.893507 0.366857 0.704036
0.000442512 0.215763 0.621317
0.00825513 0.217884 0.616571
0.145342 0.231556 0.627512
0.329824 0.250111 0.642267
0.507927 0.274891 0.65687
0.654292 0.291066 0.654002
0.78027 0.319905 0.652232
0.891814 0.370855 0.67274
0.912352 0.408026 0.706966
7.62951e-05 0.343008 0.635599
0.00833143 0.342763 0.633005
0.13402 0.356863 0.641566
0.317906 0.371328 0.65594
0.504326 0.392599 0.672129
0.669352 0.402609 0.677409
0.803052 0.410315 0.669734
0.920134 0.44062 0.677668
0.945327 0.468193 0.70248
0.000335698 0.48101 0.643717
0.00477607 0.482689 0.642649
0.1355 0.493843 0.65098
0.316655 0.509041 0.660777
0.498802 0.524742 0.67158
0.673777 0.539513 0.680491
0.820569 0.537041 0.674769
0.95024 0.540719 0.675471
0.980179 0.550942 0.690654
0.203418 0.652125 0.671366
0.202106 0.646448 0.661585
0.233585 0.645106 0.659754
0.336629 0.653819 0.664576
0.500542 0.667399 0.669749
0.673426 0.676921 0.674434
0.822644 0.670634 0.663096
0.965484 0.663203 0.65565
0.998337 0.659312 0.664073
0.446418 0.806775 0.725216
0.445335 0.803784 0.717327
0.453086 0.80174 0.710002
0.490776 0.80647 0.704631
0.562493 0.814664 0.694011
0.668711 0.817624 0.663035
0.816037 0.810758 0.642374
0.964065 0.800061 0.631067
0.998154 0.769436 0.625895
0.621958 0.91902 0.778592
0.630701 0.924514 0.779522
0.635447 0.926528 0.775418
0.642725 0.924575 0.766064
0.671229 0.922667 0.751354
0.728725 0.925139 0.730007
0.808057 0.928923 0.685145
0.926406 0.927886 0.577798
0.998978 0.877928 0.545281
0.653025 0.933837 0.721584
0.652934 0.933745 0.719265
0.652918 0.933547 0.716411
0.653864 0.933501 0.713146
0.660441 0.934447 0.710124
0.685374 0.938048 0.709239
0.731197 0.945525 0.713207
0.794171 0.95613 0.700313
0.991424 0.989715 0.582666
0.000213626 0.0283818 0.600061
0.0870375 0.0264134 0.62385
0.250278 0.0798962 0.653559
0.417884 0.15021 0.701823
0.554284 0.202365 0.720104
0.678172 0.262043 0.739178
0.782986 0.325444 0.762112
0.859174 0.382315 0.787884
0.863691 0.401251 0.800946
0.100923 0.181903 0.722301
0.115129 0.177462 0.718532
0.211261 0.189868 0.721965
0.372427 0.222721 0.736187
0.535485 0.270008 0.754818
0.667964 0.314626 0.763439
0.780591 0.364324 0.777417
0.873472 0.418555 0.793301
0.874937 0.432624 0.803128
0.0857404 0.291341 0.770916
0.0803998 0.281956 0.762921
0.16849 0.285634 0.765866
0.342138 0.306935 0.771649
0.517937 0.34168 0.781826
0.667521 0.380041 0.788464
0.784634 0.417411 0.792706
0.879011 0.458183 0.80174
0.889387 0.472343 0.811734
0.105196 0.417029 0.789364
0.0978408 0.408331 0.781796
0.154147 0.403952 0.786191
0.308904 0.413031 0.805325
0.498375 0.43476 0.812848
0.668696 0.467842 0.81677
0.797238 0.492988 0.813092
0.898589 0.520287 0.811963
0.914549 0.530098 0.813489
0.116655 0.537423 0.798596
0.109865 0.529961 0.792142
0.151095 0.524956 0.792691
0.290745 0.531533 0.810056
0.475486 0.544152 0.82855
0.664759 0.565194 0.838422
0.815854 0.583185 0.833997
0.925643 0.596536 0.8215
0.94583 0.600244 0.81561
0.203662 0.661845 0.798444
0.194736 0.656001 0.794247
0.208392 0.649714 0.790341
0.28751 0.652125 0.799924
0.450462 0.663813 0.820432
0.651057 0.680507 0.832959
0.827329 0.690379 0.838849
0.959121 0.685725 0.822766
0.986603 0.677913 0.801785
0.435462 0.794644 0.808728
0.431327 0.792096 0.803326
0.426703 0.787472 0.797604
0.449256 0.785443 0.794705
0.510643 0.791669 0.802243
0.640375 0.809766 0.817548
0.810559 0.813245 0.811582
0.963531 0.797421 0.791455
0.998535 0.763119 0.7608
0.586297 0.895293 0.829801
0.587533 0.896803 0.827649
0.599237 0.904021 0.828275
0.608392 0.90695 0.824475
0.632197 0.907347 0.816175
0.689448 0.912749 0.806745
0.777905 0.918425 0.779965
0.915297 0.912688 0.716533
0.998749 0.861738 0.683406
0.65185 0.937011 0.778866
0.65156 0.936751 0.776272
0.651469 0.936614 0.772152
0.652094 0.9364 0.767117
0.653391 0.935882 0.759441
0.6701 0.938094 0.753887
0.714794 0.945281 0.750286
0.792691 0.958267 0.751125
0.994003 0.991806 0.62649
0.124147 0.0956741 0.705577
0.193652 0.135943 0.743374
0.297154 0.182345 0.772534
0.448554 0.239078 0.79556
0.596414 0.301396 0.817685
0.71397 0.356558 0.82974
0.811154 0.408759 0.840803
0.86038 0.440223 0.84773
0.865232 0.457603 0.852689
0.159854 0.288518 0.805356
0.162692 0.281147 0.803326
0.218112 0.284367 0.805417
0.38175 0.311421 0.816785
0.557275 0.358831 0.834958
0.69572 0.405097 0.847074
0.804334 0.449699 0.856535
0.872297 0.482231 0.860945
0.875868 0.493507 0.864149
0.162768 0.395926 0.824338
0.161227 0.387655 0.823957
0.180636 0.379919 0.826825
0.322026 0.390005 0.842496
0.517235 0.418372 0.850767
0.680964 0.463081 0.867887
0.802319 0.499199 0.874266
0.882139 0.527993 0.875914
0.888426 0.535286 0.878477
0.188434 0.503487 0.835676
0.185672 0.495399 0.834638
0.190723 0.486091 0.834897
0.28777 0.483665 0.852003
0.476356 0.499687 0.878233
0.660517 0.529335 0.887175
0.799435 0.563394 0.895018
0.894682 0.587884 0.895094
0.902083 0.587625 0.893797
0.219348 0.6038 0.848081
0.216449 0.59765 0.847929
0.21532 0.590249 0.84622
0.281209 0.583535 0.856962
0.446998 0.592157 0.888365
0.637095 0.607645 0.910903
0.80148 0.639307 0.920821
0.906508 0.654627 0.915267
0.919112 0.642908 0.906279
0.276204 0.690562 0.856809
0.272648 0.686885 0.856687
0.266667 0.680674 0.856168
0.291081 0.675151 0.862898
0.420737 0.678645 0.887968
0.603861 0.690501 0.923308
0.789014 0.713375 0.94551
0.915434 0.722667 0.935424
0.94284 0.702068 0.907332
0.403723 0.774273 0.862379
0.399298 0.77142 0.862013
0.394247 0.768032 0.861769
0.387732 0.762036 0.8636
0.420874 0.757412 0.881758
0.562448 0.770199 0.918441
0.752377 0.790951 0.955535
0.923461 0.792798 0.938704
0.978531 0.764431 0.88954
0.524498 0.848585 0.880537
0.52639 0.850477 0.879667
0.525963 0.850721 0.876463
0.529458 0.853178 0.874037
0.555993 0.86569 0.876844
0.602792 0.871427 0.882429
0.70779 0.889128 0.898451
0.887297 0.88957 0.887602
0.999084 0.846113 0.838499
0.651469 0.934585 0.854551
0.651774 0.935302 0.850416
0.651087 0.935073 0.84567
0.651637 0.935485 0.84094
0.651118 0.935668 0.831647
0.652232 0.936675 0.821241
0.683024 0.942611 0.812894
0.775921 0.958679 0.810391
0.994766 0.993484 0.700679
0.156695 0.305348 0.810712
0.155673 0.324773 0.814984
0.162539 0.334646 0.817823
0.3084 0.363943 0.834943
0.518227 0.414069 0.850599
0.684565 0.466072 0.868254
0.800198 0.504387 0.875242
0.881697 0.5299 0.876387
0.882994 0.519173 0.872129
0.167376 0.417212 0.826703
0.167117 0.416602 0.826185
0.167697 0.417823 0.827253
0.191562 0.421973 0.831205
0.38233 0.449485 0.860777
0.597055 0.494743 0.876371
0.75697 0.536263 0.888182
0.869612 0.563684 0.889433
0.892958 0.550729 0.883665
0.181811 0.47837 0.832731
0.181399 0.477363 0.83238
0.180957 0.475196 0.833051
0.181674 0.476753 0.832975
0.2878 0.485328 0.851759
0.519081 0.520806 0.885435
0.711589 0.563073 0.898375
0.851682 0.59173 0.90161
0.901534 0.584329 0.892805
0.197086 0.534478 0.839231
0.196063 0.532631 0.838544
0.196124 0.531716 0.839475
0.195346 0.530388 0.838712
0.227375 0.530022 0.844297
0.43679 0.553201 0.882643
0.654536 0.589426 0.90573
0.824186 0.624811 0.913497
0.912016 0.625574 0.905303
0.213962 0.58883 0.845289
0.213382 0.588312 0.845792
0.213123 0.587869 0.846113
0.212619 0.584237 0.845502
0.215442 0.581643 0.845823
0.362234 0.591714 0.871656
0.59472 0.620584 0.91284
0.796063 0.660502 0.927398
0.922774 0.668528 0.918822
0.233692 0.641962 0.853483
0.2336 0.641718 0.853101
0.232822 0.641215 0.852964
0.232105 0.638743 0.852506
0.230594 0.634424 0.851911
0.297704 0.634867 0.863279
0.531746 0.657954 0.908354
0.766613 0.698054 0.94081
0.931167 0.715236 0.933532
0.289876 0.703838 0.857588
0.288685 0.702174 0.857633
0.287312 0.701213 0.857893
0.285435 0.699611 0.857557
0.280583 0.694789 0.856901
0.290913 0.690623 0.860594
0.463874 0.70309 0.896819
0.733104 0.743267 0.955489
0.945159 0.765866 0.948394
0.430076 0.788861 0.863691
0.428183 0.787945 0.864103
0.424552 0.785992 0.863386
0.419425 0.782757 0.862928
0.414496 0.779995 0.863096
0.409018 0.776791 0.86276
0.42678 0.766842 0.877989
0.668467 0.800397 0.950393
0.963226 0.828702 0.967071
0.628199 0.915938 0.917815
0.63032 0.917357 0.918318
0.631159 0.917479 0.918242
0.634821 0.920317 0.919264
0.638224 0.922087 0.920607
0.642252 0.925093 0.921599
0.644297 0.925902 0.922454
0.656046 0.931334 0.925856
0.995239 0.997482 0.995727
