app/src/main/assets/luts/Fuji-ProNegStd.cube
TITLE "Generated by Resolve"
LUT_3D_SIZE 9
0 0 0
0.0557107 0.0104219 0.0119783
0.107332 0.021149 0.021149
0.187091 0.0381476 0.0390936
0.297856 0.0538949 0.0617533
0.449928 0.0686656 0.0870985
0.607263 0.0829175 0.112993
0.755123 0.102998 0.152178
0.904646 0.115923 0.223087
0.0311894 0.0803082 0.0157168
0.0892042 0.0907912 0.0182498
0.151369 0.0994278 0.0242924
0.23769 0.111086 0.0350652
0.346395 0.126497 0.0509041
0.471702 0.140337 0.0672465
0.615412 0.160037 0.091722
0.759808 0.179675 0.128679
0.909758 0.194598 0.196918
0.0627604 0.172763 0.0194705
0.121843 0.179568 0.0186465
0.18471 0.185306 0.0225528
0.26952 0.195178 0.0290074
0.374807 0.206332 0.0366979
0.495766 0.221744 0.0495308
0.62916 0.241703 0.0733349
0.769345 0.260395 0.108583
0.919249 0.275532 0.173114
0.103746 0.303105 0.0181277
0.160769 0.305119 0.0184634
0.225483 0.309361 0.0177462
0.311727 0.316381 0.0219425
0.412268 0.323598 0.0309758
0.526009 0.335851 0.0422522
0.652415 0.349416 0.0599374
0.785504 0.363958 0.090013
0.933257 0.374731 0.146105
0.146517 0.45861 0.0176699
0.204868 0.458839 0.0176699
0.270954 0.458671 0.0177768
0.355459 0.459419 0.0240177
0.450965 0.462989 0.0268711
0.560754 0.468757 0.0374609
0.681102 0.479057 0.0524605
0.809049 0.487205 0.0775006
0.953277 0.490654 0.127108
0.193118 0.622889 0.0266423
0.24889 0.620218 0.02533
0.311757 0.619562 0.026276
0.394034 0.618082 0.0282444
0.485893 0.619501 0.0296635
0.592935 0.620645 0.0355383
0.710201 0.622583 0.0472877
0.833036 0.623514 0.0670329
0.968902 0.616678 0.117052
0.219486 0.78764 0.0417945
0.273136 0.787015 0.0370336
0.333135 0.785214 0.0339971
0.412207 0.783597 0.0327916
0.506096 0.782452 0.0329747
0.61146 0.782177 0.0332189
0.728267 0.779919 0.0380407
0.854337 0.774838 0.0559701
0.973419 0.760739 0.119188
0.186938 0.95758 0.0606088
0.24036 0.958343 0.0567788
0.304524 0.958267 0.0543069
0.385077 0.957794 0.0481575
0.483757 0.956878 0.0438849
0.599695 0.953063 0.0480659
0.725567 0.949523 0.0578012
0.856992 0.938994 0.0758679
0.971405 0.902052 0.124285
0.120317 0.99971 0.17351
0.151308 0.999908 0.174151
0.185534 0.999908 0.172122
0.237934 0.999619 0.171923
0.307561 0.999786 0.175967
0.389807 0.999649 0.184054
0.492317 0.999741 0.198535
0.628946 0.999954 0.216052
0.903822 0.999771 0.232609
0.00459297 0.00921645 0.0502785
0.0692454 0.0184634 0.0669718
0.132662 0.0324712 0.0846876
0.226215 0.0466621 0.107088
0.345235 0.0608835 0.131029
0.492638 0.0712596 0.158511
0.640223 0.0870375 0.184512
0.77908 0.103761 0.227832
0.920592 0.114733 0.28925
0.0338445 0.0971389 0.0969253
0.103578 0.105562 0.103777
0.174655 0.113741 0.111849
0.269123 0.123186 0.122148
0.378607 0.134447 0.136614
0.506432 0.147097 0.152941
0.643977 0.165164 0.178347
0.781079 0.181613 0.21442
0.925063 0.191104 0.270069
0.0630045 0.196735 0.117784
0.131502 0.198108 0.120867
0.20119 0.202304 0.121614
0.295705 0.210208 0.127504
0.404746 0.220035 0.137118
0.524697 0.232563 0.150942
0.655451 0.248127 0.171786
0.790036 0.262409 0.201007
0.931777 0.274098 0.254536
0.101472 0.325536 0.130282
0.16733 0.325017 0.126665
0.239277 0.32517 0.127977
0.330083 0.329229 0.132158
0.433906 0.335393 0.136141
0.546715 0.343664 0.148669
0.672724 0.35552 0.163745
0.801892 0.366049 0.191028
0.945403 0.371801 0.23949
0.146456 0.470298 0.139055
0.210071 0.467445 0.136385
0.27805 0.467124 0.135119
0.36527 0.467033 0.134035
0.463035 0.468513 0.138125
0.575189 0.473243 0.143465
0.696025 0.479118 0.1552
0.821027 0.486259 0.176242
0.962615 0.484794 0.222049
0.188937 0.625528 0.147753
0.249546 0.623713 0.146166
0.3149 0.621866 0.142489
0.398535 0.620401 0.140658
0.495308 0.61944 0.140703
0.602792 0.619211 0.142016
0.719738 0.619638 0.147799
0.841947 0.618769 0.163043
0.973907 0.610346 0.205554
0.213352 0.785122 0.154406
0.269337 0.783017 0.151324
0.332128 0.781033 0.147005
0.413611 0.779156 0.143984
0.508003 0.777783 0.138033
0.616663 0.776547 0.134218
0.734783 0.773144 0.135729
0.860883 0.767834 0.148882
0.977142 0.75407 0.196368
0.177203 0.95024 0.164889
0.233066 0.951064 0.158831
0.29781 0.951141 0.153094
0.383032 0.950408 0.147341
0.484886 0.947982 0.143725
0.603159 0.945052 0.141588
0.727779 0.940993 0.143908
0.860395 0.930312 0.154452
0.973724 0.892805 0.188067
0.109026 0.999878 0.223346
0.144457 0.999786 0.225284
0.18201 0.999832 0.225879
0.236423 0.999832 0.223301
0.30573 0.999741 0.224735
0.390249 0.999863 0.229801
0.493904 0.999527 0.237247
0.630854 0.999908 0.249775
0.90901 0.999344 0.262562
0.00889601 0.0176242 0.0878462
0.0817731 0.0284123 0.116304
0.15462 0.0429541 0.142626
0.257694 0.0562142 0.174823
0.388449 0.0672618 0.210742
0.533684 0.0787976 0.245045
0.67219 0.0946822 0.279408
0.802136 0.110353 0.321279
0.934066 0.11783 0.383963
0.0382849 0.115389 0.172091
0.116686 0.123232 0.184634
0.195163 0.129152 0.194949
0.294606 0.137087 0.209094
0.411902 0.146441 0.226719
0.539818 0.159625 0.247166
0.670161 0.174243 0.273182
0.802899 0.18822 0.310277
0.943557 0.195544 0.3673
0.0619516 0.219303 0.217288
0.139406 0.219379 0.215915
0.220539 0.221622 0.220401
0.317754 0.226856 0.22356
0.428962 0.234379 0.233127
0.547951 0.246098 0.248905
0.67744 0.258396 0.27013
0.808454 0.270558 0.300786
0.945174 0.275547 0.351202
0.097734 0.346059 0.24004
0.172412 0.342947 0.236835
0.249928 0.342443 0.234607
0.344533 0.343694 0.237156
0.451377 0.347768 0.241398
0.566323 0.353933 0.249805
0.691585 0.362432 0.264942
0.818235 0.371359 0.289921
0.954955 0.372549 0.332219
0.144015 0.483467 0.252476
0.211139 0.480201 0.249195
0.28423 0.47776 0.247547
0.374273 0.476753 0.244419
0.477424 0.477378 0.243839
0.590097 0.480186 0.249805
0.710536 0.483742 0.258457
0.833463 0.488167 0.274586
0.970489 0.48275 0.311742
0.184787 0.632136 0.261814
0.248356 0.629175 0.256931
0.316503 0.626307 0.252186
0.402533 0.62359 0.248905
0.501579 0.621698 0.245136
0.611261 0.621103 0.244694
0.727962 0.618921 0.246387
0.851286 0.615122 0.257771
0.978744 0.605219 0.29044
0.20676 0.781689 0.264118
0.263966 0.781094 0.26009
0.328267 0.779553 0.253422
0.413306 0.776928 0.247333
0.511376 0.775418 0.238987
0.620356 0.773922 0.232853
0.740795 0.768795 0.23006
0.867582 0.762402 0.238972
0.979126 0.747158 0.27747
0.163195 0.945083 0.264286
0.223774 0.944808 0.259495
0.2934 0.943847 0.255283
0.379919 0.943008 0.247593
0.485664 0.941619 0.240421
0.604578 0.938003 0.235752
0.73109 0.933318 0.235462
0.864561 0.922911 0.235584
0.975723 0.884077 0.258915
0.0831311 0.999542 0.269322
0.122896 0.999649 0.270405
0.170947 0.999725 0.273503
0.233707 0.999756 0.275486
0.304128 0.999573 0.276967
0.389242 0.999283 0.278065
0.493935 0.999512 0.281071
0.632792 0.999847 0.285344
0.915984 0.999603 0.295766
0.0176394 0.027451 0.142657
0.0991684 0.0416876 0.183261
0.181888 0.0555276 0.221836
0.29369 0.0674449 0.266102
0.438483 0.0776837 0.31899
0.575296 0.0900435 0.355673
0.704341 0.105989 0.392462
0.82829 0.12047 0.432853
0.947127 0.126787 0.491035
0.0423896 0.138872 0.274479
0.127993 0.145632 0.295125
0.21709 0.149599 0.307469
0.32697 0.155795 0.32401
0.448035 0.16321 0.343374
0.572564 0.176211 0.363653
0.700633 0.187991 0.387564
0.827405 0.198764 0.4224
0.957778 0.202762 0.472541
0.0585031 0.248859 0.337804
0.14847 0.24622 0.339208
0.236088 0.245975 0.341848
0.341466 0.249958 0.344884
0.455924 0.255924 0.354009
0.577279 0.262379 0.368002
0.703304 0.271244 0.386404
0.830121 0.280766 0.413321
0.956909 0.281773 0.454643
0.0939956 0.370306 0.366903
0.176425 0.366629 0.363409
0.260014 0.363882 0.361578
0.360555 0.362753 0.360998
0.470481 0.365011 0.362066
0.589227 0.36759 0.369635
0.711757 0.374136 0.380484
0.838148 0.377325 0.40267
0.966506 0.37641 0.436957
0.136263 0.502388 0.38294
0.211414 0.497566 0.376699
0.290745 0.494591 0.372534
0.385687 0.491844 0.372
0.491478 0.489555 0.368856
0.606317 0.4907 0.369039
0.726055 0.4916 0.374563
0.847059 0.490623 0.387594
0.97763 0.483024 0.417548
0.175387 0.639445 0.388006
0.242527 0.636927 0.383856
0.315953 0.6336 0.378637
0.405829 0.629786 0.374075
0.508034 0.627207 0.367712
0.621607 0.623468 0.364401
0.738293 0.620584 0.363333
0.862028 0.615274 0.369177
0.983261 0.602838 0.393378
0.19266 0.782849 0.386496
0.254337 0.780499 0.381842
0.322499 0.778317 0.375753
0.410346 0.77554 0.367926
0.512993 0.773159 0.359457
0.626337 0.770108 0.351385
0.747936 0.765255 0.344701
0.875364 0.758114 0.351156
0.981994 0.74049 0.377554
0.144381 0.93695 0.380056
0.207416 0.937209 0.375189
0.280079 0.937087 0.369009
0.372625 0.935378 0.361761
0.481895 0.932723 0.353704
0.604837 0.929076 0.346105
0.733944 0.924498 0.33962
0.869276 0.912779 0.3346
0.979797 0.873579 0.343481
0.0457465 0.999954 0.334249
0.0916762 0.999878 0.334066
0.142031 0.999939 0.333547
0.211841 0.999664 0.331762
0.300481 0.999588 0.340185
0.390188 0.999741 0.339773
0.493858 0.999619 0.338064
0.633844 0.999496 0.334493
0.928115 0.999893 0.342351
0.0331121 0.0442054 0.221515
0.122621 0.0588235 0.278935
0.21384 0.0719158 0.328328
0.34197 0.084123 0.392874
0.487617 0.093843 0.450309
0.614069 0.108278 0.483192
0.737362 0.123812 0.516899
0.857038 0.138048 0.555642
0.960784 0.139452 0.604288
0.0439155 0.17023 0.407996
0.141649 0.175372 0.4336
0.243076 0.176791 0.446723
0.359258 0.180682 0.460563
0.48069 0.188144 0.474708
0.605142 0.196948 0.493217
0.733043 0.207568 0.517815
0.854673 0.216297 0.548791
0.968597 0.21474 0.588525
0.0537575 0.282841 0.479881
0.153735 0.278065 0.47982
0.251392 0.276341 0.478645
0.363943 0.27837 0.482902
0.482918 0.280308 0.488579
0.606241 0.285725 0.499229
0.731563 0.291371 0.515099
0.852354 0.29662 0.537179
0.969009 0.292149 0.573037
0.0842298 0.399695 0.505074
0.175662 0.395346 0.502617
0.268025 0.391455 0.500008
0.37554 0.389273 0.498253
0.491005 0.388937 0.499352
0.613474 0.389471 0.502892
0.734493 0.390814 0.512291
0.85568 0.39089 0.526925
0.977127 0.383474 0.554711
0.125322 0.523293 0.520317
0.204273 0.51957 0.515358
0.290242 0.514946 0.512108
0.391745 0.511818 0.50695
0.505531 0.506813 0.505272
0.621729 0.505104 0.502281
0.742214 0.502617 0.504356
0.863325 0.498116 0.511559
0.984955 0.485634 0.535042
0.157931 0.651514 0.521462
0.229969 0.647715 0.517754
0.309239 0.643153 0.512779
0.404837 0.639216 0.506493
0.513603 0.635035 0.50071
0.630167 0.630976 0.494606
0.750698 0.62533 0.491188
0.874876 0.617304 0.492592
0.9879 0.603326 0.509896
0.169467 0.784482 0.518151
0.236561 0.78201 0.513481
0.311574 0.779965 0.507362
0.405051 0.777569 0.499046
0.512734 0.774838 0.489525
0.632242 0.769863 0.481514
0.755688 0.763455 0.472786
0.884886 0.755749 0.473854
0.987015 0.733959 0.487144
0.114809 0.927855 0.50106
0.183612 0.927321 0.496574
0.260517 0.926925 0.491264
0.358618 0.926345 0.486015
0.47393 0.923858 0.477485
0.600259 0.9196 0.467079
0.734707 0.914168 0.455634
0.872816 0.902892 0.443641
0.982666 0.861143 0.438911
0.0106661 0.999756 0.411063
0.0444953 0.999878 0.408057
0.101183 0.999817 0.405432
0.176883 0.999756 0.403479
0.273762 0.999969 0.404685
0.388617 0.999329 0.411963
0.495247 0.999466 0.407233
0.637385 0.999634 0.397772
0.943496 0.999374 0.396399
0.0512856 0.0666972 0.337774
0.149371 0.0836652 0.409842
0.256626 0.0971847 0.47834
0.397711 0.108812 0.559319
0.531319 0.122072 0.599832
0.655222 0.137819 0.628916
0.773236 0.151705 0.658442
0.885313 0.162676 0.69044
0.970489 0.160189 0.728542
0.0461738 0.214817 0.576059
0.148653 0.213107 0.596902
0.26363 0.213611 0.603235
0.389578 0.216938 0.611765
0.516487 0.222293 0.62649
0.643107 0.228534 0.641688
0.763272 0.236637 0.661433
0.880186 0.240085 0.684611
0.977493 0.233677 0.71574
0.047425 0.323415 0.632258
0.151324 0.318151 0.630625
0.260914 0.315358 0.630594
0.385321 0.312947 0.635126
0.511955 0.312963 0.640848
0.637537 0.315343 0.64921
0.760052 0.316945 0.659785
0.876127 0.316564 0.674495
0.980713 0.308293 0.701106
0.0658885 0.435645 0.653208
0.16524 0.430762 0.651286
0.26894 0.42594 0.648981
0.387869 0.419989 0.649958
0.511452 0.418555 0.649409
0.636316 0.414969 0.651942
0.756954 0.413123 0.654673
0.875257 0.407111 0.663935
0.987045 0.396399 0.684153
0.0945754 0.549615 0.660639
0.187304 0.544137 0.65771
0.281804 0.539193 0.656535
0.393515 0.533791 0.654337
0.513787 0.528283 0.649241
0.636698 0.523262 0.647868
0.759426 0.517418 0.647211
0.880674 0.509239 0.649592
0.991653 0.494224 0.66392
0.123095 0.666529 0.661006
0.205951 0.663233 0.657862
0.294499 0.659236 0.655085
0.399542 0.653513 0.649561
0.515938 0.647761 0.643503
0.638788 0.641306 0.639048
0.763058 0.634928 0.633463
0.888823 0.62414 0.631525
0.993027 0.607019 0.641306
0.131533 0.790249 0.654139
0.206195 0.788632 0.650446
0.289189 0.785351 0.647593
0.391745 0.78172 0.64181
0.51017 0.77763 0.634791
0.63415 0.772641 0.625559
0.764263 0.765454 0.615976
0.89485 0.755856 0.611383
0.99086 0.726986 0.608835
0.0755474 0.917815 0.624094
0.141726 0.917983 0.622003
0.224552 0.917205 0.618936
0.332769 0.916289 0.613397
0.455406 0.913146 0.604959
0.590845 0.909422 0.595148
0.73283 0.902296 0.582269
0.874891 0.891218 0.563973
0.98587 0.847028 0.550271
0.00503548 0.999664 0.506279
0.00784314 0.999695 0.500053
0.0402533 0.999496 0.494026
0.124178 0.999359 0.488991
0.23093 0.999756 0.4851
0.356191 0.999573 0.482887
0.492439 0.999832 0.487938
0.639582 0.999908 0.474861
0.959091 0.999847 0.454932
0.0679789 0.106111 0.511284
0.176837 0.123018 0.597391
0.299123 0.138827 0.681865
0.444327 0.15613 0.748043
0.57554 0.167605 0.774105
0.698085 0.181308 0.796796
0.809644 0.19205 0.818021
0.914656 0.198978 0.841031
0.981552 0.195224 0.865156
0.0480964 0.275303 0.76704
0.142504 0.2692 0.76614
0.273991 0.269993 0.774502
0.414786 0.268971 0.785916
0.549187 0.270008 0.795697
0.678508 0.273945 0.80763
0.795331 0.276051 0.820203
0.906538 0.276112 0.83331
0.986816 0.266636 0.85597
0.0492409 0.378424 0.792859
0.128786 0.371527 0.788891
0.256046 0.368734 0.794751
0.396582 0.363272 0.80032
0.533013 0.35938 0.805631
0.663966 0.356558 0.810452
0.785718 0.352743 0.818845
0.900236 0.348119 0.827802
0.991989 0.336187 0.843854
0.0475471 0.480934 0.802548
0.128786 0.474449 0.801221
0.249073 0.468635 0.803662
0.385946 0.462181 0.806363
0.521035 0.456565 0.809216
0.652049 0.450614 0.809598
0.776913 0.444266 0.811536
0.896193 0.434562 0.817533
0.995346 0.418112 0.829221
0.0478523 0.582757 0.804181
0.138918 0.578973 0.803555
0.252888 0.573434 0.804715
0.381018 0.56556 0.806897
0.513161 0.558862 0.804578
0.645975 0.551568 0.80354
0.774502 0.541421 0.803769
0.897612 0.529427 0.803281
0.998871 0.510994 0.813306
0.0506447 0.689738 0.797803
0.153475 0.686168 0.800916
0.254658 0.682017 0.798703
0.376394 0.67599 0.798871
0.50631 0.669261 0.796506
0.640513 0.661402 0.792996
0.773526 0.651301 0.788312
0.902419 0.637995 0.78584
0.998276 0.615854 0.783902
0.0579995 0.800092 0.789822
0.141665 0.79855 0.790494
0.239658 0.79704 0.788663
0.360265 0.79324 0.788617
0.492287 0.788144 0.784207
0.632013 0.780468 0.778607
0.76875 0.770947 0.769299
0.902358 0.756863 0.758831
0.995666 0.720546 0.737499
0.0253605 0.904509 0.746654
0.073518 0.904341 0.745693
0.157214 0.904494 0.743526
0.281621 0.904204 0.740337
0.418601 0.90164 0.736751
0.566278 0.897322 0.729244
0.721706 0.89073 0.717571
0.873915 0.877699 0.700038
0.990509 0.832578 0.674876
0.00483711 0.99968 0.620295
0.00553903 0.999786 0.614084
0.00700389 0.999908 0.60473
0.0396735 0.999863 0.594812
0.154864 0.999649 0.587259
0.302266 0.999893 0.578531
0.462623 0.999802 0.571954
0.639735 0.999481 0.5691
0.972869 0.999573 0.532372
0.0565805 0.177859 0.759014
0.181353 0.201419 0.847639
0.320302 0.22826 0.912276
0.47013 0.241306 0.944747
0.607645 0.250324 0.963912
0.732113 0.258076 0.979553
0.841917 0.265843 0.988464
0.948257 0.266926 0.995056
0.995956 0.263966 0.996811
0.0540322 0.363622 0.939559
0.0855116 0.354284 0.933196
0.243732 0.352728 0.948867
0.412055 0.349325 0.963607
0.564401 0.347951 0.975433
0.701488 0.346624 0.983917
0.822934 0.345083 0.989563
0.934768 0.337926 0.99411
0.998627 0.324086 0.997909
0.0531014 0.457465 0.95349
0.0640421 0.448844 0.948684
0.197971 0.442542 0.955627
0.370977 0.437324 0.969146
0.532677 0.430869 0.978729
0.677424 0.424414 0.986419
0.808454 0.41651 0.990799
0.923308 0.407263 0.994781
0.999985 0.389761 0.997513
0.0493935 0.550683 0.961013
0.052369 0.541985 0.954437
0.166186 0.535058 0.960098
0.338567 0.528206 0.968643
0.50573 0.519707 0.977386
0.656779 0.510231 0.98114
0.792477 0.498848 0.987381
0.917647 0.486656 0.989746
0.999878 0.461631 0.989288
0.0449531 0.641276 0.961578
0.0500649 0.633906 0.955932
0.152621 0.62916 0.959319
0.320821 0.621698 0.966781
0.484138 0.61268 0.972351
0.640482 0.60119 0.976745
0.782238 0.58941 0.976699
0.914321 0.57229 0.9785
0.999985 0.535943 0.972641
0.040116 0.723461 0.951431
0.053315 0.719631 0.947036
0.134676 0.715434 0.948699
0.294682 0.711452 0.956542
0.459449 0.70486 0.961395
0.619425 0.69456 0.962478
0.769558 0.679881 0.961837
0.90518 0.660426 0.953887
0.999725 0.623499 0.934844
0.032639 0.801724 0.930175
0.0407568 0.79884 0.925978
0.0910964 0.796033 0.924926
0.24477 0.793851 0.929808
0.413703 0.78967 0.932921
0.581994 0.781949 0.932387
0.741482 0.770611 0.926207
0.891142 0.752773 0.915923
0.999802 0.713588 0.887556
0.0247196 0.888762 0.890471
0.0244755 0.887648 0.885771
0.0246891 0.886397 0.878813
0.14342 0.885939 0.88101
0.316991 0.885374 0.883497
0.497307 0.881392 0.879744
0.68069 0.874052 0.872541
0.858564 0.860548 0.859709
0.995529 0.817075 0.823087
0.0105898 0.999634 0.775219
0.0107118 0.999878 0.76762
0.0102693 0.999924 0.758663
0.0104829 1 0.744167
0.0108644 0.999695 0.727169
0.162112 0.99971 0.713649
0.375097 0.999786 0.697597
0.612985 0.999664 0.687709
0.980407 0.999954 0.644709
0.0589303 0.382437 0.999786
0.0582437 0.414313 0.999786
0.135409 0.422782 0.999924
0.366201 0.430442 0.999344
0.551827 0.436118 0.999542
0.708583 0.437461 0.998978
0.835035 0.433204 0.999542
0.943343 0.422431 0.999649
0.999741 0.394736 0.999603
0.0547494 0.499382 0.999817
0.0559396 0.497826 1
0.0565957 0.497826 0.999939
0.205798 0.499641 0.999451
0.440665 0.502937 0.999115
0.627482 0.502602 0.999634
0.781598 0.492119 0.999481
0.911589 0.475654 0.999222
0.999802 0.442924 0.999802
0.0535286 0.553674 0.999954
0.0534829 0.552407 0.999969
0.052369 0.551705 0.999619
0.0852674 0.549584 0.999832
0.348013 0.55172 0.999863
0.56022 0.550851 0.99968
0.73225 0.544198 0.999329
0.881971 0.525444 0.999893
0.998825 0.486397 0.999664
0.0496834 0.606607 0.999863
0.0498054 0.604593 1
0.0499123 0.603662 0.999969
0.0478828 0.600717 0.999634
0.256657 0.599985 0.999725
0.49044 0.600168 0.999924
0.68011 0.596475 0.999985
0.845426 0.579782 0.999588
0.994247 0.539452 0.999161
0.0462196 0.65594 1
0.0449226 0.654368 0.999939
0.0458991 0.653544 0.999863
0.0470436 0.650599 0.999954
0.161166 0.648157 0.999771
0.418814 0.647501 0.999451
0.629404 0.645335 0.999893
0.808438 0.634241 0.999481
0.983551 0.594324 0.999222
0.0422217 0.704555 0.999893
0.0422217 0.704082 0.999939
0.0418555 0.702556 0.999924
0.0430152 0.699596 0.999863
0.0773022 0.696712 0.99968
0.33138 0.69601 0.999939
0.572824 0.693599 0.999664
0.775647 0.68777 0.999786
0.976257 0.652827 0.999313
0.0386511 0.758526 0.999832
0.0389258 0.757259 0.999908
0.0390784 0.756207 0.999954
0.0394293 0.753506 0.999969
0.0407874 0.750195 0.999817
0.222889 0.748913 0.999863
0.505394 0.745998 0.999435
0.741772 0.743267 0.999985
0.973266 0.715175 0.999573
0.030457 0.834531 0.991257
0.0314488 0.833005 0.991241
0.0320897 0.830625 0.989883
0.0323339 0.828031 0.992142
0.0319066 0.824933 0.994659
0.0784161 0.820645 0.997665
0.380026 0.817945 0.999832
0.682658 0.810758 0.999359
0.981247 0.787686 0.999146
0.0168002 0.976928 0.934478
0.0175937 0.978164 0.93373
0.0168612 0.979675 0.934661
0.0157778 0.983017 0.933669
0.0157626 0.988052 0.930465
0.0149081 0.993317 0.927382
0.0145113 0.998383 0.92459
0.303151 0.999237 0.944442
0.992401 0.995346 0.994095
