app/src/main/assets/luts/Fuji-ClassicChrome.cube
TITLE "Generated by Resolve"
LUT_3D_SIZE 33
0 0 0
0.0122835 0.000396735 0.000427253
0.016907 0.000411994 1.5259e-05
0.0266575 0.00129702 0.000213626
0.0391546 0.00138857 0.000701915
0.0520943 0.00225834 0.000885023
0.0674907 0.00285344 0.00137331
0.0843824 0.00352483 0.00128176
0.102037 0.00416571 0.0015259
0.124025 0.00508125 0.00285344
0.150835 0.00746166 0.00352483
0.177005 0.00872816 0.0034638
0.20708 0.0111849 0.00422675
0.24065 0.0131838 0.00616464
0.276707 0.0148775 0.00883497
0.315785 0.0178531 0.00961318
0.3561 0.0205539 0.012192
0.39881 0.024567 0.0133822
0.443305 0.0293736 0.0158389
0.492683 0.0339971 0.0211948
0.54258 0.0397803 0.0243534
0.588357 0.0459297 0.0284123
0.626535 0.053315 0.0341039
0.664973 0.0610971 0.0395056
0.701595 0.0698863 0.0463264
0.735759 0.0793164 0.0557412
0.768124 0.0903792 0.0638285
0.799786 0.103014 0.0739605
0.831037 0.117006 0.0863508
0.860121 0.130785 0.100435
0.89163 0.148074 0.116518
0.92253 0.16434 0.138186
0.951507 0.183398 0.162615
0.00103761 0.0132601 4.57771e-05
0.0158083 0.0148165 0.000137331
0.0241093 0.0154879 0.000213626
0.0347295 0.0159304 0.000427253
0.0493935 0.0168765 0.00047303
0.0651408 0.016907 0.000457771
0.0806897 0.0188907 0.00210575
0.0990005 0.0209964 0.00205997
0.119646 0.0223087 0.00195315
0.143343 0.024155 0.00256352
0.168475 0.026154 0.00300603
0.196246 0.0285954 0.00363165
0.232349 0.0318303 0.00538643
0.265888 0.0346685 0.00662242
0.302678 0.037583 0.00817884
0.343145 0.0414282 0.0106966
0.381888 0.047013 0.0128023
0.424094 0.0515908 0.0150607
0.465553 0.0565347 0.0174716
0.506065 0.0619516 0.0193179
0.545708 0.0679332 0.0233005
0.584329 0.0744488 0.0281376
0.62356 0.082948 0.033463
0.660441 0.0912032 0.0377966
0.696498 0.100114 0.0454719
0.730419 0.109667 0.0535286
0.764508 0.12015 0.065095
0.794797 0.133867 0.0742199
0.824933 0.147524 0.0862898
0.857206 0.1626 0.101564
0.886687 0.17763 0.116381
0.918944 0.195285 0.138094
0.952178 0.215747 0.160021
0.00155642 0.0217288 0.00103761
0.0170138 0.0231632 0.000793469
0.0268101 0.024094 0.000564584
0.0386664 0.0250095 0.000747692
0.0525521 0.0264591 0.00148013
0.0672313 0.0279393 0.00215152
0.0835584 0.0286412 0.00250248
0.10222 0.0297704 0.00205997
0.123934 0.0313268 0.00262455
0.149569 0.0338293 0.00323491
0.177371 0.0361028 0.00375372
0.206806 0.0391852 0.00456245
0.238926 0.0422827 0.00521859
0.274952 0.0458076 0.00634775
0.312184 0.0489662 0.00862135
0.34963 0.0526284 0.011017
0.389548 0.0573739 0.0125582
0.428565 0.0623789 0.0152132
0.468055 0.0677501 0.0172885
0.507759 0.0743877 0.0184939
0.546166 0.0789197 0.0228885
0.584741 0.085832 0.027512
0.624735 0.0939956 0.0332952
0.66041 0.102098 0.038819
0.696315 0.112108 0.045594
0.730556 0.122408 0.0537728
0.763439 0.134249 0.0632029
0.793408 0.146731 0.0737774
0.824659 0.160052 0.0864271
0.855558 0.17406 0.100618
0.88571 0.189624 0.115969
0.917571 0.208133 0.138476
0.951019 0.229007 0.160739
0.00242618 0.0326848 0.0018616
0.0215763 0.034638 0.00108339
0.0299077 0.0351263 0.000808728
0.0438544 0.0373083 0.00146487
0.0575113 0.0385748 0.0012665
0.0714885 0.0388342 0.00238041
0.0887617 0.0403906 0.002533
0.109071 0.0423285 0.00178531
0.131273 0.0430915 0.00285344
0.155154 0.0457618 0.00419623
0.182422 0.0496681 0.00460822
0.21326 0.0525063 0.00430304
0.247807 0.0545968 0.00448615
0.283696 0.0579538 0.0061799
0.320211 0.0609293 0.00868238
0.357275 0.0645151 0.0106355
0.392111 0.0701305 0.0122377
0.43093 0.0751659 0.0153811
0.46894 0.0806439 0.0174411
0.508324 0.0858167 0.0199435
0.546563 0.0912337 0.022034
0.586023 0.0993057 0.0270085
0.622629 0.107866 0.0323491
0.659327 0.115831 0.0383459
0.695613 0.125734 0.0457313
0.730495 0.13698 0.0537728
0.762188 0.148684 0.0635386
0.793347 0.160204 0.0738842
0.823911 0.172946 0.085832
0.853651 0.18793 0.0996414
0.884642 0.204425 0.116014
0.916045 0.223468 0.138582
0.950042 0.243763 0.16202
0.00480659 0.0475624 0.00228885
0.0243229 0.049546 0.00276188
0.0347753 0.0501869 0.00231937
0.0470283 0.0509957 0.00148013
0.0612802 0.0525063 0.00114443
0.0771344 0.054078 0.00250248
0.0951858 0.0561685 0.00163272
0.115404 0.0571756 0.00172427
0.137987 0.0588693 0.00260929
0.163195 0.0607919 0.00404364
0.190555 0.063859 0.00445563
0.222873 0.0664378 0.00445563
0.256199 0.0687266 0.00521859
0.290227 0.0715496 0.00613413
0.324758 0.0761883 0.00784314
0.359792 0.0809339 0.0101625
0.394888 0.0857099 0.012726
0.432273 0.0897231 0.0150301
0.470298 0.0945754 0.0172732
0.509178 0.100374 0.0196536
0.547112 0.106935 0.0225071
0.584924 0.115465 0.0266728
0.622507 0.123781 0.0318914
0.658701 0.132006 0.038407
0.694514 0.142275 0.0456397
0.729152 0.153307 0.0545663
0.762127 0.163836 0.0645914
0.792767 0.175982 0.0741436
0.823438 0.190204 0.0866102
0.85304 0.204791 0.0996872
0.883772 0.221317 0.116014
0.914946 0.240742 0.138277
0.949508 0.260868 0.162966
0.0078584 0.0635996 0.00360113
0.029572 0.0661479 0.00325017
0.0411383 0.0672313 0.00340276
0.0532387 0.0679637 0.00289921
0.0672923 0.0695201 0.00265507
0.0827955 0.0707408 0.002533
0.100999 0.0719158 0.00244144
0.122026 0.0728618 0.00213626
0.145098 0.0747234 0.00337224
0.170077 0.076585 0.00410468
0.198856 0.0788128 0.00410468
0.229923 0.0814221 0.00526436
0.262699 0.0845045 0.00585946
0.295354 0.0885023 0.0069276
0.328817 0.093492 0.00825513
0.363607 0.0978256 0.00933852
0.398688 0.101701 0.0111543
0.434012 0.105913 0.0142061
0.472648 0.111315 0.0163272
0.510491 0.118013 0.0187381
0.55021 0.124926 0.0222019
0.58822 0.132479 0.0267796
0.624353 0.140673 0.0323186
0.659342 0.150393 0.0378576
0.694133 0.160479 0.0461128
0.729122 0.170932 0.054963
0.761196 0.181582 0.0628367
0.792355 0.194339 0.0753643
0.822889 0.208408 0.0871901
0.852522 0.223499 0.100237
0.882872 0.240177 0.116548
0.914229 0.259495 0.137224
0.948074 0.278157 0.163378
0.0108644 0.0846265 0.00483711
0.0335393 0.0857099 0.0043183
0.045182 0.0862135 0.00434882
0.057435 0.087068 0.00395209
0.0711223 0.0885023 0.00317388
0.0875868 0.0895857 0.00250248
0.106874 0.0907454 0.0018616
0.127337 0.0916915 0.00167849
0.15108 0.0930343 0.00263981
0.177813 0.095552 0.00273136
0.205203 0.0976425 0.00378424
0.234195 0.100069 0.00581369
0.26833 0.10399 0.00686656
0.30045 0.108049 0.00770581
0.333577 0.112474 0.00827039
0.367315 0.116976 0.00863661
0.40209 0.120912 0.0114137
0.437171 0.12459 0.0146334
0.475425 0.131411 0.0158389
0.513756 0.138125 0.0189975
0.552773 0.145037 0.0225223
0.591455 0.152377 0.0281529
0.626825 0.160922 0.0325933
0.661357 0.170428 0.0375219
0.695521 0.179553 0.0479591
0.728054 0.190494 0.0551919
0.761639 0.202991 0.0647746
0.792584 0.21471 0.0758068
0.822095 0.229023 0.0877241
0.852186 0.244251 0.101061
0.882521 0.260609 0.118196
0.914199 0.278996 0.139132
0.945891 0.297078 0.163485
0.0142824 0.107164 0.00529488
0.0394751 0.108507 0.00520333
0.0507973 0.109377 0.00482185
0.0629129 0.109972 0.00389105
0.0775769 0.111254 0.00341802
0.0938735 0.112657 0.00320439
0.111971 0.11313 0.00321965
0.134218 0.115267 0.00369268
0.157702 0.116884 0.0039826
0.18407 0.117662 0.00434882
0.211582 0.120333 0.00590524
0.24242 0.124056 0.0069276
0.273091 0.127504 0.00715648
0.30544 0.130877 0.00819409
0.338018 0.134401 0.00886549
0.373526 0.138552 0.00981155
0.407126 0.142748 0.0125582
0.443549 0.148272 0.0151522
0.480171 0.153414 0.0180667
0.518456 0.160525 0.0201724
0.555657 0.16762 0.0236667
0.594125 0.175219 0.0293278
0.629145 0.18439 0.0332036
0.662226 0.193576 0.0398413
0.696513 0.202411 0.0476692
0.729061 0.213947 0.056611
0.761166 0.226017 0.066331
0.792294 0.238285 0.0776226
0.821653 0.251911 0.0892805
0.852354 0.266529 0.103792
0.883085 0.282322 0.120485
0.914107 0.299184 0.140154
0.943526 0.317067 0.164233
0.0183261 0.135576 0.00534066
0.0449073 0.136782 0.0052491
0.0562905 0.136568 0.00520333
0.0696727 0.137285 0.0047303
0.0846113 0.138613 0.0040589
0.101183 0.139391 0.00489815
0.1196 0.140063 0.00538643
0.141909 0.140856 0.00518807
0.164965 0.142473 0.00497444
0.1906 0.14461 0.00503548
0.220447 0.146929 0.00611887
0.25005 0.149493 0.00653086
0.279988 0.152789 0.00762951
0.311345 0.154971 0.00982681
0.345449 0.158587 0.0110628
0.378897 0.162615 0.0122377
0.41384 0.168032 0.0142367
0.449088 0.173388 0.016083
0.486458 0.179446 0.0175479
0.524498 0.184817 0.0210727
0.561135 0.191775 0.0257725
0.596582 0.200137 0.0307012
0.63061 0.21117 0.0366522
0.664881 0.220233 0.0430152
0.698192 0.229282 0.0487373
0.731014 0.240238 0.0574044
0.761196 0.251087 0.0677958
0.791165 0.263478 0.0799878
0.822583 0.275532 0.0927138
0.852872 0.289235 0.105364
0.882948 0.304982 0.121401
0.913573 0.321294 0.141451
0.942 0.338933 0.166064
0.0254063 0.167239 0.00741588
0.0530251 0.165698 0.00721752
0.0654765 0.166171 0.00646983
0.0790265 0.166583 0.00573739
0.0926528 0.167193 0.0061799
0.108049 0.168246 0.00663767
0.128344 0.1691 0.00756847
0.149722 0.169604 0.00755322
0.172763 0.170626 0.00668345
0.198489 0.17203 0.00764477
0.22681 0.174121 0.00852979
0.257237 0.177157 0.00860609
0.287922 0.179156 0.0100404
0.319875 0.182284 0.0115206
0.352911 0.18645 0.0126345
0.38674 0.191546 0.0144045
0.419516 0.196399 0.0165866
0.455589 0.203067 0.0178378
0.491325 0.208774 0.0200351
0.528283 0.215152 0.0221103
0.564752 0.222171 0.0282292
0.599649 0.230884 0.0350805
0.633448 0.240116 0.0399786
0.667292 0.248661 0.0448615
0.70042 0.256779 0.0509499
0.73254 0.267414 0.0595865
0.762112 0.278279 0.0705577
0.792828 0.289128 0.0819562
0.824018 0.29987 0.0932326
0.853834 0.313329 0.106554
0.882902 0.329015 0.122927
0.913451 0.34461 0.142947
0.943191 0.36144 0.168399
0.0340429 0.199283 0.0104677
0.0613107 0.199313 0.00953689
0.0726024 0.199481 0.00946059
0.0857404 0.199817 0.0091249
0.100267 0.200336 0.00883497
0.117403 0.200748 0.0089723
0.136507 0.201801 0.0089723
0.15906 0.202808 0.00900282
0.183154 0.203433 0.00981155
0.209079 0.204944 0.0115511
0.237781 0.207599 0.01149
0.268376 0.21091 0.0112459
0.299107 0.212665 0.01178
0.330297 0.215808 0.0125734
0.362341 0.220752 0.0141146
0.393957 0.225101 0.0163119
0.428016 0.230442 0.018555
0.462348 0.235065 0.0213321
0.498375 0.241123 0.0237583
0.534188 0.246906 0.026978
0.56994 0.253635 0.032639
0.604791 0.26128 0.0372625
0.637842 0.27013 0.0410925
0.66949 0.277653 0.0476234
0.70193 0.28658 0.0557717
0.733547 0.295415 0.0646067
0.764401 0.306203 0.0745098
0.793988 0.315999 0.0842603
0.823941 0.327291 0.0948653
0.853025 0.340642 0.106905
0.883177 0.353887 0.124453
0.914977 0.368887 0.146212
0.946197 0.384726 0.171008
0.0417792 0.236194 0.0139773
0.069688 0.237064 0.0124056
0.081178 0.236439 0.0122988
0.0939956 0.23682 0.0122225
0.110445 0.237217 0.0116121
0.127718 0.23769 0.0111543
0.14815 0.238315 0.0113222
0.170336 0.239353 0.0118257
0.194812 0.240024 0.0132906
0.220432 0.241032 0.0136263
0.248203 0.243977 0.0130465
0.278599 0.246189 0.0140993
0.31017 0.249042 0.0156863
0.340368 0.252399 0.0168612
0.37142 0.255589 0.0181888
0.404456 0.260288 0.0196536
0.436576 0.264729 0.0222477
0.470497 0.269947 0.0256504
0.506172 0.27509 0.0287938
0.540246 0.280293 0.0323186
0.576257 0.286137 0.0375677
0.609796 0.292897 0.0418708
0.642969 0.300359 0.0473487
0.673579 0.307958 0.0536965
0.704738 0.316396 0.0615396
0.735576 0.324742 0.0693065
0.765805 0.333913 0.0776532
0.795331 0.343465 0.0864576
0.82414 0.35491 0.0974594
0.853712 0.367773 0.112718
0.884398 0.380301 0.129747
0.915923 0.394476 0.148257
0.948653 0.409277 0.171344
0.0528878 0.276173 0.0167086
0.0783093 0.276585 0.0153506
0.0898451 0.276692 0.0153811
0.104036 0.275975 0.0158083
0.119783 0.275715 0.0161288
0.138506 0.276204 0.0159457
0.158267 0.276692 0.0158846
0.180911 0.276829 0.0162356
0.205493 0.27808 0.0166476
0.232822 0.280171 0.0166018
0.260822 0.282032 0.0168917
0.289769 0.285328 0.018265
0.319448 0.28751 0.0197757
0.350347 0.289128 0.0216373
0.381415 0.292638 0.0227512
0.412818 0.295415 0.0240787
0.445624 0.299687 0.0283207
0.478965 0.304448 0.0317388
0.512963 0.309346 0.0339818
0.548638 0.314595 0.0394141
0.582513 0.31931 0.0439765
0.615885 0.325704 0.0487068
0.646983 0.332036 0.0538796
0.678019 0.3393 0.0598917
0.709041 0.346548 0.0665904
0.739208 0.35462 0.0734417
0.768856 0.362417 0.0810864
0.797818 0.372778 0.09131
0.826841 0.383337 0.105058
0.856443 0.395453 0.119371
0.886397 0.407904 0.133333
0.917281 0.420401 0.151202
0.949462 0.435447 0.175875
0.0634165 0.316655 0.0198367
0.0916915 0.315648 0.0198062
0.103044 0.315999 0.020798
0.11632 0.316121 0.0212558
0.132143 0.315785 0.0209201
0.149065 0.315343 0.0205234
0.170397 0.31632 0.0209354
0.192767 0.317525 0.0211948
0.218341 0.318334 0.020737
0.24567 0.31986 0.0206149
0.272862 0.322087 0.021912
0.300542 0.323507 0.0231327
0.329503 0.325322 0.0246433
0.359884 0.327504 0.0261387
0.391211 0.329717 0.0276951
0.42359 0.332525 0.0311131
0.45539 0.335286 0.0346685
0.488762 0.339696 0.0379339
0.52285 0.344564 0.0418402
0.556191 0.348119 0.0453956
0.58938 0.353246 0.0501106
0.620783 0.35874 0.0551766
0.651682 0.365332 0.0604562
0.682918 0.371817 0.0661784
0.713222 0.378485 0.0729992
0.743114 0.386236 0.0809644
0.772686 0.394598 0.0895552
0.800641 0.402975 0.0981613
0.830396 0.413199 0.112261
0.860243 0.423911 0.124239
0.889723 0.435904 0.137484
0.919402 0.447959 0.156802
0.946715 0.462058 0.182086
0.0741131 0.357565 0.0257115
0.101854 0.356924 0.0251469
0.114199 0.357382 0.0252689
0.127565 0.358236 0.0255589
0.142855 0.359045 0.025803
0.161303 0.359014 0.0258946
0.180514 0.358663 0.025742
0.204517 0.358236 0.0267491
0.230564 0.358038 0.0280919
0.257633 0.359289 0.0280766
0.284672 0.360281 0.0277867
0.312535 0.362158 0.0294347
0.340932 0.364065 0.0315557
0.370581 0.365545 0.0339208
0.40174 0.367437 0.036408
0.43328 0.369223 0.038941
0.466209 0.372213 0.0421454
0.498634 0.376226 0.0458534
0.530343 0.379889 0.0489357
0.563607 0.384192 0.0520638
0.595895 0.388479 0.056733
0.627497 0.393835 0.0621653
0.659022 0.399771 0.0691539
0.688243 0.405127 0.0754864
0.717876 0.412222 0.0818494
0.747768 0.419409 0.0887922
0.776394 0.427344 0.0968948
0.804669 0.434852 0.106569
0.834669 0.443824 0.118349
0.862226 0.455268 0.130083
0.891005 0.466072 0.144671
0.922087 0.47744 0.164813
0.947066 0.489525 0.188022
0.0859083 0.400488 0.0323186
0.114626 0.400198 0.0331884
0.12604 0.399908 0.0336614
0.140352 0.399603 0.0336767
0.156481 0.398962 0.0334936
0.174411 0.398779 0.033402
0.195895 0.399237 0.0336156
0.21915 0.399756 0.0337377
0.243015 0.399634 0.0341192
0.268666 0.4 0.0351568
0.296025 0.400565 0.0369573
0.324681 0.400595 0.0388495
0.354025 0.401831 0.0408484
0.38352 0.403662 0.0428931
0.413565 0.405173 0.0452125
0.444236 0.407538 0.0478523
0.474922 0.410956 0.0506142
0.505837 0.414008 0.053315
0.538918 0.417685 0.0568093
0.570642 0.421134 0.0608835
0.603098 0.424903 0.0657206
0.634256 0.430198 0.0711376
0.664179 0.435294 0.0766613
0.693156 0.441779 0.0832074
0.72253 0.447669 0.0891585
0.752529 0.454276 0.0934157
0.780438 0.460319 0.103578
0.80856 0.467948 0.114443
0.836439 0.476219 0.125139
0.865736 0.487205 0.138354
0.895308 0.496513 0.153689
0.925582 0.507118 0.172519
0.950317 0.518608 0.194537
0.099382 0.443412 0.0421149
0.127413 0.441871 0.0419318
0.139544 0.442054 0.0416571
0.153918 0.442084 0.0412299
0.170275 0.442145 0.0412757
0.189609 0.441352 0.0419471
0.211017 0.440909 0.0429999
0.233585 0.440772 0.0436713
0.25716 0.440681 0.0441749
0.282673 0.440879 0.0449836
0.308873 0.44152 0.0458381
0.33669 0.442603 0.0472877
0.365637 0.44361 0.0501411
0.393866 0.444129 0.0524453
0.423468 0.445762 0.0543374
0.45388 0.448096 0.0561227
0.484428 0.44976 0.0578012
0.515663 0.452811 0.0614023
0.547448 0.455314 0.0656443
0.578912 0.458747 0.0698711
0.611124 0.46244 0.073991
0.641001 0.466865 0.0788739
0.671031 0.472129 0.0845197
0.698741 0.477485 0.090425
0.727398 0.483238 0.0967575
0.756237 0.48893 0.10457
0.783764 0.495155 0.113924
0.811795 0.502312 0.122026
0.840604 0.510002 0.132509
0.869596 0.518364 0.146426
0.899016 0.527504 0.161898
0.929152 0.536446 0.178332
0.955749 0.547936 0.202579
0.112902 0.485328 0.0513313
0.144152 0.485222 0.0510109
0.155673 0.484947 0.0509651
0.170153 0.483726 0.0512703
0.186175 0.483146 0.0517586
0.203662 0.482628 0.0522927
0.224735 0.48246 0.0530556
0.247349 0.482033 0.0537423
0.27187 0.481804 0.0542916
0.296773 0.482414 0.0547951
0.322835 0.482948 0.0555734
0.348516 0.483268 0.057023
0.376165 0.484291 0.0587472
0.404273 0.485649 0.061326
0.43328 0.486152 0.0639048
0.463706 0.487678 0.0657511
0.494575 0.48925 0.0678264
0.525643 0.491585 0.0719005
0.556725 0.494408 0.076051
0.587594 0.497734 0.0793164
0.618021 0.500587 0.0830549
0.649638 0.504463 0.0880293
0.677119 0.509133 0.0934005
0.705486 0.514153 0.0991989
0.73402 0.519142 0.106752
0.761181 0.524453 0.11426
0.789212 0.530892 0.12221
0.815869 0.537545 0.1308
0.844373 0.544244 0.141833
0.873014 0.550805 0.155215
0.902983 0.558389 0.170977
0.932265 0.566445 0.188403
0.953979 0.576471 0.213504
0.129412 0.528023 0.0610819
0.15819 0.52697 0.061326
0.16965 0.52639 0.061326
0.182483 0.525643 0.0614481
0.198672 0.524849 0.0615549
0.217533 0.524224 0.0618296
0.238529 0.524086 0.0623484
0.261219 0.52401 0.0629435
0.285451 0.524224 0.063859
0.309697 0.523964 0.0646372
0.335836 0.524163 0.0662242
0.36257 0.524498 0.0682231
0.389349 0.525429 0.0701152
0.415824 0.526162 0.0716259
0.44416 0.527825 0.0734112
0.474449 0.529198 0.0753643
0.504494 0.530358 0.0785992
0.536065 0.532265 0.0828412
0.566583 0.534463 0.0862593
0.597101 0.536156 0.0894942
0.626673 0.539971 0.0940414
0.656107 0.54342 0.0988632
0.684062 0.547814 0.104067
0.711849 0.551614 0.110399
0.740246 0.555047 0.117113
0.767758 0.560327 0.123171
0.793942 0.565591 0.131106
0.821042 0.571664 0.140856
0.848173 0.576501 0.150423
0.876875 0.582773 0.165225
0.905425 0.58909 0.181384
0.934966 0.597665 0.20264
0.950973 0.606256 0.225406
0.14406 0.570977 0.0715496
0.171572 0.568765 0.0729381
0.183978 0.568078 0.0729992
0.19826 0.567849 0.0725567
0.215122 0.567193 0.0719615
0.232837 0.567071 0.071458
0.253025 0.566979 0.0722057
0.274891 0.566262 0.0730144
0.299107 0.566155 0.0741894
0.323262 0.56585 0.0762036
0.348669 0.565667 0.0780194
0.373724 0.565652 0.0789654
0.399802 0.566766 0.0804456
0.427329 0.567864 0.0822156
0.455863 0.568429 0.0837262
0.484947 0.569406 0.0859846
0.514687 0.57084 0.0894636
0.543847 0.572015 0.0928054
0.575143 0.573114 0.0967575
0.605798 0.575494 0.101015
0.635843 0.578378 0.105623
0.663706 0.581125 0.109499
0.691524 0.584054 0.113664
0.719417 0.587518 0.119265
0.746639 0.59173 0.125933
0.772946 0.595331 0.132845
0.799939 0.600153 0.141222
0.825986 0.604166 0.149798
0.852232 0.608957 0.161028
0.880095 0.613901 0.176165
0.908324 0.620264 0.194171
0.938155 0.627649 0.214893
0.951965 0.635447 0.238285
0.157824 0.611505 0.0820172
0.186862 0.610544 0.0822003
0.198398 0.61033 0.0823072
0.210925 0.609827 0.0823682
0.226932 0.608881 0.0825208
0.24538 0.608591 0.083299
0.265309 0.608362 0.0841993
0.28716 0.608026 0.0851911
0.310567 0.607797 0.085893
0.334493 0.606973 0.0864881
0.359915 0.606973 0.0881666
0.385855 0.607004 0.0902266
0.412329 0.607019 0.0917067
0.438941 0.607111 0.0922103
0.466789 0.607736 0.0932784
0.495521 0.608988 0.096788
0.52462 0.609659 0.100053
0.554665 0.610697 0.104219
0.584955 0.612039 0.108141
0.612757 0.614191 0.110948
0.642405 0.616526 0.114321
0.671016 0.618799 0.118975
0.698268 0.620935 0.124193
0.725246 0.623789 0.130419
0.750912 0.626474 0.136751
0.776898 0.630121 0.144121
0.803281 0.634501 0.152605
0.829923 0.637018 0.163455
0.856245 0.640787 0.175753
0.883696 0.645716 0.190723
0.912016 0.650843 0.206867
0.93901 0.65803 0.227863
0.952392 0.664652 0.251499
0.171817 0.649546 0.0932631
0.199557 0.648066 0.0934462
0.211856 0.648005 0.0935531
0.226062 0.647852 0.0937057
0.242023 0.647791 0.0937667
0.259907 0.64744 0.0937514
0.279225 0.646769 0.0943465
0.300542 0.646403 0.0955825
0.324559 0.645762 0.09691
0.347601 0.645457 0.0982681
0.371145 0.64538 0.0994888
0.395377 0.644816 0.100404
0.422019 0.645182 0.102556
0.449622 0.645655 0.104387
0.477531 0.646418 0.106477
0.506905 0.647623 0.108873
0.535821 0.648234 0.111437
0.564599 0.648478 0.114107
0.592477 0.64979 0.11696
0.621256 0.651453 0.120134
0.648478 0.652689 0.124254
0.677195 0.654368 0.12932
0.704387 0.656245 0.134768
0.730678 0.657588 0.140322
0.755978 0.659907 0.146593
0.781781 0.66273 0.155001
0.807752 0.666316 0.164645
0.833448 0.669276 0.175006
0.860182 0.673182 0.189487
0.886961 0.677241 0.203098
0.915496 0.682231 0.220066
0.941756 0.687861 0.239933
0.951904 0.693355 0.263218
0.184085 0.685786 0.104662
0.213962 0.684916 0.104936
0.225422 0.684688 0.105226
0.239826 0.684276 0.10547
0.2551 0.684031 0.10605
0.273045 0.683558 0.106859
0.291844 0.68336 0.107744
0.3131 0.682841 0.108553
0.333471 0.68246 0.108736
0.355566 0.682704 0.109346
0.379324 0.683024 0.110079
0.404623 0.683085 0.111147
0.430732 0.682765 0.111803
0.458305 0.682887 0.113909
0.486427 0.683162 0.116258
0.514427 0.683436 0.119097
0.542855 0.684031 0.122591
0.571527 0.685084 0.126146
0.599359 0.68629 0.128664
0.627024 0.686656 0.131456
0.655253 0.68751 0.135393
0.682673 0.688533 0.14052
0.709911 0.689677 0.146563
0.735714 0.691264 0.153033
0.760952 0.692775 0.159945
0.786404 0.695415 0.16817
0.811017 0.697841 0.177493
0.837156 0.700877 0.188739
0.864164 0.703853 0.201007
0.891798 0.708476 0.216938
0.920378 0.711559 0.231479
0.95053 0.717586 0.254841
0.951461 0.720775 0.277745
0.195605 0.720684 0.116716
0.224308 0.720241 0.116533
0.235477 0.720073 0.116548
0.248707 0.719295 0.116213
0.263157 0.718883 0.116197
0.280491 0.71841 0.11606
0.298726 0.718227 0.116655
0.318791 0.718273 0.117723
0.340856 0.718227 0.11902
0.363165 0.717708 0.119615
0.386175 0.717845 0.12015
0.410651 0.718059 0.120806
0.436774 0.717906 0.12285
0.464576 0.717418 0.125582
0.492958 0.716884 0.12813
0.521523 0.717357 0.130648
0.551003 0.717815 0.133349
0.577279 0.718257 0.1364
0.605386 0.719097 0.140322
0.632593 0.719661 0.143389
0.659892 0.72015 0.14696
0.68716 0.72166 0.153094
0.714275 0.72256 0.159594
0.740429 0.724025 0.166506
0.765332 0.72604 0.173663
0.789837 0.727794 0.181109
0.815839 0.729976 0.191348
0.841154 0.732235 0.200565
0.868406 0.735286 0.213596
0.895766 0.738094 0.229191
0.924712 0.741848 0.247929
0.948196 0.745998 0.269459
0.952255 0.749157 0.296147
0.200656 0.754803 0.127001
0.228946 0.75404 0.126741
0.240665 0.753643 0.126543
0.254063 0.753124 0.126375
0.268818 0.752911 0.126833
0.286046 0.752361 0.127275
0.304204 0.75201 0.12784
0.324483 0.751812 0.128756
0.346136 0.751675 0.129473
0.368093 0.751659 0.13048
0.39115 0.751415 0.131334
0.416129 0.751049 0.133181
0.443198 0.751034 0.135851
0.470558 0.75108 0.138201
0.497749 0.750988 0.139239
0.52668 0.751232 0.140398
0.554116 0.751888 0.143877
0.582391 0.752697 0.147784
0.609537 0.753048 0.150835
0.63743 0.754101 0.154253
0.664866 0.754711 0.159945
0.69308 0.754665 0.165621
0.719066 0.755489 0.172091
0.744121 0.756481 0.178317
0.769894 0.758267 0.18613
0.79498 0.760159 0.194705
0.820081 0.761929 0.203326
0.845914 0.76347 0.214374
0.872648 0.765347 0.228763
0.900359 0.768185 0.244694
0.929625 0.772122 0.263874
0.950225 0.775311 0.286702
0.953353 0.777707 0.310811
0.203433 0.787442 0.137026
0.230823 0.786923 0.136919
0.242878 0.786709 0.13724
0.256672 0.786572 0.137545
0.27155 0.786511 0.138018
0.289586 0.786328 0.138323
0.30724 0.785687 0.138643
0.326406 0.785473 0.139513
0.348241 0.785092 0.140337
0.370748 0.784939 0.141421
0.394629 0.784848 0.142504
0.420081 0.784283 0.143389
0.446128 0.784451 0.144457
0.472465 0.784634 0.146593
0.500298 0.784894 0.149218
0.527718 0.784634 0.152163
0.556848 0.784726 0.155734
0.585748 0.785122 0.160449
0.614603 0.785306 0.165759
0.642542 0.785672 0.170748
0.669657 0.786389 0.175219
0.695567 0.786923 0.180224
0.722759 0.787717 0.186526
0.748348 0.788739 0.193088
0.773495 0.789807 0.199741
0.799222 0.791592 0.208179
0.824262 0.792477 0.218708
0.850172 0.794034 0.231067
0.876936 0.795575 0.244419
0.905638 0.798169 0.260319
0.934051 0.801541 0.279942
0.95462 0.80415 0.303166
0.954711 0.803113 0.323857
0.201602 0.820127 0.146914
0.230335 0.819776 0.146532
0.242649 0.819562 0.146334
0.255528 0.819547 0.146395
