app/src/main/assets/luts/Fuji-ASTIA.cube
TITLE "Generated by Resolve"
LUT_3D_SIZE 33
0 0 0
0.0245212 0.00114443 0
0.0318761 0.00140383 0
0.0442359 0.00248722 4.57771e-05
0.0564584 0.00344854 0.000411994
0.0691691 0.00373846 0.000411994
0.0848402 0.00396735 0.000320439
0.105531 0.00611887 0.000747692
0.126528 0.00639353 0.000961318
0.15198 0.00701915 0.00015259
0.180331 0.00988785 0.000518807
0.210575 0.0129244 0.000564584
0.245396 0.0143435 0.000198367
0.281498 0.0154879 0.000137331
0.317723 0.0166018 0.000274662
0.354803 0.0172122 3.0518e-05
0.395834 0.0174716 0
0.438712 0.0182956 4.57771e-05
0.482033 0.0187991 0.000183108
0.527108 0.0180819 0.000198367
0.572732 0.0174716 0.000167849
0.615488 0.0164187 0.000244144
0.652613 0.0160678 1.5259e-05
0.686931 0.016022 0.00169375
0.723064 0.0155489 0.00477607
0.760281 0.0144961 0.0115053
0.79585 0.0143587 0.0201724
0.831586 0.0122072 0.0350195
0.868864 0.0112917 0.0534524
0.906371 0.0087892 0.073518
0.945724 0.00495918 0.0984817
0.982727 0.00471504 0.135775
0.999588 0.0015259 0.17911
0.00460822 0.0303349 0.00030518
0.0314488 0.032105 0.000213626
0.0415503 0.0327459 0.00030518
0.0528878 0.0335393 0.000122072
0.0675669 0.0336767 0.000167849
0.0838941 0.0340734 1.5259e-05
0.102052 0.0352178 0.000488289
0.121981 0.0368505 0.00015259
0.145708 0.0379644 3.0518e-05
0.173144 0.0392767 0.000183108
0.202518 0.0395972 0.000244144
0.23444 0.0410925 1.5259e-05
0.270054 0.042298 0
0.306645 0.0427863 7.62951e-05
0.343709 0.0435187 0.000289921
0.383398 0.0438239 0.000335698
0.423316 0.0448615 0.000427253
0.462928 0.0454414 0.000564584
0.502373 0.0464942 0.000518807
0.539971 0.0463264 0.000167849
0.578256 0.0460822 0.000244144
0.615076 0.046479 0.000122072
0.65037 0.0478981 3.0518e-05
0.684932 0.047776 3.0518e-05
0.722148 0.0469978 0.000503548
0.758648 0.0460975 0.002533
0.792691 0.0452888 0.0109255
0.82652 0.0448463 0.0218509
0.862104 0.0427863 0.0383001
0.902388 0.0395209 0.0616464
0.941329 0.0357061 0.0869764
0.985855 0.0295872 0.12108
0.998978 0.0237583 0.16228
0.00686656 0.0421302 0.00111391
0.0343938 0.0438087 0.00030518
0.0453193 0.0444038 0.000274662
0.0567941 0.0448615 0.000122072
0.0702831 0.0457313 0.000122072
0.086717 0.0467079 0.000244144
0.106615 0.0475776 0.000106813
0.128588 0.049012 0.000198367
0.15111 0.0498665 3.0518e-05
0.178637 0.0499428 0.000259403
0.209827 0.0510262 0.000198367
0.242924 0.0523995 0.000137331
0.278035 0.0527199 0.000183108
0.314168 0.0540627 0.00015259
0.352163 0.0541543 0.000106813
0.390829 0.0542458 0.000122072
0.428229 0.0551308 0.000411994
0.465339 0.0564584 0.000350958
0.502815 0.0567025 0.000259403
0.540108 0.0576486 0.000503548
0.578973 0.0580148 0.000213626
0.614801 0.0590372 7.62951e-05
0.651057 0.0595102 0.000183108
0.685695 0.0589456 6.10361e-05
0.722286 0.0591135 9.15541e-05
0.756771 0.0594949 0.00157168
0.79115 0.0593729 0.00363165
0.824765 0.0581674 0.0160372
0.861448 0.0564584 0.0339666
0.899351 0.0534066 0.0551461
0.939345 0.0487984 0.0817731
0.985901 0.043534 0.116121
0.997589 0.0365606 0.156069
0.0106813 0.0559396 0.000991836
0.037644 0.0573281 7.62951e-05
0.0476539 0.0576028 0.000213626
0.0618448 0.0587015 0.00047303
0.0764782 0.0599222 0.000381476
0.0928817 0.0608988 0.000198367
0.112886 0.0619364 0.000198367
0.134539 0.0621347 0.000198367
0.156786 0.0612497 1.5259e-05
0.18262 0.062623 0.000106813
0.215213 0.0648508 0.000503548
0.250172 0.0657816 0.000488289
0.285969 0.0657054 0.000381476
0.32256 0.067155 0.000198367
0.359594 0.0674754 7.62951e-05
0.394522 0.0677348 3.0518e-05
0.427329 0.0694743 3.0518e-05
0.466758 0.0699626 3.0518e-05
0.503365 0.0708934 0.000228885
0.541253 0.0714733 0.000320439
0.578485 0.0726635 4.57771e-05
0.615473 0.0737163 0.000106813
0.651087 0.0739452 0.000137331
0.685328 0.0731518 4.57771e-05
0.720592 0.0736553 4.57771e-05
0.755291 0.0750896 0.000320439
0.788846 0.0755932 0.00103761
0.824186 0.0734874 0.0133211
0.859953 0.0713664 0.0285954
0.896895 0.069688 0.0480659
0.937621 0.065507 0.0767224
0.983658 0.0600595 0.109743
0.996765 0.0502327 0.149477
0.0145113 0.0730144 1.5259e-05
0.0424048 0.0746319 0.000244144
0.0528878 0.075227 0.000183108
0.0655375 0.0754101 0.000320439
0.0809033 0.0758221 0.000411994
0.0990158 0.0764019 0.000244144
0.118196 0.07776 0.000259403
0.139895 0.0780652 0.000137331
0.164309 0.0788281 0.000137331
0.192187 0.0796216 0.000289921
0.223987 0.0803388 0.000183108
0.258152 0.0808118 0.000198367
0.293645 0.0815137 0.000198367
0.32958 0.0833448 0.000350958
0.361654 0.0848859 0.000106813
0.396033 0.0855116 0.000106813
0.431495 0.0863966 0.000213626
0.46804 0.0869154 0.000137331
0.505104 0.0878614 0.000289921
0.542931 0.089662 0.000274662
0.577798 0.0910506 3.0518e-05
0.616068 0.0907301 1.5259e-05
0.652033 0.0906539 0.000106813
0.685435 0.090898 6.10361e-05
0.719203 0.0925765 1.5259e-05
0.753109 0.0935073 9.15541e-05
0.787411 0.0935836 0.000823987
0.823255 0.0919203 0.00851453
0.859785 0.0912032 0.0215
0.896849 0.0887617 0.0421759
0.936721 0.084062 0.0716259
0.981735 0.0797284 0.101595
0.997696 0.0702068 0.141543
0.0202792 0.0932784 0.000320439
0.0468299 0.0940414 0.00030518
0.0584421 0.0945144 0.00047303
0.0704204 0.0945907 0.000259403
0.0863813 0.09514 0.000167849
0.103853 0.096025 0.00015259
0.123812 0.0973373 9.15541e-05
0.14641 0.0969711 0.000213626
0.170794 0.0978408 0.000137331
0.198962 0.0983139 7.62951e-05
0.232792 0.098909 6.10361e-05
0.266972 0.0994736 0.000244144
0.300099 0.100923 0.000442512
0.331701 0.102342 0.000274662
0.363668 0.104082 1.5259e-05
0.398428 0.10518 4.57771e-05
0.433448 0.105562 0.00015259
0.468956 0.106081 0.000427253
0.507698 0.108217 0.000427253
0.543572 0.110353 0.000289921
0.580819 0.110842 0.000106813
0.617533 0.110246 0.00030518
0.651774 0.110399 0.000244144
0.68629 0.111803 0
0.718379 0.114168 0
0.753201 0.115282 0
0.787152 0.11516 0.000549325
0.822187 0.113787 0.000839246
0.859037 0.112734 0.0153201
0.89546 0.110552 0.035874
0.934646 0.107652 0.0625315
0.978607 0.102327 0.0914168
0.999496 0.0920729 0.133074
0.0244144 0.117784 0.000167849
0.0505226 0.11809 0.000228885
0.0618906 0.1178 0.000137331
0.0748302 0.118212 0.000183108
0.0899214 0.119539 0.00030518
0.108293 0.119829 0.000289921
0.129427 0.120363 0.00030518
0.151904 0.120592 0.000366217
0.177783 0.120348 0.000503548
0.206424 0.121614 0.000213626
0.236667 0.122057 0.000213626
0.268864 0.121996 0.000518807
0.303044 0.123217 0.00015259
0.335271 0.124788 3.0518e-05
0.368597 0.126574 7.62951e-05
0.401953 0.128038 0.000350958
0.437354 0.128145 0.000427253
0.47303 0.127626 0.000289921
0.509468 0.131136 0.000274662
0.546044 0.132357 0.000198367
0.583108 0.133028 0.00015259
0.618616 0.133074 0.000122072
0.652735 0.133822 3.0518e-05
0.686549 0.135653 0
0.719158 0.137865 1.5259e-05
0.751751 0.138689 3.0518e-05
0.787076 0.138918 0.000106813
0.821439 0.138384 0.000350958
0.857221 0.13669 0.0100252
0.89398 0.135134 0.0280613
0.933669 0.132662 0.0532845
0.97467 0.126146 0.0847944
0.999603 0.116548 0.127214
0.0295262 0.145037 0.000183108
0.0563973 0.146151 3.0518e-05
0.0674449 0.146639 0.000167849
0.0793317 0.14641 0.000381476
0.0963607 0.146944 0.000259403
0.115007 0.147662 0.000167849
0.133257 0.147677 0.000366217
0.157061 0.148028 0.000366217
0.182971 0.147646 0.000335698
0.213245 0.146502 0.000442512
0.243412 0.147326 0.000335698
0.275792 0.148943 0.000106813
0.307073 0.150546 4.57771e-05
0.340719 0.151797 7.62951e-05
0.373419 0.152865 0.000167849
0.408072 0.153323 0.00030518
0.44213 0.152758 0.00015259
0.477775 0.153872 6.10361e-05
0.513085 0.155215 3.0518e-05
0.550332 0.157137 4.57771e-05
0.585229 0.158389 3.0518e-05
0.620325 0.159411 3.0518e-05
0.654246 0.160678 0
0.68603 0.162249 4.57771e-05
0.718776 0.162768 0.000213626
0.751537 0.163684 9.15541e-05
0.785824 0.165087 0
0.820676 0.165942 0.000640879
0.856306 0.164782 0.00418097
0.893278 0.16321 0.0205234
0.933318 0.15874 0.0448768
0.972229 0.15256 0.0770428
0.999496 0.143526 0.119066
0.0334173 0.179187 9.15541e-05
0.0607919 0.178958 0.000122072
0.0721294 0.178531 0.000137331
0.0870375 0.178134 7.62951e-05
0.103899 0.17789 0
0.120485 0.177813 0.000122072
0.139605 0.177417 0.000244144
0.163226 0.176745 0.000488289
0.189487 0.176638 0.000732433
0.218372 0.176745 0.000717174
0.250996 0.176257 0.000106813
0.281895 0.17702 0
0.313039 0.17937 1.5259e-05
0.345403 0.180179 4.57771e-05
0.379477 0.180606 0.000137331
0.412665 0.180972 0.00015259
0.448203 0.181918 3.0518e-05
0.482826 0.183017 0
0.518563 0.184298 0
0.553918 0.184329 0
0.588266 0.18558 0
0.622019 0.187396 0
0.654276 0.191028 0
0.686778 0.192248 9.15541e-05
0.718318 0.193347 0.000167849
0.752316 0.194247 4.57771e-05
0.785916 0.194629 0
0.820218 0.19588 3.0518e-05
0.855879 0.195499 0.000167849
0.892149 0.193347 0.0119631
0.932219 0.1897 0.0335851
0.972992 0.183215 0.0663767
0.999756 0.174105 0.107683
0.0395819 0.214908 0.000122072
0.066865 0.213245 6.10361e-05
0.0805219 0.212421 0.00015259
0.0954299 0.211551 0.000274662
0.109957 0.211093 0.000244144
0.126299 0.211063 0.000198367
0.147494 0.21149 0.000259403
0.170687 0.211063 0.000289921
0.196429 0.210651 0.000274662
0.226123 0.209873 0.000137331
0.257893 0.209827 0.000106813
0.289494 0.211521 0.000106813
0.320394 0.211231 0.000213626
0.352041 0.211673 0.00030518
0.383886 0.212558 0.000106813
0.418418 0.213687 6.10361e-05
0.452338 0.214603 0.000122072
0.486961 0.216114 4.57771e-05
0.521248 0.216663 7.62951e-05
0.556329 0.218021 1.5259e-05
0.590326 0.219028 0
0.622858 0.221424 1.5259e-05
0.655558 0.224033 7.62951e-05
0.687236 0.225788 0.000137331
0.7196 0.225971 0.000122072
0.754147 0.228122 0.000106813
0.786206 0.229862 7.62951e-05
0.82005 0.229908 0.000183108
0.854963 0.228229 0.00077821
0.891814 0.225956 0.0027924
0.931502 0.222873 0.0248112
0.973648 0.21796 0.0548409
0.997162 0.208835 0.0961624
0.0462654 0.254994 9.15541e-05
0.0750591 0.252674 0.000488289
0.0872511 0.252125 0.000610361
0.101259 0.251209 0.000457771
0.116655 0.250614 0.00030518
0.134707 0.250416 0.000228885
0.155001 0.250675 0.000228885
0.179324 0.250462 0.000335698
0.205951 0.249256 0.000350958
0.234943 0.248569 0.000366217
0.264851 0.249531 0.000228885
0.296605 0.250904 6.10361e-05
0.329091 0.249714 9.15541e-05
0.360723 0.24921 6.10361e-05
0.391959 0.249912 0
0.42269 0.251316 0.000167849
0.456336 0.25272 0.000289921
0.490349 0.252201 0.000320439
0.525292 0.253376 0.000198367
0.559915 0.254322 0
0.592996 0.256428 0
0.626017 0.258518 0.00015259
0.658 0.261646 0.000411994
0.688197 0.261769 0.000137331
0.720958 0.263157 6.10361e-05
0.753826 0.264088 0.000122072
0.787289 0.26566 0.00015259
0.81973 0.265339 0.000213626
0.853483 0.264485 0.00047303
0.890028 0.262104 0.00141909
0.929641 0.260166 0.0126192
0.975082 0.254749 0.045304
0.995682 0.243687 0.0853742
0.0513008 0.296803 0.000244144
0.0814527 0.296086 0.000442512
0.0932326 0.294972 0.000411994
0.106447 0.294743 0.000396735
0.124376 0.293324 0.000488289
0.143252 0.291859 0.000534066
0.165057 0.290944 0.000442512
0.188754 0.290455 0.000366217
0.215412 0.290257 0.000350958
0.243488 0.289723 0.000320439
0.274189 0.290059 0.000350958
0.305226 0.289525 0.000213626
0.336477 0.289662 1.5259e-05
0.366262 0.289265 1.5259e-05
0.397467 0.289128 0.000198367
0.431586 0.291066 0.000656138
0.462882 0.291386 0.000595102
0.495888 0.291768 0.000411994
0.53138 0.292195 0.00015259
0.563821 0.29337 6.10361e-05
0.597162 0.295338 0.000213626
0.628443 0.296727 0.000259403
0.660044 0.298161 0.000228885
0.691508 0.299199 4.57771e-05
0.723217 0.300893 1.5259e-05
0.755215 0.301793 3.0518e-05
0.788449 0.301946 6.10361e-05
0.819577 0.301442 3.0518e-05
0.85275 0.30106 3.0518e-05
0.890059 0.300191 0.00158694
0.929961 0.296345 0.00766003
0.975387 0.290166 0.0354925
0.996048 0.280262 0.0736858
0.059556 0.339345 0.00106813
0.0877241 0.338674 0.000900282
0.100374 0.33785 0.000656138
0.115969 0.335622 0.000320439
0.133181 0.333883 6.10361e-05
0.152453 0.333303 0.000213626
0.172778 0.332708 0.000350958
0.197635 0.332326 0.000244144
0.224643 0.332647 0.000213626
0.254444 0.331777 0.000244144
0.284199 0.330739 0.000228885
0.314244 0.331182 0.000213626
0.343877 0.330709 0.00015259
0.373236 0.330098 3.0518e-05
0.4047 0.330617 0.000137331
0.43679 0.329763 0.000259403
0.470588 0.329763 0.00062562
0.502968 0.330709 0.000518807
0.534218 0.332036 6.10361e-05
0.568704 0.333532 0.000198367
0.600992 0.334157 0.000274662
0.631495 0.335714 0.00030518
0.662425 0.336477 0.000198367
0.694087 0.337774 1.5259e-05
0.725277 0.338628 0.000213626
0.756832 0.339544 0.000228885
0.788434 0.33904 0
0.820447 0.339742 0
0.855177 0.338643 0.000198367
0.891478 0.337026 0.000640879
0.930724 0.333104 0.00544747
0.973342 0.32665 0.0243076
0.999374 0.316793 0.0637827
0.0669871 0.382834 0.000366217
0.0981613 0.380041 0.000427253
0.111345 0.379629 0.000534066
0.125887 0.378973 0.000518807
0.141894 0.377798 0.000289921
0.158999 0.376364 4.57771e-05
0.183307 0.375906 0.000244144
0.208774 0.375692 0.00047303
0.235843 0.374289 0.000335698
0.264576 0.373419 0.000183108
0.293965 0.372976 0.00015259
0.32311 0.372076 7.62951e-05
0.350958 0.372259 4.57771e-05
0.380804 0.372015 4.57771e-05
0.411688 0.370886 0.000137331
0.444038 0.370672 0.000320439
0.475807 0.370764 0.000396735
0.508736 0.37113 0.000259403
0.542382 0.372152 0.000274662
0.574075 0.372137 0.000198367
0.605356 0.373983 0.000106813
0.635004 0.376471 3.0518e-05
0.6654 0.376745 3.0518e-05
0.696483 0.376623 0.000106813
0.726894 0.377295 0.000366217
0.758495 0.377584 0.000198367
0.790768 0.37763 0.00015259
0.822873 0.376791 0.000259403
0.855543 0.375982 0.000183108
0.891691 0.373419 0.000137331
0.932113 0.370581 0.00190738
0.972259 0.363821 0.0174258
0.999466 0.354269 0.0577859
0.0772869 0.424552 0.000366217
0.109041 0.422415 0.000442512
0.122271 0.421408 0.00030518
0.136706 0.420676 0.000167849
0.153307 0.419959 9.15541e-05
0.173053 0.419165 0.000198367
0.193439 0.418036 0.000289921
0.219089 0.416144 0.000427253
0.24683 0.414466 0.000488289
0.274739 0.414313 0.000335698
0.302663 0.413718 0.000213626
0.331136 0.413703 0.000183108
0.359609 0.413886 0.000137331
0.3888 0.413092 0.000274662
0.419577 0.412695 0.000366217
0.450614 0.412146 0.000198367
0.483497 0.412161 0.000137331
0.51664 0.412604 0.00030518
0.547585 0.412436 0.000274662
0.579263 0.412329 6.10361e-05
0.608881 0.413794 0.000198367
0.638804 0.415198 0.000228885
0.671016 0.414496 4.57771e-05
0.699947 0.414267 9.15541e-05
0.729534 0.415457 0.000183108
0.760998 0.416098 0.000259403
0.792615 0.416159 0.000320439
0.824201 0.41471 0.000289921
0.857008 0.413291 1.5259e-05
0.892592 0.411734 0.000411994
0.932311 0.407614 0.00297551
0.975586 0.400656 0.0180362
0.999924 0.391363 0.0541695
0.0887312 0.468482 0.000381476
0.1205 0.466026 0.000228885
0.133104 0.464897 0.000137331
0.148058 0.46421 0.000198367
0.164767 0.463279 0.000320439
0.183322 0.462821 0.000488289
0.206821 0.461692 0.000381476
0.232456 0.460319 0.000213626
0.258289 0.458732 0.000183108
0.285634 0.458061 0.000274662
0.313069 0.457572 0.000244144
0.340673 0.456199 7.62951e-05
0.369604 0.455573 0
0.398932 0.455268 4.57771e-05
0.428901 0.454566 7.62951e-05
0.459617 0.454673 6.10361e-05
0.490852 0.454704 0.000106813
0.522103 0.454154 0.000137331
0.553506 0.453742 4.57771e-05
0.583261 0.453727 4.57771e-05
0.613336 0.454185 0.000183108
0.643397 0.454612 0.000198367
0.672465 0.454231 0.000137331
0.702327 0.454566 9.15541e-05
0.732982 0.454139 7.62951e-05
0.763622 0.454841 3.0518e-05
0.793454 0.454047 1.5259e-05
0.825452 0.45304 6.10361e-05
0.858457 0.451255 0.000228885
0.894209 0.449516 0.000259403
0.933822 0.443763 0.0019379
0.978607 0.436957 0.0149233
0.997101 0.427451 0.0475471
0.100847 0.512764 0.000442512
0.131746 0.510094 0.000457771
0.144762 0.509865 0.000427253
0.16025 0.509392 0.000366217
0.178119 0.508766 0.000274662
0.199557 0.507103 0.000167849
0.223178 0.505776 4.57771e-05
0.246799 0.504921 0.000106813
0.270787 0.504067 0.000228885
0.296681 0.502815 0.000244144
0.323171 0.50106 0.000106813
0.351034 0.499962 9.15541e-05
0.379767 0.499611 0.000396735
0.408164 0.498344 0.000534066
0.437919 0.49723 0.00030518
0.46833 0.49691 0.000137331
0.498924 0.496025 9.15541e-05
0.529168 0.496071 4.57771e-05
0.559457 0.495293 1.5259e-05
0.5888 0.495445 0.000122072
0.618723 0.495399 0.000259403
0.646616 0.494575 9.15541e-05
0.676463 0.49427 1.5259e-05
0.706142 0.494102 3.0518e-05
0.735531 0.494102 6.10361e-05
0.76582 0.493462 9.15541e-05
0.796262 0.492897 9.15541e-05
0.827604 0.491691 0.000259403
0.860334 0.489906 0.000289921
0.895201 0.486625 0.000183108
0.935363 0.481117 0.000701915
0.98172 0.473747 0.00866712
0.99913 0.464668 0.0400854
0.114336 0.556283 0.000503548
0.148196 0.55462 0.000198367
0.160723 0.553811 0.000122072
0.17673 0.5523 0.000122072
0.1944 0.551431 0.000137331
0.213672 0.550607 0.000167849
0.235111 0.549905 0.00015259
0.258015 0.548867 0.000137331
0.282963 0.547463 9.15541e-05
0.308415 0.545968 4.57771e-05
0.334997 0.544411 3.0518e-05
0.360754 0.543145 0.000213626
0.388373 0.542428 0.000350958
0.415885 0.541192 0.000167849
0.444419 0.538918 1.5259e-05
0.475303 0.538521 3.0518e-05
0.506477 0.538247 3.0518e-05
0.536233 0.537621 3.0518e-05
0.565774 0.537285 9.15541e-05
0.594598 0.537392 0.000198367
0.622675 0.536385 0.000183108
0.651453 0.535653 6.10361e-05
0.679683 0.535515 3.0518e-05
0.708995 0.535393 1.5259e-05
0.73872 0.534417 4.57771e-05
0.767956 0.533394 7.62951e-05
0.798688 0.532525 0.000137331
0.829267 0.531014 0.000137331
0.862333 0.52874 0.000137331
0.898161 0.524407 0.000198367
0.938827 0.518837 0.00137331
0.978454 0.511498 0.00975052
0.999191 0.501884 0.041001
0.130419 0.599878 0.000244144
0.161929 0.597986 0.00015259
0.174472 0.597253 0.00015259
0.188464 0.596384 0.000167849
0.205585 0.59527 0.000167849
0.22504 0.593973 0.000122072
0.246784 0.592996 4.57771e-05
0.270176 0.591714 1.5259e-05
0.294682 0.590555 1.5259e-05
0.319081 0.589075 0
0.344884 0.587594 0.000198367
0.371496 0.586221 0.000427253
0.398322 0.584817 0.000350958
0.424949 0.583093 0.000183108
0.453452 0.583078 0.000137331
0.483696 0.582925 0.000137331
0.513039 0.581064 0.00015259
0.543786 0.579309 0.000213626
0.572305 0.579187 0.000350958
0.600549 0.578637 0.000411994
0.627573 0.578119 0.000228885
0.655192 0.577188 0.000106813
0.683207 0.5776 1.5259e-05
0.712032 0.576623 3.0518e-05
0.741527 0.574426 9.15541e-05
0.771542 0.573281 9.15541e-05
0.801068 0.571313 4.57771e-05
0.832029 0.569345 7.62951e-05
0.864958 0.565805 0.000137331
0.901152 0.56144 0.00015259
0.942092 0.555856 0.00155642
0.982284 0.549676 0.0104982
0.999557 0.539651 0.0425422
0.143679 0.642802 0.000183108
0.172549 0.640894 0.00047303
0.185931 0.639826 0.00047303
0.201709 0.638575 0.000366217
0.22034 0.636728 0.000244144
0.239887 0.635355 0.000137331
0.260044 0.63473 0.000122072
0.281529 0.633616 0.000137331
0.305486 0.632975 0.000167849
0.329976 0.631342 0.000427253
0.35555 0.629831 0.00062562
0.38088 0.627955 0.000503548
0.407355 0.626764 0.000228885
0.434867 0.625849 9.15541e-05
0.462654 0.624796 6.10361e-05
0.490913 0.623697 7.62951e-05
0.519905 0.622522 0.00015259
0.547784 0.621302 0.000244144
0.576791 0.619684 0.00030518
0.605341 0.618692 0.000259403
0.6336 0.617807 9.15541e-05
0.660914 0.617304 4.57771e-05
0.688319 0.616922 3.0518e-05
0.71606 0.615228 0.000259403
0.744686 0.614145 0.000259403
0.774472 0.611856 1.5259e-05
0.804257 0.609842 0.000198367
0.834867 0.606683 0.00030518
0.867323 0.603586 0.000289921
0.903181 0.599069 0.000259403
0.946731 0.593408 0.000289921
0.989227 0.58674 0.00680552
0.9991 0.576669 0.0402228
0.156802 0.68072 0.000106813
0.189334 0.678355 0.00015259
0.202426 0.677562 0.000167849
0.216632 0.676478 0.000183108
0.233524 0.675212 0.000228885
0.251881 0.674846 0.000274662
0.271733 0.674556 0.000350958
0.2934 0.673884 0.000411994
0.316091 0.672374 0.000320439
0.339193 0.670222 0.000198367
0.364538 0.668666 9.15541e-05
0.391043 0.667033 6.10361e-05
0.417746 0.665507 3.0518e-05
0.443519 0.664332 3.0518e-05
0.470466 0.663584 6.10361e-05
0.498161 0.662943 0.00015259
0.526177 0.661646 0.000259403
0.554498 0.660044 0.00030518
0.583093 0.658747 0.000289921
0.609125 0.657786 0.000183108
0.637156 0.656809 0.000137331
0.665034 0.655741 0.000183108
0.691936 0.653956 0.000167849
0.718959 0.652323 7.62951e-05
0.747143 0.650126 1.5259e-05
0.775967 0.648569 3.0518e-05
0.80557 0.647059 0.000106813
0.837354 0.644251 3.0518e-05
0.870787 0.640772 4.57771e-05
0.90869 0.635645 7.62951e-05
0.950881 0.62916 0.000839246
0.989731 0.623743 0.00968948
0.999146 0.612406 0.0432898
0.172229 0.716014 0.000335698
0.203067 0.714656 0.000686656
0.215549 0.714183 0.000640879
0.229923 0.713527 0.000579843
0.246098 0.712871 0.000503548
0.264256 0.711849 0.000411994
0.282963 0.710567 0.000350958
0.303136 0.709545 0.00030518
0.325902 0.708247 0.000274662
0.34873 0.707134 0.000198367
0.372549 0.706218 0.000122072
0.39704 0.704768 7.62951e-05
0.423529 0.703502 0.000274662
0.450935 0.702281 0.000503548
0.477729 0.700877 0.000595102
0.505745 0.699733 0.000579843
0.533272 0.698482 0.000320439
0.560616 0.696971 9.15541e-05
0.586709 0.695827 7.62951e-05
0.613748 0.694682 9.15541e-05
0.640009 0.693263 9.15541e-05
0.667674 0.692302 6.10361e-05
0.694774 0.690517 1.5259e-05
0.722133 0.688167 0
0.750057 0.686519 1.5259e-05
0.779095 0.684016 3.0518e-05
0.809216 0.682017 1.5259e-05
0.840909 0.678752 0
0.874266 0.675669 3.0518e-05
0.911498 0.670893 1.5259e-05
0.954665 0.666026 9.15541e-05
0.988922 0.658701 0.00888075
0.999374 0.647944 0.0459297
0.1823 0.752132 0.000579843
0.213931 0.750347 0.000518807
0.226093 0.749767 0.000503548
0.241413 0.748898 0.00047303
0.256764 0.748241 0.000427253
0.274083 0.747311 0.000320439
0.292226 0.746639 0.000213626
0.312779 0.745602 0.000106813
0.33312 0.744488 0.000183108
0.355077 0.743877 0.000289921
0.378653 0.743175 0.000442512
0.404059 0.741512 0.00062562
0.43032 0.739452 0.00077821
0.456657 0.737911 0.000701915
0.48304 0.736706 0.000534066
0.509438 0.735317 0.000457771
0.536385 0.733944 0.000411994
0.563821 0.732677 0.000320439
0.590814 0.731228 0.000122072
0.617243 0.729656 3.0518e-05
0.643549 0.729442 6.10361e-05
0.669841 0.728267 6.10361e-05
0.696727 0.726314 4.57771e-05
0.724361 0.724407 3.0518e-05
0.751965 0.722255 0
0.781521 0.720577 1.5259e-05
0.811368 0.717815 0
0.843198 0.714946 3.0518e-05
0.877424 0.710704 0.000106813
0.915709 0.706722 0
0.961456 0.701427 7.62951e-05
0.997925 0.694499 0.000686656
0.999359 0.682857 0.0472572
0.194171 0.78735 0.000503548
0.225315 0.786007 0.000503548
0.236362 0.785672 0.000488289
0.24947 0.78471 0.000457771
0.263783 0.784085 0.000442512
0.28101 0.783352 0.000427253
0.298817 0.782788 0.000427253
0.318135 0.782391 0.000396735
0.339361 0.781872 0.000335698
0.361196 0.780591 0.000289921
0.384512 0.779385 0.000274662
0.409277 0.77818 0.000244144
0.434272 0.776791 0.000259403
0.460243 0.775051 0.000320439
0.486946 0.773159 0.000320439
0.514031 0.772168 0.000167849
0.541939 0.770962 4.57771e-05
0.566949 0.769482 1.5259e-05
0.593698 0.768475 1.5259e-05
0.618936 0.767697 0.00015259
0.644617 0.766354 0.000244144
0.671855 0.764614 0.000228885
0.699184 0.762448 0.000198367
0.726131 0.76109 3.0518e-05
0.754681 0.759457 0.000106813
0.78352 0.757122 0.000198367
0.814603 0.754559 3.0518e-05
0.845899 0.751095 3.0518e-05
0.881056 0.747326 3.0518e-05
0.920363 0.742107 0.000122072
0.964981 0.736019 0.00108339
0.996719 0.728618 0.0110933
0.999069 0.717449 0.0524147
0.201129 0.824445 0.000793469
0.230579 0.823102 0.000656138
0.242802 0.822446 0.000595102
0.256809 0.821637 0.000518807
0.271305 0.82121 0.000427253
0.287663 0.820417 0.000350958
0.304906 0.819867 0.000289921
0.324163 0.819425 0.000228885
0.345129 0.81854 0.000244144
0.366476 0.817624 0.000289921
0.388785 0.816464 0.000335698
0.412619 0.814984 0.000366217
0.438392 0.813733 0.000366217
0.464485 0.812451 0.00030518
0.490318 0.81091 0.00015259
0.51783 0.809659 1.5259e-05
0.543542 0.808362 6.10361e-05
0.569833 0.807095 0.000137331
0.595315 0.80618 0.000137331
0.621607 0.806195 7.62951e-05
0.646326 0.804791 0.000122072
0.671855 0.802426 0.000198367
0.700664 0.800076 0.000106813
0.728267 0.798062 0.000198367
0.756512 0.796429 0.000534066
0.78613 0.794263 0.000396735
