app/src/main/assets/luts/Fuji-PROVIA.cube
TITLE "Generated by Resolve"
LUT_3D_SIZE 33
0 0 0
0.0306859 0.0010071 0.00115969
0.0406043 0.00154116 0.00247196
0.0559091 0.00317388 0.00309758
0.0730449 0.00466926 0.00325017
0.0868849 0.00593576 0.00497444
0.105348 0.00610361 0.0059968
0.127626 0.00874342 0.00679026
0.15024 0.0100557 0.00770581
0.177203 0.0136416 0.0102083
0.206531 0.0165866 0.0120851
0.234745 0.0204318 0.0103914
0.266835 0.023209 0.012314
0.299046 0.0251011 0.0163577
0.333654 0.0269017 0.0181888
0.368826 0.0300298 0.0185092
0.407736 0.031281 0.0232395
0.449607 0.0340429 0.0243992
0.491768 0.036759 0.0252689
0.536797 0.0382086 0.0312657
0.58233 0.0406348 0.0347143
0.62623 0.0429541 0.0396124
0.666072 0.0460365 0.0445563
0.706294 0.0499123 0.0472419
0.745281 0.0539254 0.05243
0.783978 0.0584421 0.0599832
0.822003 0.0635843 0.0670176
0.860746 0.0683604 0.0775769
0.899825 0.0739605 0.0894331
0.938308 0.0792401 0.105333
0.979019 0.0852522 0.12221
0.994858 0.0897536 0.149081
0.999512 0.095491 0.180285
0.00277714 0.033463 0.000228885
0.0339666 0.0357061 0.000228885
0.047425 0.0363317 0.000274662
0.0624704 0.0374609 0.000320439
0.0781872 0.0399023 0.000518807
0.0974594 0.0392462 0.000228885
0.116121 0.0413367 0.000946059
0.139513 0.0438849 0.000549325
0.164935 0.0460975 0.00137331
0.193591 0.0484169 0.00129702
0.221973 0.0507362 0.00115969
0.252872 0.0519875 0.00299077
0.28513 0.0535897 0.00512703
0.31812 0.0550851 0.00514229
0.352117 0.0573739 0.0053254
0.390158 0.0595254 0.0083772
0.430808 0.062501 0.0117494
0.470497 0.0645609 0.0158236
0.509926 0.0667735 0.0182803
0.547127 0.0694438 0.0166934
0.584909 0.0728923 0.0200351
0.623819 0.0766155 0.0234379
0.662898 0.0812085 0.0267185
0.700435 0.0847944 0.0324865
0.739956 0.0885634 0.0396124
0.778668 0.0923476 0.0454871
0.818051 0.097261 0.0543984
0.856748 0.102586 0.0618601
0.896193 0.107164 0.073991
0.936812 0.114275 0.0896162
0.976776 0.119951 0.10811
0.994965 0.126253 0.132616
0.999832 0.131991 0.160159
0.00280766 0.0469673 0.000961318
0.0336919 0.0498817 0.000289921
0.0480201 0.0510109 0.000137331
0.0635386 0.0517128 0.000579843
0.0800946 0.0530709 0.00062562
0.0978408 0.0547646 0.000274662
0.118135 0.0560159 0.000564584
0.143023 0.0580453 1.5259e-05
0.168963 0.0595254 0.000335698
0.196643 0.0609445 0.00015259
0.227039 0.0623178 1.5259e-05
0.258137 0.0644083 0.00131228
0.289235 0.0663615 0.00282292
0.323552 0.0685283 0.00120546
0.359075 0.0703593 0.00225834
0.396231 0.0725109 0.00480659
0.43505 0.0749371 0.00866712
0.472511 0.0772869 0.0113222
0.509453 0.0796826 0.0119631
0.545373 0.0830549 0.0115663
0.584344 0.0861067 0.0145876
0.622538 0.0900282 0.0173953
0.661921 0.0933852 0.0227512
0.699397 0.0966201 0.0300298
0.73962 0.101152 0.0343023
0.778058 0.106447 0.0396429
0.817136 0.1122 0.0466468
0.85658 0.115938 0.0559243
0.896437 0.121386 0.0684062
0.936736 0.127504 0.0826123
0.976532 0.133806 0.101732
0.995544 0.140383 0.125978
0.999634 0.146136 0.153628
0.00238041 0.0619516 0.000427253
0.0372015 0.0650645 0.000137331
0.0484474 0.066331 0.000259403
0.0658274 0.0668803 7.62951e-05
0.0843214 0.0692454 0.000488289
0.101228 0.0701305 0.000366217
0.12282 0.0714427 0.000137331
0.147555 0.0726177 0.000167849
0.173083 0.0727245 0.000518807
0.2 0.0747539 0.000183108
0.23006 0.0769513 1.5259e-05
0.262181 0.0791485 6.10361e-05
0.295598 0.0804608 9.15541e-05
0.329854 0.0826123 3.0518e-05
0.365011 0.0845808 0.000640879
0.400488 0.0865034 0.00134279
0.434318 0.0900435 0.00265507
0.472404 0.0919966 0.0052491
0.508232 0.0944381 0.00645457
0.545785 0.0969863 0.00848402
0.58291 0.101244 0.00759899
0.622034 0.104967 0.0115053
0.660182 0.108339 0.0158236
0.699428 0.110933 0.0219883
0.738705 0.116213 0.0271458
0.778149 0.122316 0.0320897
0.815686 0.127993 0.0391852
0.856229 0.131441 0.0499428
0.896254 0.136751 0.061265
0.935851 0.143221 0.0747997
0.974899 0.149477 0.0951858
0.996567 0.156283 0.118502
0.999451 0.161913 0.146563
0.00628672 0.0797894 0.000259403
0.0405432 0.0832837 0.000167849
0.0518502 0.0851911 0.000396735
0.0665141 0.0855268 0.000381476
0.0846418 0.0854505 0.000350958
0.104082 0.0866407 9.15541e-05
0.125689 0.0886091 0.000122072
0.150362 0.0892805 0.000366217
0.176593 0.0906081 0.000396735
0.204593 0.0920272 6.10361e-05
0.234592 0.0938735 0.000289921
0.266819 0.0950637 0.000213626
0.300206 0.0962081 0.000106813
0.333837 0.0983444 3.0518e-05
0.364416 0.101839 3.0518e-05
0.399008 0.104372 0.000640879
0.434623 0.106722 0.000747692
0.471061 0.108553 0.000579843
0.507744 0.111101 0.00282292
0.545449 0.114931 0.00349432
0.581613 0.118517 0.00376898
0.621332 0.121965 0.0053254
0.659983 0.125566 0.00901808
0.697871 0.128557 0.0149081
0.737697 0.134188 0.019028
0.777737 0.139406 0.0252232
0.815839 0.14464 0.0318761
0.855879 0.149844 0.0416571
0.896498 0.156085 0.0527657
0.935668 0.161532 0.0677806
0.97348 0.166995 0.0880751
0.998535 0.174426 0.108949
0.999664 0.179843 0.138247
0.00894179 0.100633 0.0011902
0.0407568 0.102403 0.000335698
0.0554055 0.103075 0.000335698
0.0708629 0.103059 0.000228885
0.0879072 0.104219 0.000137331
0.106371 0.105592 0.00015259
0.127642 0.107362 0.000335698
0.153017 0.108293 0.000244144
0.180163 0.109224 0.00030518
0.208667 0.110094 0.000259403
0.239704 0.111955 1.5259e-05
0.271901 0.112474 0.000106813
0.303822 0.114595 0.000198367
0.334325 0.117556 0.000244144
0.365057 0.121019 0.000274662
0.399664 0.123156 0.000335698
0.434256 0.12491 0.000213626
0.469154 0.127871 0
0.50782 0.131502 0
0.544564 0.135195 0.000671397
0.582956 0.137743 0.00146487
0.620508 0.141451 0.00170901
0.658091 0.144823 0.00392157
0.696803 0.149218 0.00701915
0.736461 0.154864 0.0117342
0.776761 0.160403 0.0167086
0.81593 0.165225 0.021912
0.856153 0.170809 0.0322881
0.896147 0.175967 0.04448
0.935073 0.181353 0.0592203
0.971527 0.187488 0.0776379
0.999146 0.194583 0.0965133
0.99968 0.198642 0.129274
0.00866712 0.124651 0.000259403
0.0424201 0.125429 0.000366217
0.0559548 0.125765 0.000167849
0.0712596 0.126268 0.000167849
0.0890059 0.127367 0.000381476
0.106996 0.128878 0.000320439
0.130068 0.130282 0.000137331
0.15555 0.13077 1.5259e-05
0.183597 0.131136 3.0518e-05
0.212253 0.133211 0
0.241657 0.134493 0.000198367
0.271611 0.135546 0.000442512
0.304158 0.137713 0.000411994
0.334813 0.14023 0.000335698
0.366552 0.143206 0.000289921
0.399832 0.145068 0.000503548
0.435248 0.147967 0.000335698
0.471092 0.1505 0
0.508217 0.153704 3.0518e-05
0.545281 0.156756 9.15541e-05
0.583108 0.159945 0.000183108
0.621088 0.163546 0.000427253
0.658915 0.167681 0.00123598
0.697307 0.172961 0.00187686
0.735866 0.17821 0.0047303
0.775174 0.182712 0.00857557
0.817075 0.187518 0.014725
0.85594 0.192172 0.023331
0.895277 0.197284 0.0339818
0.935027 0.202976 0.049012
0.971939 0.209033 0.0678416
0.999268 0.215381 0.0903029
0.999313 0.220127 0.120623
0.0116579 0.150256 7.62951e-05
0.0433814 0.152743 1.5259e-05
0.0576181 0.153033 0.000213626
0.0730602 0.152682 0.000595102
0.0895857 0.154452 0.000320439
0.108217 0.156024 3.0518e-05
0.129595 0.155398 0
0.155962 0.157168 0.000106813
0.183368 0.15848 0.000213626
0.212665 0.158679 0.000396735
0.241413 0.159686 0.000198367
0.272969 0.16141 3.0518e-05
0.304143 0.163104 3.0518e-05
0.335058 0.166232 0.000228885
0.367193 0.168322 0.000381476
0.403204 0.170108 0.000335698
0.43769 0.172061 0.000320439
0.473945 0.174929 0.000274662
0.509712 0.177813 1.5259e-05
0.547356 0.181186 1.5259e-05
0.583795 0.184466 4.57771e-05
0.621546 0.188174 0.000106813
0.660105 0.192737 0.000274662
0.697292 0.197604 0.000900282
0.737087 0.201862 0.00114443
0.77615 0.206302 0.00311284
0.8159 0.211093 0.00770581
0.85626 0.216251 0.013077
0.895506 0.221149 0.0245212
0.936278 0.226246 0.0409857
0.974517 0.231785 0.0596475
0.999008 0.237354 0.0821088
0.99942 0.242435 0.111543
0.0101778 0.183764 0.000381476
0.0437781 0.183856 0.000122072
0.0572671 0.183734 0.000274662
0.073167 0.184009 0.000167849
0.090898 0.184451 0
0.110185 0.184375 9.15541e-05
0.131975 0.184573 0.000183108
0.158419 0.185321 0.00030518
0.184588 0.186328 0.000274662
0.212802 0.187366 0.000213626
0.243992 0.18793 0.000320439
0.273655 0.189364 0.000167849
0.303853 0.191836 0.000198367
0.335882 0.193027 0.000610361
0.370489 0.195193 0.000289921
0.404227 0.197101 7.62951e-05
0.439872 0.199237 0.000167849
0.474922 0.201801 6.10361e-05
0.512047 0.204623 3.0518e-05
0.550286 0.206577 0.000198367
0.58703 0.209613 0.00030518
0.622889 0.213352 0.000213626
0.660365 0.219348 7.62951e-05
0.699413 0.223362 0.000137331
0.737881 0.227588 0.000366217
0.777951 0.231342 0.000991836
0.81706 0.235813 0.00135805
0.85713 0.241688 0.00552377
0.89691 0.245853 0.0176394
0.936553 0.250843 0.0305638
0.975326 0.25626 0.0478065
0.997253 0.26099 0.0704967
0.999298 0.266285 0.100511
0.0127718 0.216739 0.000183108
0.0454108 0.21532 9.15541e-05
0.0601511 0.214817 4.57771e-05
0.0762036 0.214298 1.5259e-05
0.0929427 0.214206 1.5259e-05
0.111482 0.214679 1.5259e-05
0.133593 0.21648 0.00015259
0.15819 0.217243 0.00015259
0.185855 0.217716 1.5259e-05
0.215381 0.217334 0.000106813
0.246601 0.217914 0.000244144
0.276997 0.220462 0.000320439
0.307317 0.22118 0.000213626
0.338918 0.222431 9.15541e-05
0.371923 0.224567 0.000137331
0.406165 0.226459 0.000137331
0.439063 0.227863 9.15541e-05
0.47628 0.230182 4.57771e-05
0.513146 0.232227 7.62951e-05
0.55024 0.23534 0.000106813
0.587045 0.238743 4.57771e-05
0.623896 0.242939 4.57771e-05
0.662272 0.246098 0.000122072
0.700893 0.250614 4.57771e-05
0.74023 0.254078 1.5259e-05
0.78085 0.258106 0.000183108
0.819471 0.263355 0.000747692
0.858488 0.267948 0.0031281
0.898146 0.271885 0.00605783
0.937041 0.276722 0.0198062
0.977203 0.281346 0.0368505
0.995727 0.286275 0.0593118
0.999313 0.291539 0.0910201
0.0141451 0.249531 0.000274662
0.0462043 0.248676 0.000213626
0.0598611 0.248905 0.000289921
0.0762493 0.248508 0.000183108
0.0941024 0.248371 4.57771e-05
0.113268 0.249241 6.10361e-05
0.134951 0.250446 6.10361e-05
0.161227 0.250858 4.57771e-05
0.18883 0.250324 6.10361e-05
0.217746 0.250141 0.000137331
0.247837 0.251057 0.000183108
0.279759 0.252567 0.000213626
0.312581 0.253147 0.000381476
0.344549 0.254154 0.000488289
0.375708 0.255955 0.000427253
0.40621 0.257786 0.000274662
0.441215 0.2598 0.000137331
0.478218 0.260624 0.000137331
0.51487 0.263294 7.62951e-05
0.551369 0.26566 3.0518e-05
0.588327 0.268986 0.000122072
0.627008 0.272023 0.00015259
0.66508 0.275975 1.5259e-05
0.702647 0.280232 1.5259e-05
0.742855 0.283665 9.15541e-05
0.783047 0.286366 0.00015259
0.821912 0.291447 3.0518e-05
0.859709 0.295079 0.000579843
0.898573 0.299062 0.00329595
0.93753 0.303578 0.00927749
0.978469 0.307118 0.0253147
0.995529 0.312612 0.0509041
0.999466 0.316655 0.0822614
0.0136873 0.285328 0.00015259
0.0461585 0.285939 0.000595102
0.0603494 0.284962 0.000350958
0.0758221 0.284825 0.000122072
0.0948959 0.284566 6.10361e-05
0.114839 0.284352 0
0.138537 0.284123 9.15541e-05
0.164034 0.284108 0.000198367
0.19115 0.283879 0.000396735
0.219471 0.28365 0.000396735
0.249683 0.284596 0.000106813
0.281117 0.285557 9.15541e-05
0.312886 0.287129 0.000137331
0.344366 0.287678 0.00030518
0.377142 0.288273 0.00030518
0.412253 0.290486 0.000137331
0.446006 0.291752 7.62951e-05
0.4813 0.293309 1.5259e-05
0.518776 0.295033 0.000122072
0.55433 0.297139 0.000259403
0.591211 0.30016 0.000259403
0.629602 0.302525 0.000122072
0.668818 0.305501 6.10361e-05
0.706752 0.308888 3.0518e-05
0.745586 0.312688 1.5259e-05
0.784588 0.316228 0
0.824765 0.319097 0
0.861784 0.322316 0
0.899153 0.326558 0.00166323
0.938689 0.331075 0.007187
0.978241 0.334798 0.019501
0.997147 0.33875 0.042359
0.999741 0.342138 0.0720836
0.0152438 0.322026 0.000320439
0.0458839 0.321462 0.000488289
0.0592813 0.321187 0.000411994
0.0755932 0.320012 0.000213626
0.0936751 0.319234 3.0518e-05
0.115724 0.319341 0.000183108
0.138811 0.319509 0.000320439
0.164324 0.319234 0.000427253
0.191806 0.319768 0.000442512
0.222004 0.320012 0.000274662
0.252232 0.320043 0.00015259
0.282078 0.321294 4.57771e-05
0.313497 0.321569 3.0518e-05
0.346578 0.321599 6.10361e-05
0.37998 0.32221 6.10361e-05
0.413825 0.32192 6.10361e-05
0.448981 0.324163 3.0518e-05
0.484672 0.326268 0.000274662
0.520256 0.327932 0.000610361
0.557275 0.330358 0.000274662
0.594003 0.332067 6.10361e-05
0.633356 0.333974 0.000137331
0.671305 0.336461 0.000122072
0.709422 0.340383 4.57771e-05
0.747753 0.34316 1.5259e-05
0.78584 0.345953 0
0.824201 0.347951 7.62951e-05
0.862562 0.352087 9.15541e-05
0.901686 0.355337 0.000488289
0.939635 0.359976 0.00460822
0.974624 0.363958 0.0147707
0.99971 0.366293 0.0349432
0.999634 0.369375 0.06392
0.0175631 0.359426 0.000701915
0.0478676 0.357702 0.000457771
0.0616922 0.35758 0.000198367
0.0773632 0.357412 7.62951e-05
0.0955367 0.356985 0.000137331
0.115023 0.356374 0.000183108
0.139925 0.356893 0.000183108
0.166094 0.357626 0.000213626
0.194247 0.356588 0.000167849
0.223911 0.355932 6.10361e-05
0.25362 0.3561 1.5259e-05
0.284153 0.355886 0
0.31603 0.356832 0
0.34902 0.357366 1.5259e-05
0.382055 0.357046 0.000106813
0.416907 0.357946 0.00015259
0.451316 0.359014 0.000106813
0.487434 0.360479 0.000259403
0.524407 0.362356 0.000381476
0.560098 0.3635 0.000167849
0.598108 0.365347 4.57771e-05
0.63624 0.366827 1.5259e-05
0.673609 0.370367 4.57771e-05
0.712047 0.372839 7.62951e-05
0.750179 0.37499 1.5259e-05
0.788891 0.377356 7.62951e-05
0.827649 0.380087 0.000106813
0.864622 0.382986 0
0.901015 0.38706 0.000381476
0.93872 0.390082 0.00112917
0.97499 0.39353 0.00813306
0.998901 0.395926 0.0286259
0.999466 0.398169 0.0589303
0.0155032 0.396948 0.000488289
0.0467994 0.395193 0.00047303
0.0609445 0.395163 0.000320439
0.076173 0.395483 0.00015259
0.0937667 0.395758 6.10361e-05
0.115679 0.3953 0.000411994
0.138491 0.394461 0.00077821
0.165759 0.393286 0.000564584
0.194934 0.392584 0.000198367
0.224887 0.392996 7.62951e-05
0.25507 0.392874 1.5259e-05
0.286824 0.393484 4.57771e-05
0.319249 0.394156 0.000122072
0.350835 0.393942 0.000183108
0.384115 0.39411 0.000167849
0.418509 0.394263 9.15541e-05
0.455131 0.394965 0.000106813
0.491829 0.395956 0.000289921
0.526482 0.397177 0.000198367
0.562371 0.39913 3.0518e-05
0.599939 0.399939 4.57771e-05
0.637644 0.401633 0.000106813
0.678141 0.402975 0.000289921
0.715648 0.404822 0.000183108
0.75375 0.408118 0
0.79234 0.410208 0
0.829084 0.413397 0
0.864942 0.416007 3.0518e-05
0.902403 0.419226 0.000228885
0.938933 0.422354 0.0012665
0.975921 0.42533 0.00813306
0.996841 0.426825 0.0256352
0.999451 0.428641 0.0533455
0.0127413 0.439292 0.000274662
0.044831 0.437964 7.62951e-05
0.0589456 0.437263 1.5259e-05
0.0753338 0.436805 0.000167849
0.0935683 0.436118 0.000411994
0.113603 0.435904 0.000686656
0.138537 0.435569 0.000442512
0.165759 0.435019 0.000167849
0.19411 0.43389 6.10361e-05
0.224521 0.433371 7.62951e-05
0.256428 0.43267 0.00030518
0.289723 0.430945 0.000747692
0.32224 0.430823 0.000671397
0.353948 0.431586 0.000167849
0.388403 0.43154 4.57771e-05
0.42388 0.43238 1.5259e-05
0.457984 0.433326 1.5259e-05
0.492546 0.433707 0
0.529076 0.434806 3.0518e-05
0.565011 0.43566 4.57771e-05
0.603265 0.436469 3.0518e-05
0.641535 0.438102 0.00015259
0.678599 0.439414 0.000366217
0.717067 0.441367 0.000137331
0.755566 0.442878 0
0.793759 0.446296 0
0.829358 0.447761 6.10361e-05
0.866331 0.450065 0.000122072
0.903441 0.451957 0.000167849
0.941054 0.455253 0.000366217
0.978469 0.456764 0.00671397
0.995422 0.457893 0.0202029
0.999054 0.459846 0.0458076
0.0165408 0.482307 0.00015259
0.0413519 0.48014 0.000137331
0.0550393 0.480125 0.000289921
0.0713512 0.479912 0.00047303
0.0902113 0.479606 0.000534066
0.113359 0.478355 0.000320439
0.138811 0.477455 9.15541e-05
0.16556 0.476829 0.00015259
0.193591 0.476081 0.000381476
0.224033 0.475151 0.00047303
0.255421 0.474067 0.000350958
0.287968 0.473533 0.000228885
0.320592 0.473381 0.000289921
0.353429 0.472572 0.000335698
0.388937 0.472236 0.00030518
0.424125 0.472618 0.000244144
0.458152 0.472724 7.62951e-05
0.493614 0.473579 4.57771e-05
0.53048 0.473533 0.000122072
0.567941 0.474083 0.000122072
0.606699 0.474464 0.00015259
0.643 0.475257 0.000274662
0.6813 0.476448 0.000198367
0.7187 0.477821 1.5259e-05
0.756619 0.479393 0
0.794659 0.480598 6.10361e-05
0.830198 0.482689 0.000289921
0.867552 0.484016 0.000427253
0.905013 0.485924 0.000289921
0.941527 0.488014 0
0.977584 0.48864 0.000808728
0.998688 0.490089 0.0122225
0.999237 0.491493 0.0393988
0.0125887 0.525139 0.000106813
0.0421149 0.523766 0.000289921
0.0531777 0.523064 0.000335698
0.0708171 0.52163 0.000228885
0.0899214 0.520836 0.000137331
0.110765 0.519997 1.5259e-05
0.135515 0.519493 9.15541e-05
0.162173 0.518746 0.000183108
0.19173 0.517754 0.000183108
0.222889 0.516808 0.000106813
0.255482 0.515801 7.62951e-05
0.286046 0.515251 0.00015259
0.318853 0.515389 0.000198367
0.352071 0.514839 0.000335698
0.386572 0.513359 0.000518807
0.422324 0.513359 0.000259403
0.458946 0.513237 0
0.49633 0.512566 1.5259e-05
0.533379 0.512322 7.62951e-05
0.568902 0.513115 0.000274662
0.605768 0.512932 0.000213626
0.645258 0.513313 7.62951e-05
0.68188 0.514763 4.57771e-05
0.719936 0.515999 1.5259e-05
0.757931 0.516136 1.5259e-05
0.793942 0.517159 0.000122072
0.831357 0.518898 0.000228885
0.867979 0.519615 0.000167849
0.904265 0.521004 6.10361e-05
0.940734 0.521126 0.000411994
0.975906 0.521859 0.00262455
0.999481 0.522805 0.0121767
0.999481 0.523232 0.0370794
0.0134279 0.569711 0.000289921
0.0369116 0.56759 0.000167849
0.0497444 0.566567 0.00015259
0.0638285 0.565362 0.000122072
0.0821393 0.564248 0.000106813
0.104372 0.563455 0.000122072
0.128908 0.563134 0.000167849
0.156985 0.562234 0.000183108
0.188373 0.560891 0.000137331
0.219928 0.559091 4.57771e-05
0.252262 0.558434 0.000198367
0.285679 0.557855 0.000381476
0.318608 0.557046 0.00047303
0.351339 0.55581 0.000534066
0.385275 0.555734 0.000366217
0.421149 0.555383 0.000122072
0.457679 0.554192 9.15541e-05
0.496345 0.553597 0.000137331
0.532982 0.553353 0.000106813
0.56997 0.552514 4.57771e-05
0.607034 0.553704 0.000320439
0.644785 0.553948 0.000503548
0.682795 0.554162 0.00015259
0.719707 0.553735 0
0.757153 0.552453 0
0.795148 0.554131 0
0.83122 0.554513 0
0.867811 0.55491 0
0.904707 0.554528 1.5259e-05
0.942672 0.554681 0.000549325
0.979095 0.554818 0.00256352
0.99762 0.555413 0.0111543
0.998947 0.555673 0.0347448
0.0110781 0.613046 0.000518807
0.0254063 0.611154 0.000350958
0.0365301 0.610468 0.000366217
0.0542458 0.610071 0.000442512
0.0751507 0.609171 0.000518807
0.0965133 0.608759 0.000595102
0.121889 0.607385 0.00047303
0.149966 0.605142 0.000320439
0.180621 0.603479 0.000213626
0.21268 0.602441 0.000411994
0.246433 0.601495 0.000549325
0.279576 0.59997 0.000579843
0.313481 0.599145 0.000549325
0.347906 0.598474 0.000457771
0.382223 0.597406 0.000228885
0.417807 0.596704 0.000106813
0.455344 0.596246 9.15541e-05
0.491753 0.5953 6.10361e-05
0.5299 0.59382 4.57771e-05
0.567895 0.593286 0.000137331
0.605814 0.592813 0.000259403
0.64332 0.592584 0.000122072
0.680964 0.592523 0
0.718196 0.591134 1.5259e-05
0.756344 0.590845 1.5259e-05
0.79559 0.589685 0
0.831235 0.590433 0
0.867872 0.589868 0
0.905119 0.589593 4.57771e-05
0.943511 0.589136 0.000244144
0.982483 0.589105 4.57771e-05
0.997696 0.588159 0.007187
0.998947 0.588403 0.0304417
0.0053254 0.656245 0.000488289
0.0268864 0.654231 0.000534066
0.0362249 0.65362 0.000564584
0.0462959 0.652689 0.000595102
0.0632486 0.651331 0.000640879
0.0857557 0.650752 0.000762951
0.110048 0.650278 0.000900282
0.137713 0.649439 0.0010071
0.170382 0.647761 0.000793469
0.20415 0.645274 0.000518807
0.238422 0.643885 0.000350958
0.272557 0.642969 0.000228885
0.307134 0.642084 0.000106813
0.34081 0.641062 6.10361e-05
0.37612 0.640391 3.0518e-05
0.413306 0.638972 0.000106813
0.451209 0.636927 0.000183108
0.488762 0.635294 0.000106813
0.527184 0.633738 0
0.563317 0.632868 4.57771e-05
0.602564 0.632013 9.15541e-05
0.6421 0.63093 4.57771e-05
0.679957 0.629404 0
0.71754 0.628443 0
0.755047 0.627771 0
0.792676 0.627909 0
0.830579 0.627771 0
0.86717 0.625818 0
0.905089 0.625299 0.000259403
0.945159 0.624826 0.000350958
0.980529 0.623301 0.000671397
0.999786 0.622934 0.00764477
0.999329 0.622324 0.0309148
0.0077821 0.69865 0.000534066
0.0140536 0.698146 0.000488289
0.0258335 0.697429 0.000595102
0.0399329 0.696437 0.000717174
0.0554665 0.695399 0.000869764
0.0728313 0.693919 0.0010071
0.0970169 0.692485 0.0010071
0.125597 0.691524 0.000946059
0.157931 0.690257 0.000869764
0.190173 0.689235 0.000686656
0.223819 0.688334 0.000457771
0.258656 0.686687 0.000274662
0.294286 0.685145 0.000198367
0.331228 0.683696 0.000122072
0.368765 0.681712 0.000259403
0.408011 0.679942 0.000381476
0.446479 0.677775 0.000244144
0.484871 0.675349 7.62951e-05
0.521981 0.674189 0.00015259
0.560739 0.673152 0.00030518
0.598596 0.671214 0.000228885
0.638437 0.669703 0.000137331
0.676829 0.668467 7.62951e-05
0.71519 0.66685 7.62951e-05
0.753613 0.666423 0.000274662
0.790921 0.665415 0.000289921
0.828351 0.66511 0.000213626
0.867399 0.663447 0
0.906477 0.662837 0.000274662
0.945632 0.660883 0.000122072
0.982391 0.659724 1.5259e-05
0.999084 0.658152 0.00614939
0.999512 0.656748 0.0296178
0.00241093 0.743114 0.000503548
0.0145113 0.740658 0.000595102
0.0187228 0.739864 0.00062562
0.0238041 0.738705 0.000656138
0.0366674 0.737881 0.000610361
0.0581674 0.736736 0.000488289
0.0801556 0.735897 0.000350958
0.105196 0.734585 0.000213626
0.136217 0.733135 0.000167849
0.169375 0.732296 0.000106813
0.204791 0.731334 6.10361e-05
0.241688 0.729656 6.10361e-05
0.280308 0.727474 6.10361e-05
0.318456 0.725429 4.57771e-05
0.356268 0.723674 3.0518e-05
0.394537 0.721691 3.0518e-05
0.433951 0.719463 4.57771e-05
0.47425 0.71722 3.0518e-05
0.514427 0.714641 1.5259e-05
0.553903 0.712245 0.000106813
0.59292 0.711849 0.000259403
0.632059 0.710765 0.000244144
0.671778 0.709087 0.000213626
0.711635 0.707637 0.00030518
0.750546 0.705989 0.000289921
0.789349 0.705211 0.000274662
0.827253 0.703655 0.000122072
0.866346 0.702266 6.10361e-05
0.906294 0.699931 0.000167849
0.948241 0.699153 0
0.989136 0.696742 0
0.99913 0.694621 0
0.999344 0.692317 0.0265507
1.5259e-05 0.785168 0.000137331
0.00225834 0.783307 7.62951e-05
0.00892653 0.78294 9.15541e-05
0.0164797 0.781811 0.000106813
0.0242466 0.781109 0.000137331
0.0328527 0.780316 0.000167849
0.0513771 0.779477 0.000183108
0.07953 0.778515 0.000213626
0.110262 0.777325 0.000228885
0.143359 0.775219 0.000228885
0.18027 0.773175 0.000167849
0.21976 0.771069 9.15541e-05
0.258961 0.769146 0.00015259
0.299641 0.766934 0.000259403
0.340841 0.764324 0.000350958
0.380133 0.762524 0.000350958
0.421057 0.760571 0.000350958
0.459907 0.75845 0.000259403
0.501488 0.75697 0.000198367
0.542718 0.755581 0.000274662
0.584161 0.753567 0.000396735
0.624643 0.751949 0.000518807
0.665827 0.749752 0.000442512
0.706233 0.748211 0.000137331
0.74638 0.746868 9.15541e-05
0.785885 0.745098 6.10361e-05
0.825895 0.74377 0
0.86482 0.741421 7.62951e-05
0.906065 0.739406 4.57771e-05
0.947188 0.736751 0.000213626
0.983917 0.733852 0.000656138
0.999237 0.73109 0.00332647
0.998871 0.728298 0.0252232
1.5259e-05 0.828428 0.00030518
0 0.827558 0.000228885
0 0.8271 0.000198367
0 0.82649 0.000137331
0.00772107 0.825895 0.000167849
0.0207675 0.824552 0.000274662
0.0336614 0.823468 0.000396735
0.0465705 0.822522 0.000534066
0.0755322 0.820737 0.000564584
0.111192 0.818799 0.000534066
0.148699 0.816541 0.000518807
0.188983 0.814145 0.000579843
0.232502 0.811963 0.000671397
0.275975 0.809628 0.000671397
0.316365 0.807218 0.000427253
0.359304 0.805097 0.000122072
0.400504 0.803159 0.000244144
0.443046 0.801251 0.000457771
0.485603 0.799329 0.000640879
0.529412 0.798352 0.00077821
0.570809 0.796872 0.000457771
0.613855 0.794491 4.57771e-05
0.656779 0.792355 1.5259e-05
0.6981 0.790204 0
0.740017 0.788205 0
0.780865 0.78645 1.5259e-05
0.821759 0.784482 0.000106813
0.863661 0.782025 0.000274662
0.903914 0.779522 0.000259403
0.945571 0.776791 0.000183108
0.987228 0.773816 0.000198367
0.99881 0.769436 0.00140383
0.999146 0.766323 0.0231937
3.0518e-05 0.871977 0.000411994
0.000122072 0.871336 0.000381476
0.000259403 0.87068 0.00047303
