app/src/main/assets/luts/Fuji-ASTIA.cube
TITLE "Generated by Resolve"
LUT_3D_SIZE 9
0 0 0
0.0564584 0.00344854 0.000411994
0.126528 0.00639353 0.000961318
0.245396 0.0143435 0.000198367
0.395834 0.0174716 0
0.572732 0.0174716 0.000167849
0.723064 0.0155489 0.00477607
0.868864 0.0112917 0.0534524
0.999588 0.0015259 0.17911
0.0145113 0.0730144 1.5259e-05
0.0809033 0.0758221 0.000411994
0.164309 0.0788281 0.000137331
0.293645 0.0815137 0.000198367
0.431495 0.0863966 0.000213626
0.577798 0.0910506 3.0518e-05
0.719203 0.0925765 1.5259e-05
0.859785 0.0912032 0.0215
0.997696 0.0702068 0.141543
0.0334173 0.179187 9.15541e-05
0.103899 0.17789 0
0.189487 0.176638 0.000732433
0.313039 0.17937 1.5259e-05
0.448203 0.181918 3.0518e-05
0.588266 0.18558 0
0.718318 0.193347 0.000167849
0.855879 0.195499 0.000167849
0.999756 0.174105 0.107683
0.059556 0.339345 0.00106813
0.133181 0.333883 6.10361e-05
0.224643 0.332647 0.000213626
0.343877 0.330709 0.00015259
0.470588 0.329763 0.00062562
0.600992 0.334157 0.000274662
0.725277 0.338628 0.000213626
0.855177 0.338643 0.000198367
0.999374 0.316793 0.0637827
0.100847 0.512764 0.000442512
0.178119 0.508766 0.000274662
0.270787 0.504067 0.000228885
0.379767 0.499611 0.000396735
0.498924 0.496025 9.15541e-05
0.618723 0.495399 0.000259403
0.735531 0.494102 6.10361e-05
0.860334 0.489906 0.000289921
0.99913 0.464668 0.0400854
0.156802 0.68072 0.000106813
0.233524 0.675212 0.000228885
0.316091 0.672374 0.000320439
0.417746 0.665507 3.0518e-05
0.526177 0.661646 0.000259403
0.637156 0.656809 0.000137331
0.747143 0.650126 1.5259e-05
0.870787 0.640772 4.57771e-05
0.999146 0.612406 0.0432898
0.201129 0.824445 0.000793469
0.271305 0.82121 0.000427253
0.345129 0.81854 0.000244144
0.438392 0.813733 0.000366217
0.543542 0.808362 6.10361e-05
0.646326 0.804791 0.000122072
0.756512 0.796429 0.000534066
0.883879 0.783825 0.000167849
0.999374 0.753475 0.0546883
0.189395 0.990448 0.000366217
0.256397 0.990936 0.000900282
0.332891 0.988876 0.000396735
0.420691 0.983078 0.00030518
0.530861 0.978469 0.000183108
0.638605 0.971084 0.00062562
0.7505 0.962036 0.000335698
0.881865 0.945861 0.000198367
0.999207 0.897887 0.0419776
0.137194 0.999496 0.0748455
0.174304 0.999786 0.0691386
0.218204 0.999832 0.062501
0.276982 0.99968 0.055024
0.35053 0.999863 0.0490272
0.43769 0.999786 0.0481575
0.539086 0.999603 0.0566873
0.662654 0.999756 0.0770581
0.932387 0.999512 0.101991
0.000579843 0.00337224 0.0560922
0.0635996 0.00418097 0.05449
0.148989 0.0109712 0.0586099
0.284367 0.0137942 0.058854
0.442817 0.0146639 0.059205
0.610437 0.0122377 0.0672618
0.748745 0.0114595 0.0894789
0.889113 0.00735485 0.150088
0.999832 0.000122072 0.273686
0.00796521 0.0824598 0.0912337
0.0826734 0.0843977 0.0825055
0.179248 0.085359 0.0719463
0.31603 0.0859083 0.0600748
0.45948 0.0881056 0.0540475
0.606104 0.089128 0.0538338
0.740627 0.0903334 0.0759747
0.877668 0.0860914 0.132158
0.999466 0.0577401 0.247272
0.0209659 0.198581 0.0940261
0.0992447 0.192248 0.0792859
0.195972 0.189471 0.0626993
0.33051 0.18909 0.0489662
0.467689 0.18941 0.0391546
0.608804 0.191424 0.038941
0.736721 0.194522 0.0583047
0.87068 0.192126 0.107225
0.999207 0.164157 0.219059
0.045655 0.355367 0.0788128
0.12665 0.349233 0.0611734
0.227161 0.343282 0.0436713
0.351949 0.339925 0.0305791
0.48336 0.338354 0.0178378
0.614206 0.338933 0.0177005
0.737469 0.340124 0.0379644
0.867033 0.334661 0.0855421
0.999756 0.307744 0.186709
0.0882277 0.519921 0.0677806
0.170703 0.513054 0.0508888
0.267933 0.507164 0.035111
0.382208 0.501259 0.0228428
0.503258 0.498009 0.0131075
0.627543 0.494347 0.00723278
0.744366 0.490623 0.0210422
0.86891 0.481987 0.0654612
0.999496 0.453758 0.163973
0.138903 0.675547 0.0683909
0.222965 0.671214 0.0534981
0.309117 0.667185 0.0347143
0.413352 0.660456 0.0242618
0.528954 0.654704 0.0164492
0.641016 0.649424 0.00979629
0.751507 0.642893 0.0134279
0.876402 0.631144 0.0509346
0.999329 0.602014 0.150271
0.183215 0.814618 0.0803082
0.256291 0.811307 0.0635233
0.334646 0.807523 0.0451667
0.432624 0.803525 0.0306249
0.540764 0.7991 0.0203708
0.648493 0.79353 0.0132296
0.759808 0.786343 0.0112459
0.88751 0.773922 0.0398413
0.99913 0.744091 0.148394
0.166842 0.980194 0.0805982
0.237995 0.9785 0.0623026
0.316045 0.975601 0.0428168
0.41355 0.971222 0.0303197
0.525582 0.967193 0.0201877
0.636103 0.961379 0.00961318
0.751247 0.954574 0.00515755
0.883574 0.937743 0.0302129
0.999115 0.887648 0.122286
0.118776 0.999771 0.157488
0.159304 0.999817 0.153384
0.207904 0.999832 0.145251
0.270039 0.999557 0.135058
0.345144 0.999771 0.124651
0.433661 0.999725 0.116701
0.538094 0.999832 0.115145
0.665034 0.999405 0.127352
0.937041 0.999603 0.144091
9.15541e-05 0.00541695 0.106218
0.0696117 0.00721752 0.121157
0.165515 0.0120241 0.132937
0.312306 0.0148928 0.144976
0.480247 0.0128481 0.160769
0.639109 0.0104982 0.181308
0.774639 0.00747692 0.221057
0.906905 0.00584421 0.287434
0.99942 0.000122072 0.395941
0.00334173 0.0948348 0.201251
0.0828412 0.0938888 0.195956
0.189273 0.0931716 0.186358
0.334035 0.0928054 0.176867
0.481315 0.091722 0.173922
0.630243 0.0916457 0.180591
0.758984 0.0917067 0.211215
0.892424 0.0849012 0.268238
0.999893 0.0550088 0.365606
0.0109255 0.217426 0.241352
0.0918441 0.208789 0.219577
0.201633 0.203189 0.200458
0.341726 0.19968 0.180484
0.484443 0.197848 0.170748
0.623652 0.197879 0.176547
0.751659 0.199863 0.199542
0.883513 0.193423 0.247364
0.999481 0.160357 0.337514
0.0303502 0.370916 0.248402
0.117632 0.362432 0.225025
0.226017 0.355291 0.203647
0.357885 0.349752 0.182605
0.493172 0.347219 0.167529
0.626307 0.344854 0.166171
0.748455 0.342855 0.181704
0.87628 0.335393 0.220356
0.99942 0.304921 0.299687
0.0715801 0.526482 0.248432
0.158923 0.518715 0.227909
0.261402 0.51284 0.20499
0.382055 0.507179 0.180468
0.509026 0.500542 0.163851
0.634348 0.495491 0.159579
0.7514 0.489708 0.166567
0.876951 0.478706 0.195926
0.999634 0.448646 0.270558
0.122301 0.671031 0.249241
0.205356 0.667384 0.227329
0.299535 0.662272 0.206363
0.408591 0.656291 0.183612
0.528008 0.650309 0.163485
0.643458 0.644709 0.1514
0.755428 0.636194 0.152178
0.881895 0.624094 0.173312
0.999313 0.59443 0.253468
0.159808 0.806088 0.245167
0.23827 0.803891 0.227344
0.32163 0.800351 0.207218
0.424796 0.795438 0.184955
0.537606 0.7906 0.160876
0.647715 0.786114 0.145205
0.761929 0.778317 0.137682
0.891478 0.765103 0.156802
0.999374 0.735973 0.243656
0.139071 0.968688 0.236393
0.214542 0.967132 0.217578
0.30016 0.96466 0.200519
0.402304 0.961028 0.177462
0.51957 0.956008 0.154314
0.633936 0.951034 0.135943
0.749935 0.94345 0.126909
0.884749 0.927321 0.137957
0.999344 0.877165 0.205676
0.0847028 0.999725 0.236133
0.128771 0.999649 0.23093
0.186374 0.999741 0.225193
0.262074 0.999573 0.216327
0.337987 0.999634 0.203983
0.429053 0.999741 0.187625
0.535744 0.999863 0.180667
0.663386 0.99939 0.18204
0.945357 0.99968 0.190753
0.00164797 0.00933852 0.186725
0.0781262 0.0104829 0.217304
0.184146 0.0135958 0.244297
0.342367 0.0153353 0.278202
0.522271 0.00910964 0.316594
0.668009 0.00926223 0.339269
0.796689 0.00770581 0.378073
0.925841 0.0049897 0.433906
0.999512 0.00015259 0.524681
0.00180056 0.109682 0.364874
0.0766155 0.106462 0.366903
0.197696 0.104494 0.353491
0.353765 0.10132 0.343496
0.508949 0.0979019 0.341451
0.651469 0.0994583 0.346731
0.778347 0.0982071 0.370382
0.909361 0.0886397 0.415366
0.999451 0.0539864 0.493858
0.000198367 0.24126 0.42858
0.0829023 0.229664 0.404364
0.201312 0.222965 0.383337
0.354528 0.217609 0.359594
0.502251 0.215045 0.345617
0.642573 0.212818 0.343359
0.767407 0.209751 0.356695
0.897871 0.19913 0.391348
0.999573 0.161715 0.463752
0.0151675 0.389838 0.442206
0.104295 0.379858 0.416495
0.220066 0.372061 0.389639
0.362692 0.365118 0.363699
0.504356 0.359289 0.343114
0.639063 0.353902 0.334356
0.759854 0.34931 0.337469
0.886824 0.337942 0.362554
0.999588 0.30396 0.426398
0.0454719 0.53875 0.439872
0.139834 0.529839 0.41323
0.252766 0.522774 0.386954
0.382147 0.515206 0.361212
0.514427 0.506371 0.33608
0.640833 0.500175 0.321904
0.758129 0.491798 0.31931
0.883574 0.477745 0.33608
0.999664 0.444816 0.395621
0.0920577 0.671244 0.431495
0.18204 0.666667 0.409033
0.28394 0.661006 0.3832
0.400519 0.654292 0.357122
0.525673 0.648157 0.331258
0.645151 0.640772 0.312566
0.760433 0.633082 0.303609
0.888975 0.618967 0.313375
0.999466 0.587213 0.370886
0.128359 0.800092 0.425361
0.210742 0.796826 0.403738
0.301091 0.79321 0.379644
0.410315 0.788312 0.354498
0.530694 0.783368 0.325383
0.646189 0.777569 0.300999
0.764202 0.769558 0.286076
0.895613 0.757641 0.294453
0.999039 0.726574 0.356847
0.0988785 0.95639 0.41207
0.176852 0.954604 0.392126
0.270985 0.951736 0.36965
0.384146 0.947417 0.343145
0.506889 0.943206 0.313756
0.629694 0.937438 0.287846
0.747738 0.929747 0.270695
0.885145 0.914519 0.265583
0.999512 0.864027 0.306081
0.0387427 0.999893 0.34078
0.0841993 0.999908 0.331594
0.142748 0.999802 0.320668
0.228626 0.999588 0.308583
0.327031 0.999435 0.299931
0.423331 0.999573 0.281743
0.53283 0.999802 0.265736
0.663706 0.999756 0.251591
0.957504 0.999939 0.249821
0.0047303 0.0131533 0.309621
0.0863813 0.0142977 0.361883
0.206928 0.016495 0.403067
0.381537 0.014435 0.452598
0.558068 0.0107424 0.488731
0.696849 0.011017 0.511421
0.819348 0.0119631 0.541665
0.946548 0.00709544 0.586358
0.999893 0.000137331 0.660166
0.000701915 0.132479 0.552346
0.0705425 0.127794 0.557839
0.203326 0.122683 0.541558
0.374029 0.116732 0.528069
0.531334 0.115267 0.51841
0.672847 0.113359 0.519188
0.798413 0.111864 0.533364
0.92549 0.0993515 0.567025
0.999954 0.0585641 0.632273
0.000320439 0.27364 0.624292
0.0653544 0.261051 0.599741
0.198489 0.251164 0.574151
0.361044 0.24535 0.543954
0.518822 0.237888 0.523919
0.659251 0.23418 0.514839
0.783764 0.22768 0.519814
0.910765 0.213336 0.542885
0.999786 0.168521 0.598871
0.000534066 0.413977 0.638972
0.0790723 0.404013 0.610712
0.207874 0.393957 0.580209
0.362692 0.38555 0.549111
0.512566 0.37705 0.522713
0.650889 0.370398 0.504952
0.772931 0.362264 0.500633
0.897734 0.345739 0.51429
0.999649 0.307179 0.56228
0.0205234 0.551492 0.631235
0.108766 0.544076 0.603616
0.228946 0.535515 0.576394
0.371939 0.527672 0.543023
0.515587 0.516503 0.515785
0.645731 0.507912 0.493629
0.765484 0.497581 0.48275
0.893156 0.48127 0.487587
0.999756 0.443717 0.528862
0.0530251 0.674083 0.616236
0.142855 0.669184 0.593744
0.256107 0.663188 0.566064
0.384146 0.655634 0.537728
0.520378 0.648524 0.506172
0.646311 0.640833 0.481788
0.764416 0.631525 0.463905
0.895491 0.616297 0.461769
0.999313 0.583871 0.50042
0.0785534 0.79617 0.602396
0.16582 0.792462 0.580087
0.268528 0.78851 0.556085
0.39057 0.783963 0.527016
0.520943 0.777844 0.497017
0.644099 0.77232 0.46833
0.765103 0.763302 0.446647
0.902358 0.749447 0.440574
0.999603 0.718029 0.473854
0.0538643 0.943297 0.578759
0.12639 0.940826 0.559915
0.226459 0.93846 0.537087
0.352316 0.934462 0.508034
0.486488 0.930846 0.475303
0.618021 0.924514 0.444526
0.744289 0.916655 0.41944
0.885313 0.900694 0.399863
0.999496 0.849607 0.415503
0.00260929 0.999878 0.460655
0.0287785 0.999847 0.448585
0.0825666 0.999725 0.434623
0.173724 0.999817 0.416754
0.289128 0.999527 0.395682
0.414893 0.999588 0.384314
0.530205 0.999588 0.363165
0.663401 0.999619 0.338277
0.971054 0.999741 0.32369
0.00602731 0.0192111 0.48426
0.0959182 0.0226139 0.544335
0.233204 0.0250553 0.597269
0.420508 0.0234989 0.659175
0.591592 0.0214389 0.684871
0.723186 0.0243687 0.69514
0.841505 0.0258488 0.7122
0.965911 0.0158846 0.739803
0.999985 0.0011902 0.793774
0.000289921 0.173342 0.773404
0.0507973 0.160784 0.765499
0.201221 0.153704 0.748287
0.386816 0.147005 0.724788
0.553903 0.144594 0.707439
0.693568 0.139757 0.701259
0.815351 0.135241 0.701991
0.942275 0.11664 0.718959
0.999878 0.0724804 0.761868
0.000167849 0.313039 0.817197
0.0350652 0.300404 0.79733
0.179507 0.289052 0.76582
0.364111 0.278874 0.733639
0.529915 0.271077 0.708293
0.671656 0.263813 0.690791
0.796323 0.252934 0.685939
0.924056 0.232792 0.692073
0.999985 0.18555 0.729061
0.000839246 0.445594 0.816159
0.0378576 0.434852 0.794598
0.174472 0.424201 0.76524
0.351553 0.412299 0.730129
0.516808 0.402502 0.700587
0.657374 0.390723 0.67808
0.781308 0.379141 0.663188
0.908888 0.359167 0.664759
0.999802 0.318441 0.692714
0.00199893 0.570459 0.802167
0.0577401 0.561471 0.778317
0.188769 0.553399 0.750134
0.350622 0.543664 0.715816
0.506569 0.53283 0.685283
0.647166 0.522271 0.6598
0.773068 0.50956 0.643076
0.902205 0.489967 0.636408
0.999771 0.449073 0.658625
0.0108186 0.682155 0.787045
0.0848249 0.675868 0.764202
0.20827 0.670069 0.738598
0.356771 0.663096 0.703883
0.505943 0.654398 0.671321
0.643397 0.645045 0.643549
0.76875 0.635203 0.621759
0.903487 0.618173 0.60766
0.999908 0.584039 0.628092
0.0231785 0.796735 0.768368
0.0979629 0.793179 0.747555
0.21268 0.788922 0.722759
0.354101 0.783642 0.690425
0.500648 0.776898 0.657755
0.637415 0.770001 0.625834
0.765316 0.760937 0.599954
0.907713 0.747356 0.583047
0.999878 0.70927 0.589761
0.00321965 0.928618 0.734737
0.0574502 0.926925 0.716793
0.155444 0.924636 0.692866
0.299794 0.920836 0.661707
0.450462 0.916518 0.626795
0.597955 0.911498 0.590799
0.735317 0.902571 0.559121
0.881773 0.887327 0.530327
0.999344 0.833875 0.526192
7.62951e-05 0.999695 0.586297
6.10361e-05 0.999649 0.576959
0.0176242 0.999512 0.563088
0.0946822 0.999527 0.540703
0.225864 0.999756 0.510857
0.370886 0.999817 0.48333
0.521019 0.999756 0.46688
0.661036 0.999481 0.434882
0.982467 0.999756 0.391562
0.0043946 0.0391089 0.713085
0.0922103 0.0440375 0.780392
0.249958 0.0498817 0.836606
0.450217 0.0528115 0.883162
0.613611 0.0561532 0.874052
0.743481 0.0604105 0.871077
0.858473 0.0579995 0.873487
0.982467 0.0442512 0.885176
0.99968 0.00863661 0.921477
0.000122072 0.235737 0.974273
0.0155184 0.220768 0.964614
0.1664 0.212284 0.941833
0.381521 0.202274 0.905409
0.562036 0.1944 0.880018
0.705516 0.187808 0.86508
0.829221 0.175555 0.860136
0.956283 0.155184 0.862547
0.999786 0.102312 0.895811
0.000961318 0.36379 0.981659
0.000823987 0.351507 0.97232
0.124849 0.340398 0.946273
0.338811 0.328481 0.908232
0.527062 0.315831 0.877256
0.679179 0.304143 0.853391
0.806195 0.290211 0.840711
0.937057 0.267399 0.839185
0.999969 0.216022 0.86276
0.000549325 0.486198 0.977386
0.00497444 0.47509 0.967666
0.104265 0.46389 0.940795
0.310994 0.450904 0.902464
0.498985 0.438148 0.868238
0.655283 0.425208 0.840558
0.787457 0.409995 0.822477
0.91989 0.386007 0.813291
0.999725 0.337896 0.830747
0.000671397 0.596674 0.969558
0.0103761 0.588937 0.95494
0.105425 0.580087 0.929015
0.298192 0.569879 0.890196
0.482643 0.557778 0.854063
0.640711 0.546304 0.823835
0.775158 0.530495 0.801999
0.91046 0.507622 0.78648
0.99968 0.46392 0.797635
0.000289921 0.696681 0.955596
0.0107118 0.689723 0.944854
0.112734 0.684047 0.915602
0.293675 0.676753 0.879377
0.471855 0.667491 0.841672
0.631128 0.656382 0.809018
0.767117 0.644984 0.782986
0.909911 0.625422 0.760952
0.999908 0.590021 0.763058
0.000701915 0.802121 0.941604
0.00958267 0.798184 0.928313
0.101778 0.79472 0.9037
0.276814 0.788861 0.865843
0.45771 0.78265 0.827665
0.620417 0.772793 0.791897
0.760266 0.761975 0.760708
0.906828 0.744488 0.732265
0.999725 0.70013 0.71281
0.000442512 0.913344 0.886671
0.000686656 0.911101 0.878462
0.0479438 0.908919 0.859251
0.195239 0.90547 0.824781
0.38056 0.900999 0.785779
0.558221 0.895506 0.746426
0.714275 0.887465 0.706218
0.874281 0.869749 0.670878
0.999954 0.817227 0.644099
0.000289921 0.999359 0.724392
0.000320439 0.999786 0.716762
0.000167849 0.999771 0.707088
0.00277714 0.999573 0.686305
0.111406 0.999634 0.650401
0.292638 0.999786 0.607858
0.479103 0.999573 0.571725
0.657542 0.999619 0.546532
0.988739 0.999634 0.472114
0.000747692 0.0991379 0.983688
0.036408 0.114641 0.999786
0.203723 0.128466 0.999634
0.427878 0.134463 0.999817
0.611826 0.137148 0.999664
0.748379 0.13785 0.999481
0.869291 0.132586 0.999374
0.996826 0.113237 0.999481
1 0.0731212 0.999527
0.00102235 0.323323 0.999924
0.00077821 0.310231 0.999802
0.0630198 0.301595 0.999832
0.316701 0.290166 0.999863
0.536828 0.279759 0.999725
0.700816 0.269368 0.999588
0.834272 0.255772 0.999359
0.965042 0.230243 0.999329
0.999954 0.170657 0.999664
0.000137331 0.440024 0.999741
0.000259403 0.427695 0.999878
0.0211795 0.415717 0.999832
0.233982 0.402579 0.99942
0.482048 0.388617 0.999832
0.664363 0.37319 0.999893
0.807187 0.356527 0.99736
0.943893 0.32961 0.995956
0.999847 0.277729 0.998825
0.000534066 0.545907 0.999893
0.000869764 0.536034 0.999756
0.00389105 0.525719 0.999817
0.174136 0.512871 0.999802
0.434073 0.498177 0.999542
0.632624 0.482948 0.998718
0.78143 0.464363 0.997818
0.925307 0.438178 0.988678
0.999313 0.383398 0.986374
0.000198367 0.635966 0.999695
0.000671397 0.628901 0.999908
0.00369268 0.621256 0.999664
0.139086 0.611826 1
0.397375 0.59942 0.999832
0.606073 0.585901 0.999954
0.763165 0.56997 0.987793
0.913176 0.545434 0.970535
0.999588 0.486259 0.959136
0.000137331 0.715984 0.999771
1.5259e-05 0.712261 0.99971
6.10361e-05 0.706783 0.999969
0.103273 0.699138 0.999817
0.362295 0.690303 0.999603
0.580972 0.678203 0.995468
0.745861 0.662547 0.979187
0.900496 0.638819 0.945205
0.999924 0.590951 0.914595
0.000167849 0.793515 0.999649
0.000244144 0.791257 0.999603
0.00157168 0.788235 0.999878
0.0680247 0.782895 0.999695
0.306615 0.776318 0.998962
0.538598 0.767422 0.987991
0.716304 0.754849 0.948058
0.881605 0.7346 0.905089
0.999512 0.689067 0.861631
4.57771e-05 0.887938 1
3.0518e-05 0.886107 0.999969
0.000183108 0.884428 0.999603
0.0149386 0.881514 0.999908
0.190845 0.877989 0.985183
0.4448 0.872419 0.942565
0.657649 0.864866 0.892363
0.84567 0.848219 0.845685
0.999939 0.79736 0.791485
1.5259e-05 0.994141 0.909407
0 0.995438 0.89984
0.000381476 0.996399 0.889113
0.000259403 0.997757 0.874388
7.62951e-05 0.999573 0.853849
0.0867781 0.999619 0.80441
0.361059 0.999786 0.735302
0.624262 0.999695 0.681758
0.990646 0.999893 0.589914
0.000457771 0.341466 0.999588
0.000198367 0.373083 0.999939
0.000350958 0.37818 0.999802
0.118883 0.367971 0.999908
0.436347 0.353048 0.999741
0.657435 0.346609 0.999496
0.8103 0.33254 0.999802
0.945296 0.306188 0.999634
0.999878 0.243748 0.999527
0.000762951 0.469841 0.999893
0.000167849 0.468528 0.999619
0.000518807 0.467674 0.999771
0.00477607 0.46273 0.999863
0.246204 0.449516 0.999161
0.544991 0.441718 0.999146
0.740551 0.421698 0.999527
0.898985 0.388281 0.999863
0.999725 0.321126 0.998993
0.00047303 0.530053 0.999557
0.000427253 0.528557 0.999878
0.00047303 0.526162 0.999893
0.000183108 0.520562 0.999817
0.0946212 0.515007 0.999786
0.446281 0.507469 0.999542
0.679637 0.493904 0.999893
0.857328 0.461082 0.999146
0.99971 0.390967 0.999359
0.000396735 0.588403 1
0.000488289 0.586069 1
6.10361e-05 0.585534 0.999863
0.00102235 0.578958 0.999969
0.0119478 0.573449 0.999969
0.338659 0.567498 1
0.616556 0.558358 0.999878
0.810376 0.532738 0.999588
0.995666 0.466789 0.999573
0.00102235 0.639094 0.999924
0.000457771 0.63714 0.999817
0.00047303 0.636439 1
0.000259403 0.632136 1
0.0010071 0.626566 0.999863
0.219669 0.619654 1
0.550713 0.612573 0.999924
0.766491 0.595987 0.999359
0.981613 0.537484 0.999191
0.000137331 0.687129 0.999878
0.000564584 0.687007 0.999939
0.000228885 0.685481 0.999939
0.000320439 0.682765 0.999741
0.000320439 0.676844 1
0.0931563 0.6701 0.999954
0.473991 0.662684 0.999786
0.728389 0.652567 0.999908
0.971328 0.605509 0.999451
0.00030518 0.743435 0.999802
0.000137331 0.741527 0.999924
0.000350958 0.7402 0.999863
0.000259403 0.738338 0.999985
0.000656138 0.732509 0.999878
0.0267033 0.726406 0.999588
0.37818 0.719081 0.999969
0.68983 0.710292 0.999725
0.966567 0.67248 0.999878
0.000167849 0.820401 0.999741
0.000122072 0.818402 0.999664
0.000122072 0.816388 0.999939
0.000549325 0.813474 0.999893
9.15541e-05 0.809384 0.999741
0.000549325 0.802396 1
0.19324 0.795071 0.999649
0.624399 0.783703 0.99971
0.975601 0.754055 0.999847
0.000259403 0.959854 0.999863
7.62951e-05 0.960937 0.99971
0.000167849 0.961913 0.999664
0.000228885 0.96408 0.999847
0.00077821 0.967163 0.999863
0.000427253 0.970291 0.999863
0.000488289 0.972274 0.999802
0.167239 0.999771 1
0.993744 0.996826 0.995468
