app/src/main/assets/luts/Fuji-ProNegStd.cube
TITLE "Generated by Resolve"
LUT_3D_SIZE 33
0 0 0
0.0260929 0.00411994 0.00560006
0.0340276 0.00538643 0.00724804
0.0443275 0.0077821 0.0105135
0.0557107 0.0104219 0.0119783
0.06598 0.0122225 0.0140078
0.0789044 0.0144503 0.017319
0.0935073 0.0177768 0.019852
0.107332 0.021149 0.021149
0.12488 0.0242161 0.0260777
0.144427 0.0287327 0.0322271
0.16556 0.0333257 0.0349889
0.187091 0.0381476 0.0390936
0.211917 0.0425116 0.0455329
0.238666 0.0469215 0.0505531
0.267292 0.0509194 0.0543832
0.297856 0.0538949 0.0617533
0.331411 0.0581064 0.0670024
0.367346 0.0618601 0.0726329
0.408713 0.0653239 0.0806744
0.449928 0.0686656 0.0870985
0.489265 0.071519 0.0955367
0.52549 0.0766003 0.101122
0.56585 0.0793927 0.106798
0.607263 0.0829175 0.112993
0.645853 0.0874189 0.121141
0.683009 0.0931411 0.129381
0.719081 0.0980087 0.140078
0.755123 0.102998 0.152178
0.791318 0.106142 0.166232
0.827726 0.110826 0.180331
0.864652 0.113191 0.200855
0.904646 0.115923 0.223087
0.0122988 0.0361181 0.00505074
0.0408026 0.0415351 0.00802625
0.0500801 0.0435492 0.0104219
0.0593423 0.0452583 0.013489
0.0711681 0.0473487 0.0137331
0.0842908 0.049134 0.0155642
0.098024 0.0514382 0.0195926
0.113664 0.0548714 0.0219272
0.128939 0.0583047 0.0233768
0.146944 0.061326 0.0265965
0.166598 0.0637675 0.0305943
0.187625 0.0666514 0.0343938
0.213382 0.0701915 0.0393072
0.236957 0.0737316 0.0426795
0.263935 0.0768139 0.0468299
0.295262 0.0804303 0.053315
0.32697 0.0854963 0.0585031
0.360174 0.0890974 0.064271
0.393347 0.0925765 0.0691844
0.426215 0.0960555 0.0734722
0.459541 0.100252 0.0784619
0.495048 0.104097 0.0839094
0.533852 0.108537 0.08925
0.572854 0.111955 0.0950637
0.610819 0.116289 0.103624
0.647089 0.121416 0.11107
0.68426 0.125704 0.122652
0.719783 0.130983 0.130556
0.755947 0.135256 0.141833
0.793332 0.140368 0.156313
0.829374 0.144137 0.170626
0.866072 0.14786 0.189929
0.905409 0.150683 0.210742
0.0167544 0.0492103 0.0089723
0.0445106 0.0555428 0.011429
0.0544747 0.0570993 0.0119326
0.0653239 0.0585336 0.0133059
0.0771801 0.0603647 0.0156558
0.0894636 0.0626993 0.0170901
0.103487 0.0654002 0.0190585
0.118715 0.0679179 0.0210574
0.135088 0.0708324 0.0221103
0.155245 0.0732738 0.0270695
0.176333 0.0760662 0.0318608
0.19765 0.0792706 0.0360418
0.220935 0.0824445 0.0384527
0.24596 0.0866712 0.0413062
0.273411 0.0896925 0.0468757
0.302434 0.0927443 0.0521401
0.33521 0.0970474 0.0579538
0.367025 0.100465 0.0632639
0.39913 0.103761 0.0674754
0.430655 0.108339 0.0699168
0.462745 0.112047 0.0749523
0.498833 0.115785 0.0804608
0.537804 0.119707 0.0873579
0.574792 0.123003 0.0951858
0.612512 0.128954 0.100633
0.648371 0.134722 0.108446
0.685267 0.139788 0.117189
0.720882 0.143999 0.126146
0.75697 0.148684 0.138048
0.793194 0.153155 0.150774
0.830594 0.157229 0.166583
0.866773 0.161318 0.185595
0.906065 0.16379 0.206394
0.0236362 0.0651255 0.0116426
0.0521553 0.0686656 0.0137484
0.0605325 0.0709544 0.0142214
0.0725109 0.072694 0.0170748
0.0834669 0.0746014 0.0171817
0.0956741 0.0765393 0.0186923
0.110979 0.0792401 0.0209964
0.127611 0.0817731 0.0226291
0.143206 0.082826 0.0234989
0.161669 0.0859236 0.0277867
0.181292 0.090013 0.0316625
0.204303 0.0935683 0.0330205
0.229252 0.0961471 0.0352636
0.254444 0.099733 0.0404517
0.281743 0.10277 0.0445869
0.311116 0.106447 0.0500191
0.340215 0.110948 0.0562295
0.372045 0.114046 0.0607767
0.40174 0.117998 0.0643015
0.433356 0.121721 0.0681163
0.466361 0.125124 0.071107
0.504067 0.129305 0.0766613
0.540536 0.133898 0.0814527
0.577157 0.137819 0.0886244
0.613703 0.143771 0.0965744
0.650263 0.149569 0.104173
0.685527 0.154955 0.112917
0.721691 0.158648 0.122942
0.757214 0.162982 0.133303
0.793469 0.167865 0.145434
0.83093 0.171725 0.162524
0.867338 0.176425 0.181262
0.90695 0.178454 0.202106
0.0311894 0.0803082 0.0157168
0.0588998 0.0853437 0.0178836
0.068574 0.0865339 0.0186618
0.0783246 0.0883803 0.0183261
0.0892042 0.0907912 0.0182498
0.103197 0.0923934 0.0205844
0.118639 0.0953689 0.022034
0.134325 0.0970779 0.0225986
0.151369 0.0994278 0.0242924
0.170001 0.102052 0.0269474
0.191104 0.105013 0.0292973
0.214206 0.108248 0.0314946
0.23769 0.111086 0.0350652
0.262333 0.11397 0.0382696
0.288487 0.118776 0.0413367
0.317388 0.122683 0.0464942
0.346395 0.126497 0.0509041
0.374456 0.129961 0.0560769
0.405371 0.13344 0.060029
0.438453 0.137316 0.0636301
0.471702 0.140337 0.0672465
0.508568 0.145235 0.0698405
0.543938 0.149996 0.0756085
0.579782 0.154131 0.085069
0.615412 0.160037 0.091722
0.651392 0.165698 0.0999161
0.687343 0.171038 0.110018
0.723156 0.174777 0.11841
0.759808 0.179675 0.128679
0.795514 0.183917 0.14139
0.831876 0.187762 0.158358
0.867933 0.193332 0.176318
0.909758 0.194598 0.196918
0.0395514 0.0980697 0.0181125
0.0657359 0.103471 0.0191196
0.0756542 0.105165 0.0191806
0.0852064 0.105989 0.0201267
0.0973831 0.107713 0.0211032
0.110414 0.109804 0.0213321
0.124971 0.112703 0.0211032
0.141955 0.114549 0.0224002
0.159472 0.117098 0.0234531
0.178714 0.119554 0.0251774
0.200809 0.122301 0.0285344
0.221729 0.125246 0.0318303
0.245914 0.128161 0.0340124
0.270512 0.13193 0.0370947
0.296162 0.136965 0.0400397
0.323064 0.140719 0.0421149
0.350164 0.143984 0.0450752
0.379004 0.147097 0.0499886
0.411475 0.150866 0.0546426
0.443702 0.155001 0.0583047
0.477775 0.159014 0.0618296
0.511742 0.16289 0.066743
0.546654 0.166918 0.0740063
0.583078 0.172229 0.0801709
0.617044 0.177966 0.0870832
0.654124 0.183322 0.0954604
0.690227 0.188235 0.102754
0.725994 0.192569 0.1131
0.762036 0.197024 0.124056
0.79678 0.201404 0.13698
0.831693 0.206424 0.15259
0.869062 0.21149 0.170382
0.911925 0.211734 0.191165
0.0467689 0.121935 0.0201724
0.0720684 0.124941 0.0192264
0.0813001 0.126055 0.0201267
0.0918593 0.127352 0.0206607
0.104326 0.129396 0.0212711
0.117556 0.131472 0.0190738
0.133608 0.133242 0.0191043
0.150088 0.134554 0.0204318
0.166064 0.136812 0.0213779
0.18613 0.1393 0.023621
0.206668 0.142092 0.0252537
0.228519 0.145617 0.0273289
0.253971 0.148852 0.0324407
0.27805 0.152438 0.0348363
0.3028 0.156268 0.0361639
0.329412 0.160418 0.0375525
0.357977 0.163348 0.0424353
0.386831 0.165438 0.0482032
0.418173 0.16965 0.0509346
0.450385 0.174014 0.0534524
0.483452 0.178454 0.0571298
0.516686 0.18262 0.0641489
0.550729 0.187274 0.0700389
0.585168 0.192386 0.0758679
0.620066 0.196994 0.0838026
0.655772 0.202335 0.0903334
0.692988 0.207675 0.0987259
0.727901 0.211368 0.108293
0.763317 0.215747 0.1187
0.798001 0.221012 0.131365
0.833875 0.226062 0.147036
0.873213 0.229374 0.165881
0.913115 0.231922 0.186557
0.0544747 0.145266 0.0205844
0.0802014 0.148867 0.0200809
0.0897993 0.150393 0.020264
0.0999313 0.151385 0.0204318
0.112367 0.153429 0.0190585
0.126223 0.155398 0.0187381
0.141161 0.155627 0.0202792
0.158267 0.158511 0.0211948
0.176089 0.160815 0.0221103
0.195987 0.161807 0.0241245
0.21619 0.164675 0.0255894
0.238788 0.168368 0.0274968
0.261662 0.171954 0.0293278
0.284688 0.174548 0.0315099
0.309346 0.177401 0.0329747
0.337957 0.18085 0.0353094
0.365438 0.183108 0.0403906
0.395514 0.186404 0.0432136
0.426337 0.18938 0.0440986
0.458656 0.19443 0.0485084
0.48957 0.199344 0.053666
0.521874 0.204211 0.0598001
0.555703 0.209018 0.0645914
0.588663 0.213901 0.0712749
0.624262 0.217762 0.07953
0.659098 0.223026 0.0866865
0.694896 0.228138 0.0937209
0.731044 0.232624 0.101884
0.765774 0.237522 0.11194
0.801907 0.242512 0.126131
0.839353 0.246067 0.142367
0.876692 0.249241 0.160311
0.915724 0.252842 0.180529
0.0627604 0.172763 0.0194705
0.0883192 0.175937 0.0187076
0.0974441 0.17615 0.0190585
0.108934 0.177554 0.0189212
0.121843 0.179568 0.0186465
0.135576 0.180606 0.0195163
0.150286 0.181888 0.020264
0.167605 0.183505 0.021622
0.18471 0.185306 0.0225528
0.203769 0.187289 0.0233158
0.226352 0.189014 0.0253605
0.24799 0.191867 0.0275425
0.26952 0.195178 0.0290074
0.29221 0.19678 0.0303349
0.319081 0.199832 0.0323339
0.346029 0.20293 0.0345312
0.374807 0.206332 0.0366979
0.40354 0.21004 0.0381476
0.433356 0.214557 0.0399329
0.464088 0.218006 0.0439765
0.495766 0.221744 0.0495308
0.527901 0.22623 0.0558938
0.560601 0.233265 0.0607919
0.595041 0.237583 0.0672465
0.62916 0.241703 0.0733349
0.664652 0.246616 0.0799878
0.699382 0.250797 0.0869459
0.734096 0.256092 0.0958877
0.769345 0.260395 0.108583
0.805158 0.264591 0.121462
0.841703 0.26862 0.135805
0.879789 0.272068 0.152667
0.919249 0.275532 0.173114
0.0726177 0.203372 0.0200198
0.0982376 0.203296 0.0207218
0.108476 0.204395 0.0201724
0.119585 0.205554 0.0196384
0.130694 0.206683 0.0195163
0.143252 0.20827 0.019791
0.160006 0.209827 0.0211643
0.176486 0.210819 0.0210727
0.193317 0.212055 0.0199741
0.213214 0.212909 0.0219883
0.234516 0.214618 0.0241703
0.255909 0.217929 0.02533
0.278492 0.22002 0.0261234
0.302876 0.22295 0.0267643
0.32874 0.226184 0.0287938
0.356161 0.229389 0.0305943
0.383093 0.231983 0.0321965
0.41181 0.236851 0.0353399
0.440757 0.240391 0.0388342
0.470741 0.244282 0.0406348
0.502205 0.248676 0.0473335
0.533852 0.254154 0.0531319
0.567117 0.25864 0.0567636
0.600916 0.262882 0.0622721
0.634974 0.266438 0.0678111
0.669917 0.271351 0.0734722
0.703334 0.276249 0.0827344
0.737789 0.280613 0.0935531
0.773281 0.284092 0.104967
0.808545 0.287617 0.116182
0.844953 0.292348 0.128832
0.882734 0.296498 0.145037
0.921859 0.299733 0.166629
0.0822766 0.234073 0.0201267
0.107332 0.234958 0.0192111
0.117159 0.235721 0.0191501
0.128298 0.236225 0.0199588
0.140658 0.236927 0.0207065
0.154269 0.238163 0.0199741
0.16936 0.239857 0.0194553
0.186603 0.240955 0.019791
0.204715 0.241627 0.02121
0.22385 0.243122 0.0235294
0.245045 0.245411 0.0231937
0.267918 0.248325 0.0222171
0.290929 0.249897 0.0226902
0.314321 0.252598 0.0241245
0.338399 0.25687 0.0263676
0.364187 0.259464 0.0269322
0.392233 0.262867 0.0297704
0.420752 0.265034 0.0354314
0.450233 0.268894 0.0375677
0.479927 0.272633 0.0398718
0.509621 0.276875 0.0439918
0.541894 0.280919 0.0491188
0.574655 0.285924 0.0544289
0.606867 0.289448 0.0583963
0.64033 0.293599 0.0638437
0.673823 0.297505 0.0704356
0.708446 0.302495 0.0797284
0.741787 0.306127 0.088365
0.776333 0.309728 0.096788
0.811643 0.313527 0.10605
0.847471 0.317556 0.120333
0.885847 0.322148 0.139803
0.925978 0.323507 0.160143
0.0921492 0.266987 0.0194858
0.11667 0.269566 0.0182498
0.126848 0.2692 0.0184787
0.138033 0.269795 0.0186313
0.151278 0.270573 0.0187076
0.165255 0.271351 0.0191501
0.180789 0.271916 0.0187228
0.197498 0.27303 0.0184939
0.21532 0.27454 0.0197604
0.234592 0.275944 0.019852
0.256306 0.278416 0.0188296
0.278752 0.280324 0.0196841
0.301671 0.282887 0.0210422
0.325017 0.284657 0.0232853
0.349477 0.286732 0.0253758
0.375814 0.290883 0.0272068
0.401953 0.293446 0.0299382
0.429953 0.296361 0.0331121
0.46009 0.299306 0.0357366
0.488182 0.302159 0.038407
0.517739 0.305623 0.0424201
0.549416 0.309194 0.047364
0.581765 0.313054 0.0522774
0.613291 0.316625 0.0574197
0.646296 0.321096 0.0623789
0.679667 0.325231 0.0676738
0.713848 0.328847 0.0758526
0.746197 0.332067 0.0818952
0.779583 0.33608 0.0903639
0.815229 0.340566 0.103395
0.851148 0.343938 0.117876
0.888243 0.347311 0.133776
0.928603 0.348745 0.150973
0.103746 0.303105 0.0181277
0.125521 0.305196 0.0151675
0.135348 0.305653 0.0155642
0.147463 0.30515 0.017258
0.160769 0.305119 0.0184634
0.174472 0.306218 0.016556
0.188861 0.307393 0.0151217
0.206317 0.307958 0.0164492
0.225483 0.309361 0.0177462
0.24683 0.31078 0.0179446
0.268055 0.312093 0.018555
0.289281 0.314824 0.0202182
0.311727 0.316381 0.0219425
0.335302 0.317556 0.023743
0.359808 0.319844 0.0251011
0.384833 0.321065 0.0269627
0.412268 0.323598 0.0309758
0.43949 0.326329 0.0339055
0.466163 0.329015 0.0352178
0.496498 0.332815 0.0390784
0.526009 0.335851 0.0422522
0.557168 0.339361 0.0457771
0.588205 0.34229 0.0501106
0.620356 0.345708 0.0553292
0.652415 0.349416 0.0599374
0.684825 0.352941 0.0648966
0.717754 0.355795 0.070161
0.750805 0.360296 0.0784619
0.785504 0.363958 0.090013
0.820371 0.368368 0.101427
0.855314 0.371542 0.113146
0.892836 0.373083 0.128573
0.933257 0.374731 0.146105
0.11165 0.341268 0.013962
0.137453 0.341009 0.0141604
0.148531 0.341512 0.014847
0.15996 0.342061 0.0151217
0.171313 0.342519 0.0149844
0.183536 0.34284 0.0149386
0.20061 0.343511 0.0159152
0.218418 0.344518 0.0167239
0.237629 0.345174 0.0170443
0.258106 0.346426 0.0178378
0.279164 0.347753 0.0202487
0.300435 0.348547 0.0221866
0.321996 0.350576 0.0218509
0.345312 0.352239 0.0222324
0.36997 0.353185 0.0235142
0.396231 0.354726 0.0269169
0.42208 0.356222 0.0307317
0.449012 0.358694 0.0332799
0.477089 0.361563 0.0362707
0.504601 0.363729 0.0379492
0.533761 0.366979 0.0401007
0.562783 0.370718 0.0424659
0.594675 0.373678 0.046952
0.62707 0.376455 0.0520485
0.659007 0.379538 0.0580301
0.691768 0.383139 0.0632029
0.725124 0.386694 0.0694743
0.758114 0.389502 0.0767529
0.791989 0.39324 0.088014
0.825589 0.396567 0.0977646
0.861189 0.399603 0.108446
0.899016 0.400351 0.123873
0.93579 0.402228 0.143236
0.122194 0.379904 0.0139467
0.149508 0.379995 0.014313
0.159518 0.380148 0.0142214
0.170428 0.380636 0.0142519
0.182773 0.381155 0.014435
0.196735 0.381506 0.0155795
0.2112 0.381537 0.0165103
0.229313 0.381292 0.0176089
0.249042 0.381323 0.0186923
0.269276 0.382254 0.0195926
0.28925 0.382879 0.0203861
0.310719 0.384436 0.0205692
0.332845 0.385992 0.0209506
0.356039 0.387076 0.0221714
0.380484 0.388525 0.0235904
0.405447 0.38938 0.0260471
0.43212 0.390982 0.0288548
0.459495 0.392813 0.0318761
0.485924 0.39498 0.0336309
0.513603 0.398077 0.0352331
0.542809 0.400473 0.0381781
0.572671 0.403296 0.0421454
0.604837 0.40589 0.047364
0.635401 0.40795 0.0522469
0.666911 0.411276 0.0568246
0.699062 0.414893 0.0614481
0.731731 0.418006 0.0679026
0.764019 0.419913 0.0759289
0.797635 0.422889 0.0846723
0.830762 0.426886 0.0935988
0.866041 0.429145 0.104952
0.903517 0.430854 0.12015
0.941588 0.431235 0.138567
0.135561 0.41915 0.0148318
0.160021 0.418875 0.0155489
0.169558 0.418616 0.0159762
0.180652 0.418509 0.0164187
0.193011 0.418158 0.016846
0.206806 0.418235 0.0173495
0.224048 0.418738 0.0170901
0.242847 0.419181 0.0166629
0.260853 0.419257 0.0170291
0.279423 0.420127 0.0181735
0.29984 0.420829 0.0193637
0.321553 0.420569 0.0203098
0.344305 0.421454 0.0217136
0.36759 0.422843 0.023331
0.39144 0.423865 0.0251011
0.415839 0.425635 0.0268254
0.441413 0.427359 0.0283513
0.46714 0.428748 0.0300145
0.494926 0.430564 0.0324407
0.522301 0.432166 0.0350958
0.551568 0.434058 0.0383917
0.581781 0.436667 0.0421607
0.611551 0.438911 0.0461433
0.642512 0.441382 0.0511177
0.673945 0.443931 0.0552071
0.706416 0.448295 0.0568399
0.737011 0.449042 0.0645457
0.769436 0.451728 0.0729381
0.802228 0.454643 0.0813153
0.837461 0.457572 0.0917372
0.872129 0.459388 0.102159
0.908934 0.4607 0.116777
0.946944 0.4607 0.133211
0.146517 0.45861 0.0176699
0.170596 0.45774 0.0181125
0.180301 0.458167 0.0180209
0.191806 0.458518 0.0178225
0.204868 0.458839 0.0176699
0.220157 0.458228 0.0174716
0.237049 0.457984 0.0175479
0.253849 0.458289 0.0176089
0.270954 0.458671 0.0177768
0.290074 0.458656 0.0185397
0.310338 0.458198 0.0198062
0.332052 0.458427 0.0215305
0.355459 0.459419 0.0240177
0.378042 0.459739 0.0254368
0.401251 0.460441 0.0253147
0.425772 0.461891 0.0255589
0.450965 0.462989 0.0268711
0.476738 0.464561 0.0288396
0.502968 0.465293 0.0308385
0.531121 0.467079 0.0339208
0.560754 0.468757 0.0374609
0.589654 0.470848 0.0408637
0.619959 0.473503 0.04448
0.649851 0.476081 0.0481117
0.681102 0.479057 0.0524605
0.713191 0.480903 0.0581521
0.744488 0.482185 0.0646372
0.776135 0.484977 0.0696422
0.809049 0.487205 0.0775006
0.842527 0.488701 0.088777
0.877913 0.49012 0.0988785
0.914061 0.491035 0.112413
0.953277 0.490654 0.127108
0.159136 0.498085 0.0192264
0.184726 0.498543 0.0192111
0.19411 0.498466 0.0192569
0.205402 0.497566 0.0193637
0.217884 0.497292 0.0195621
0.231525 0.497108 0.019852
0.247028 0.4972 0.0199588
0.263569 0.497047 0.019913
0.281865 0.496803 0.0200656
0.301183 0.496803 0.0208743
0.321553 0.496803 0.0217441
0.341924 0.496971 0.0220951
0.363729 0.497765 0.0223239
0.386404 0.498451 0.0235142
0.409873 0.498268 0.0251316
0.434989 0.499443 0.0261387
0.46067 0.500572 0.0273136
0.486397 0.50132 0.0299992
0.512825 0.502403 0.0331426
0.540429 0.503746 0.0356909
0.568414 0.504799 0.0379187
0.597986 0.506828 0.040589
0.627054 0.509529 0.043122
0.657755 0.512016 0.0461585
0.689754 0.513115 0.0519875
0.719692 0.514885 0.0565805
0.750195 0.517906 0.0609293
0.782162 0.519707 0.0674601
0.815122 0.520623 0.0758984
0.848463 0.520699 0.0851606
0.883436 0.521248 0.0965896
0.919509 0.521553 0.109133
0.953902 0.52018 0.124895
0.172412 0.538903 0.0219272
0.195789 0.53843 0.0228733
0.204776 0.538216 0.0229191
0.214862 0.537896 0.0230411
0.227085 0.537484 0.0227817
0.240848 0.537102 0.0223545
0.256229 0.537179 0.0220798
0.273671 0.537026 0.022034
0.293065 0.536873 0.0222629
0.312398 0.536324 0.0222934
0.332143 0.536583 0.0222477
0.352453 0.536995 0.0228122
0.374151 0.537346 0.0243839
0.395911 0.537331 0.0258335
0.419242 0.538415 0.0267338
0.444068 0.539117 0.0275578
0.469093 0.539208 0.0289769
0.495796 0.539956 0.0307774
0.52282 0.54078 0.0330205
0.550088 0.541146 0.035462
0.577829 0.543374 0.0372778
0.606195 0.544961 0.0390631
0.635874 0.546761 0.0410925
0.666667 0.547295 0.0458839
0.698466 0.547005 0.0515908
0.727001 0.550561 0.0535897
0.756985 0.552056 0.0592355
0.788998 0.553277 0.0670787
0.821149 0.553765 0.0732433
0.854353 0.554101 0.0827649
0.889265 0.553536 0.0932937
0.926925 0.553216 0.106661
0.958694 0.551308 0.122148
0.182879 0.580911 0.0252537
0.205463 0.579507 0.0252689
0.215366 0.578988 0.0249485
0.226535 0.578775 0.0242466
0.23975 0.578119 0.0234684
0.253651 0.577981 0.0226444
0.268971 0.577981 0.0226291
0.285466 0.577401 0.0227665
0.303746 0.577478 0.0231174
0.322072 0.5776 0.0241398
0.341329 0.577813 0.024918
0.361471 0.577523 0.0251774
0.383154 0.577981 0.0259098
0.405829 0.578332 0.0267643
0.428992 0.577935 0.0275425
0.453025 0.578073 0.0283818
0.478309 0.579034 0.0292821
0.50341 0.579492 0.0305791
0.530892 0.579263 0.0328679
0.55848 0.580179 0.0348669
0.586023 0.581598 0.0373236
0.614496 0.582589 0.0395666
0.643565 0.583642 0.042298
0.673259 0.584054 0.0455024
0.70367 0.585229 0.0489204
0.735363 0.585245 0.0527504
0.765393 0.586954 0.0581979
0.795697 0.587518 0.0638743
0.82678 0.588312 0.0708171
0.859724 0.587747 0.0804608
0.895232 0.586572 0.0896925
0.932937 0.58587 0.102785
0.966537 0.583459 0.117433
0.193118 0.622889 0.0266423
0.216815 0.621851 0.0261387
0.226215 0.621607 0.0259098
0.236393 0.621088 0.0256504
0.24889 0.620218 0.02533
0.262821 0.620081 0.0253147
0.277882 0.620005 0.0253147
0.294362 0.619791 0.0255283
0.311757 0.619562 0.026276
0.329503 0.618708 0.0272526
0.349905 0.618494 0.0281682
0.371832 0.618265 0.0284733
0.394034 0.618082 0.0282444
0.415839 0.617899 0.0275883
0.438636 0.618235 0.0272221
0.462028 0.619257 0.0284581
0.485893 0.619501 0.0296635
0.512291 0.619074 0.031754
0.539117 0.619028 0.0338598
0.564614 0.619821 0.0344854
0.592935 0.620645 0.0355383
0.622797 0.621393 0.0385901
0.651759 0.621592 0.041062
0.68101 0.622278 0.0434272
0.710201 0.622583 0.0472877
0.739879 0.623362 0.0519875
0.770291 0.623453 0.0569924
0.80116 0.623819 0.0610208
0.833036 0.623514 0.0670329
0.866804 0.622339 0.0759594
0.901396 0.620584 0.0870222
0.939529 0.620111 0.0995956
0.968902 0.616678 0.117052
0.201999 0.664485 0.0294499
0.224781 0.663279 0.0292973
0.234287 0.663218 0.0289158
0.245274 0.663081 0.0285191
0.257618 0.663005 0.027985
0.271489 0.662623 0.0274052
0.286091 0.661997 0.0269932
0.302022 0.661738 0.0267643
0.320012 0.66125 0.0263218
0.338521 0.661158 0.0263676
0.357946 0.661265 0.0264134
0.37789 0.66067 0.0263066
0.399741 0.660197 0.0274052
0.422293 0.659831 0.0280613
0.445335 0.659998 0.0286412
0.469703 0.6607 0.0294652
0.494789 0.660502 0.0311131
0.520043 0.659754 0.0329442
0.545693 0.659693 0.0331121
0.572915 0.659831 0.0330968
0.600168 0.65977 0.0347448
0.628901 0.660105 0.0370031
0.65774 0.660197 0.0394293
0.686564 0.6598 0.0422827
0.71577 0.660517 0.0450752
0.744732 0.660166 0.0485084
0.774899 0.660471 0.0529946
0.807233 0.659586 0.0593729
0.840253 0.659525 0.065156
0.873304 0.657984 0.0732891
0.908873 0.65716 0.0838941
0.947646 0.655085 0.0964981
0.969711 0.651804 0.114733
0.209949 0.706615 0.0325017
0.233341 0.705898 0.0310979
0.242298 0.70576 0.0307164
0.253605 0.70544 0.0301518
0.265446 0.705211 0.0298009
0.279286 0.70457 0.029633
0.293797 0.704234 0.0294652
0.310246 0.703487 0.0292363
0.326787 0.702892 0.0290684
0.344686 0.702953 0.0291752
0.363867 0.703059 0.0292058
0.384451 0.702785 0.0290837
0.405753 0.702037 0.0286259
0.428214 0.701503 0.0294347
0.451087 0.701122 0.0302586
0.474571 0.700526 0.0305028
0.499275 0.700008 0.0299077
0.525063 0.700008 0.0298619
0.551293 0.700252 0.0303197
0.577386 0.69958 0.0308385
0.604273 0.699702 0.0316472
0.632456 0.69955 0.0344091
0.661707 0.699107 0.0384527
0.691432 0.699107 0.0399329
0.720455 0.698787 0.0417182
0.750134 0.699138 0.0452583
0.780331 0.698466 0.0496986
0.812284 0.697963 0.0547646
0.845106 0.696284 0.0605173
0.878935 0.695903 0.0695354
0.914961 0.694057 0.0780957
0.956039 0.691691 0.0935683
0.973816 0.686595 0.113466
0.216938 0.747509 0.0361486
0.239887 0.747143 0.034699
0.248646 0.746975 0.034226
0.259022 0.746166 0.0333104
0.270344 0.745785 0.0326696
0.28394 0.745388 0.0317388
0.298161 0.745159 0.0313878
0.313771 0.745022 0.0311589
0.330892 0.744717 0.0308995
0.348623 0.743832 0.0303044
0.367758 0.743679 0.0302434
0.388144 0.743618 0.0302586
0.409094 0.743252 0.0305333
0.431037 0.742489 0.0309911
0.454063 0.741604 0.0311437
0.478553 0.74168 0.0306554
0.504097 0.741512 0.0305333
0.528511 0.74078 0.03122
0.554788 0.740459 0.0325628
0.581476 0.740307 0.031693
0.608545 0.739818 0.0314794
0.637308 0.739666 0.0347448
0.666575 0.738994 0.0368811
0.695247 0.739315 0.0374609
0.724758 0.739315 0.0401465
0.75462 0.738552 0.0431678
0.786099 0.738125 0.0479133
0.817182 0.736507 0.0508125
0.850065 0.735363 0.0563363
0.883589 0.733761 0.0653391
0.921477 0.731441 0.0781262
0.95816 0.727718 0.0921492
0.974227 0.722957 0.115068
0.219486 0.78764 0.0417945
0.24184 0.787564 0.039704
0.251087 0.787427 0.0387427
0.261692 0.787182 0.037705
0.273136 0.787015 0.0370336
0.286381 0.786252 0.0361334
0.300328 0.785779 0.0352483
0.315892 0.785473 0.0346075
0.333135 0.785214 0.0339971
0.350851 0.785122 0.0337835
0.36936 0.784817 0.0332341
0.389792 0.784085 0.0328527
0.412207 0.783597 0.0327916
0.43505 0.783093 0.0327001
0.457725 0.78265 0.0322576
0.481773 0.782635 0.0320287
0.506096 0.782452 0.0329747
0.531121 0.782376 0.0338445
0.556573 0.782101 0.0331426
0.582956 0.782696 0.032517
0.61146 0.782177 0.0332189
0.641306 0.780819 0.0333867
0.669215 0.780835 0.0346227
0.697307 0.780453 0.0357061
0.728267 0.779919 0.0380407
0.758648 0.7794 0.0410315
0.789364 0.778378 0.0437324
0.821515 0.77644 0.0486763
0.854337 0.774838 0.0559701
0.889509 0.772732 0.0667735
0.927337 0.770153 0.0789807
0.967132 0.766796 0.0972457
0.973419 0.760739 0.119188
0.219379 0.828672 0.0449531
0.241062 0.828717 0.0427253
0.25034 0.828458 0.0423438
0.260945 0.828275 0.0418097
0.272389 0.828183 0.041413
0.28629 0.827955 0.04065
0.300084 0.827161 0.0399023
0.315282 0.826825 0.0394293
0.332601 0.826276 0.0387121
0.350469 0.82594 0.0381933
0.37023 0.825849 0.0371252
0.391226 0.825254 0.0358434
0.41268 0.825544 0.0348821
0.434806 0.825193 0.0355535
0.458305 0.824765 0.0364538
0.481041 0.82446 0.0352941
0.504829 0.824964 0.0335546
0.53051 0.825101 0.0327611
0.557977 0.824292 0.0326085
0.585718 0.823789 0.0318303
0.613687 0.823804 0.030518
0.641581 0.822705 0.0313268
0.671519 0.821424 0.0333867
0.700465 0.821378 0.0350195
0.729839 0.820813 0.0365454
0.761303 0.819806 0.0395209
0.792462 0.817975 0.0452125
0.824842 0.816709 0.0521859
0.858198 0.814359 0.0595712
0.893172 0.812055 0.0704967
0.931533 0.809018 0.0853132
0.965209 0.805753 0.101625
0.97351 0.798184 0.119829
0.215167 0.869917 0.051606
0.237873 0.869963 0.0493477
0.247623 0.869917 0.0483406
0.257832 0.870115 0.0475319
0.270039 0.869749 0.046891
0.28333 0.86923 0.0463569
