app/src/main/assets/luts/Fuji-PROVIA.cube
TITLE "Generated by Resolve"
LUT_3D_SIZE 9
0 0 0
0.0730449 0.00466926 0.00325017
0.15024 0.0100557 0.00770581
0.266835 0.023209 0.012314
0.407736 0.031281 0.0232395
0.58233 0.0406348 0.0347143
0.745281 0.0539254 0.05243
0.899825 0.0739605 0.0894331
0.999512 0.095491 0.180285
0.00628672 0.0797894 0.000259403
0.0846418 0.0854505 0.000350958
0.176593 0.0906081 0.000396735
0.300206 0.0962081 0.000106813
0.434623 0.106722 0.000747692
0.581613 0.118517 0.00376898
0.737697 0.134188 0.019028
0.896498 0.156085 0.0527657
0.999664 0.179843 0.138247
0.0101778 0.183764 0.000381476
0.090898 0.184451 0
0.184588 0.186328 0.000274662
0.303853 0.191836 0.000198367
0.439872 0.199237 0.000167849
0.58703 0.209613 0.00030518
0.737881 0.227588 0.000366217
0.89691 0.245853 0.0176394
0.999298 0.266285 0.100511
0.0152438 0.322026 0.000320439
0.0936751 0.319234 3.0518e-05
0.191806 0.319768 0.000442512
0.313497 0.321569 3.0518e-05
0.448981 0.324163 3.0518e-05
0.594003 0.332067 6.10361e-05
0.747753 0.34316 1.5259e-05
0.901686 0.355337 0.000488289
0.999634 0.369375 0.06392
0.0165408 0.482307 0.00015259
0.0902113 0.479606 0.000534066
0.193591 0.476081 0.000381476
0.320592 0.473381 0.000289921
0.458152 0.472724 7.62951e-05
0.606699 0.474464 0.00015259
0.756619 0.479393 0
0.905013 0.485924 0.000289921
0.999237 0.491493 0.0393988
0.0053254 0.656245 0.000488289
0.0632486 0.651331 0.000640879
0.170382 0.647761 0.000793469
0.307134 0.642084 0.000106813
0.451209 0.636927 0.000183108
0.602564 0.632013 9.15541e-05
0.755047 0.627771 0
0.905089 0.625299 0.000259403
0.999329 0.622324 0.0309148
1.5259e-05 0.828428 0.00030518
0.00772107 0.825895 0.000167849
0.0755322 0.820737 0.000564584
0.232502 0.811963 0.000671397
0.400504 0.803159 0.000244144
0.570809 0.796872 0.000457771
0.740017 0.788205 0
0.903914 0.779522 0.000259403
0.999146 0.766323 0.0231937
0 0.993805 0.000335698
0 0.995499 0.000244144
7.62951e-05 0.998978 0.000320439
0.0214542 0.994583 0.000854505
0.182773 0.982803 0.000335698
0.433951 0.976654 9.15541e-05
0.663691 0.961471 0.000289921
0.869856 0.939055 0.000244144
0.999039 0.906096 0.00218204
0 0.999908 0.00575265
0 0.999893 0.00669871
0 0.999893 0.00500496
4.57771e-05 0.999969 0.00521859
0 0.999954 0.00788891
0 0.999954 0.0101167
0.0112001 0.999786 0.0204776
0.334203 0.99968 0.0252842
0.892989 0.999603 0.0411994
0.000534066 0.00370794 0.0589914
0.0863813 0.00820935 0.068101
0.179614 0.0177462 0.0789502
0.3084 0.0252079 0.0903792
0.456214 0.032929 0.101091
0.624308 0.0400854 0.115373
0.773007 0.0560311 0.135546
0.921569 0.0730602 0.179629
0.999451 0.0937057 0.260288
0.00500496 0.0931258 0.0980697
0.0952621 0.0967117 0.094728
0.20029 0.100114 0.0925154
0.327779 0.103914 0.0910658
0.466224 0.110628 0.0945602
0.613413 0.120073 0.0995193
0.764172 0.137423 0.118074
0.914473 0.156954 0.157549
0.999573 0.174365 0.229267
0.00595102 0.203647 0.101884
0.0955367 0.201389 0.0942397
0.198428 0.200687 0.0850843
0.328298 0.203418 0.0815442
0.463874 0.20885 0.0805066
0.61149 0.217182 0.0851301
0.7626 0.230823 0.0990005
0.913664 0.247272 0.130327
0.999969 0.263096 0.202426
0.00759899 0.338384 0.0995041
0.0967575 0.334737 0.0861677
0.201953 0.332128 0.0762798
0.329732 0.331579 0.069337
0.469413 0.332387 0.0627451
0.613519 0.337865 0.0638895
0.765835 0.34609 0.0769818
0.912917 0.355871 0.107088
0.999344 0.366354 0.177554
0.0129854 0.492592 0.0889906
0.0922255 0.487694 0.0771954
0.19823 0.483406 0.0681621
0.330297 0.479362 0.0563516
0.469184 0.476112 0.0478218
0.62002 0.476188 0.0445869
0.766644 0.478599 0.0543832
0.909972 0.482216 0.0840772
0.999405 0.484962 0.153338
0.00430304 0.656489 0.0769207
0.0604715 0.653101 0.0661936
0.169482 0.647684 0.0527657
0.309621 0.641291 0.0395972
0.45861 0.633799 0.0334783
0.609903 0.628046 0.0305486
0.763226 0.623331 0.0343786
0.910765 0.619928 0.0610208
0.999588 0.61561 0.132464
9.15541e-05 0.823011 0.0586099
0.00961318 0.818967 0.0506447
0.0761883 0.813901 0.0385748
0.232685 0.805295 0.0291905
0.402197 0.797177 0.0201114
0.575097 0.789776 0.0124971
0.744793 0.780926 0.0129244
0.908171 0.77174 0.0319066
0.99884 0.759808 0.114549
0.000106813 0.99202 0.0290684
0 0.993347 0.023682
9.15541e-05 0.992981 0.0201114
0.0213474 0.985046 0.016434
0.187442 0.976791 0.00682078
0.438056 0.966278 0.000610361
0.666224 0.955016 3.0518e-05
0.87158 0.938186 0.00547799
0.999039 0.897856 0.0784619
0 0.999741 0.0698253
1.5259e-05 0.999893 0.0725719
0.000122072 0.999588 0.0730602
0 0.999741 0.0677958
0 0.999619 0.06804
3.0518e-05 0.999496 0.0704356
0.0119326 0.99971 0.0775616
0.338994 0.999817 0.0754253
0.899565 0.999573 0.0801862
0.00447089 0.00819409 0.112947
0.0979782 0.013901 0.133211
0.203937 0.0222782 0.152712
0.338354 0.0295415 0.175586
0.497765 0.0345769 0.2
0.656123 0.043473 0.223423
0.800397 0.0584573 0.253285
0.941527 0.0764324 0.296605
0.999619 0.0949874 0.370245
0.00621042 0.107347 0.201038
0.103532 0.108782 0.201907
0.218204 0.110338 0.202701
0.350256 0.113848 0.202121
0.493034 0.119387 0.207446
0.637568 0.131075 0.217884
0.786282 0.144564 0.236789
0.932464 0.161791 0.273091
0.999329 0.179339 0.337972
0.00714122 0.223255 0.234775
0.0972763 0.217548 0.222187
0.213748 0.216251 0.214328
0.345693 0.216526 0.206485
0.48632 0.218982 0.203387
0.631296 0.226856 0.209461
0.782666 0.238193 0.222293
0.929015 0.251225 0.251362
0.999283 0.264134 0.309926
0.00852979 0.355993 0.239963
0.0959793 0.350195 0.227192
0.209735 0.345586 0.215183
0.342657 0.342824 0.205127
0.484108 0.343114 0.197742
0.631861 0.344778 0.195392
0.781765 0.350134 0.203159
0.923491 0.35877 0.228168
0.999649 0.366064 0.282338
0.0103609 0.505043 0.236881
0.0867475 0.498619 0.223606
0.199863 0.493538 0.210575
0.334829 0.487526 0.196277
0.480156 0.483207 0.18233
0.630091 0.4804 0.179675
0.776135 0.480308 0.182818
0.917678 0.482155 0.201694
0.999344 0.484276 0.255222
0.00447089 0.660105 0.228305
0.0529641 0.655451 0.213596
0.167758 0.649668 0.198169
0.311757 0.640986 0.182727
0.462379 0.633021 0.170184
0.616281 0.626947 0.160601
0.768704 0.620218 0.162188
0.916945 0.615641 0.176699
0.999786 0.611322 0.232227
0.000167849 0.819104 0.206912
0.0120394 0.8159 0.196948
0.0756847 0.809842 0.182589
0.231662 0.801892 0.165957
0.405753 0.792096 0.149371
0.578973 0.784405 0.136324
0.748074 0.775311 0.12845
0.912306 0.765255 0.142748
0.999741 0.753628 0.207446
0.000137331 0.986526 0.171832
0.000289921 0.985733 0.16437
0 0.983459 0.156939
0.0222019 0.977874 0.143603
0.191897 0.969192 0.124483
0.441108 0.9579 0.10692
0.668498 0.947433 0.0975967
0.874311 0.930175 0.105959
0.999298 0.888991 0.164675
0 0.999405 0.142794
3.0518e-05 0.999466 0.143023
0.000122072 0.99968 0.145769
0 0.999374 0.146212
4.57771e-05 0.999435 0.144686
0 0.999527 0.140917
0.0117342 0.999725 0.142031
0.342824 0.999771 0.128679
0.909972 0.999741 0.128634
0.0123293 0.0157321 0.188632
0.116701 0.0209964 0.22443
0.231342 0.0281834 0.257679
0.373999 0.0342412 0.295247
0.542046 0.0397192 0.332662
0.689311 0.0512093 0.355673
0.828 0.0669413 0.384146
0.961639 0.0836805 0.425055
0.999786 0.103471 0.488411
0.00715648 0.127306 0.333532
0.111406 0.126009 0.342
0.237232 0.127169 0.340505
0.377401 0.127993 0.342138
0.523445 0.133013 0.345708
0.669413 0.143313 0.355489
0.811994 0.156359 0.372122
0.951858 0.170626 0.404074
0.999466 0.183978 0.458701
0.000564584 0.247868 0.385672
0.101411 0.239902 0.372152
0.227024 0.235721 0.360861
0.366018 0.235111 0.353246
0.511788 0.236759 0.348318
0.658412 0.241352 0.350683
0.804166 0.248539 0.359838
0.94493 0.258564 0.383001
0.999115 0.269642 0.432502
0.00630198 0.379294 0.399863
0.0950637 0.37203 0.385412
0.216846 0.365652 0.369665
0.355871 0.360418 0.356649
0.503227 0.357427 0.346426
0.652277 0.355962 0.341146
0.79675 0.359152 0.341665
0.93315 0.363882 0.360433
0.999649 0.369726 0.403876
0.00154116 0.522744 0.398428
0.0818952 0.513649 0.383658
0.202365 0.507103 0.368612
0.343908 0.50071 0.351568
0.491768 0.492287 0.334737
0.641688 0.487709 0.326757
0.785473 0.485496 0.323323
0.925231 0.482795 0.336522
0.999496 0.483497 0.379126
0.00300603 0.666697 0.388739
0.0472419 0.661463 0.374044
0.164202 0.654169 0.356939
0.312337 0.64419 0.3393
0.466361 0.635859 0.322057
0.623194 0.627405 0.308736
0.774884 0.620829 0.301564
0.922591 0.615396 0.307912
0.999802 0.607111 0.350225
0.000289921 0.81796 0.369177
0.0120394 0.813565 0.357977
0.0730297 0.807996 0.342092
0.228794 0.797879 0.324758
0.405325 0.789395 0.302373
0.582773 0.779583 0.283818
0.753063 0.77026 0.27039
0.916289 0.760204 0.277882
0.999741 0.746014 0.324575
6.10361e-05 0.976593 0.336553
0.000106813 0.975509 0.327504
0.000366217 0.973785 0.31693
0.0202792 0.96994 0.30222
0.1888 0.959899 0.279667
0.444633 0.948486 0.255741
0.669978 0.936873 0.236011
0.875685 0.919158 0.233814
0.999161 0.878355 0.268162
1.5259e-05 0.999771 0.2392
0 0.999619 0.237461
1.5259e-05 0.999664 0.235355
9.15541e-05 0.99968 0.232609
9.15541e-05 0.999619 0.2383
1.5259e-05 0.999588 0.232654
0.0104677 0.999619 0.223575
0.348653 0.999649 0.201297
0.923766 0.999496 0.192905
0.0267033 0.0253758 0.295949
0.139055 0.0319371 0.34583
0.264912 0.0387427 0.387671
0.417868 0.0449226 0.438773
0.58378 0.050721 0.480369
0.723537 0.0641642 0.501915
0.856901 0.0792859 0.529061
0.980362 0.0979629 0.564584
0.999847 0.114656 0.617685
0.00407416 0.154284 0.491447
0.123354 0.153048 0.504128
0.26041 0.150881 0.501427
0.40708 0.150164 0.497536
0.554482 0.154696 0.500313
0.699672 0.161456 0.508904
0.83827 0.173556 0.520775
0.972808 0.184726 0.547173
0.999802 0.196857 0.590524
0.00453193 0.279194 0.554208
0.105821 0.269612 0.538796
0.241901 0.262898 0.52726
0.386465 0.260639 0.515541
0.538293 0.258442 0.508812
0.685054 0.259892 0.507485
0.826886 0.265034 0.511803
0.957763 0.271855 0.527398
0.999985 0.279698 0.563668
0.000335698 0.406714 0.570993
0.0895399 0.397543 0.554772
0.222599 0.389349 0.540322
0.369467 0.382345 0.523644
0.520729 0.375433 0.51107
0.672343 0.372992 0.500511
0.811765 0.372473 0.49807
0.943374 0.374029 0.506584
0.999481 0.375891 0.540337
0.00563058 0.540398 0.571221
0.0708019 0.533059 0.554467
0.197787 0.523812 0.540352
0.347372 0.514443 0.520745
0.503182 0.504631 0.503624
0.652415 0.497993 0.488258
0.79649 0.49369 0.477852
0.934462 0.490471 0.479744
0.999649 0.486458 0.511162
0.00218204 0.676921 0.558755
0.0392767 0.670649 0.544884
0.154192 0.662104 0.526314
0.309102 0.65098 0.50811
0.470146 0.640909 0.487419
0.629938 0.632578 0.469169
0.783093 0.622766 0.457603
0.929931 0.61619 0.454871
0.99968 0.607172 0.482246
7.62951e-05 0.818189 0.538338
0.00679026 0.814099 0.526589
0.0636912 0.807721 0.511284
0.221744 0.797269 0.490517
0.405447 0.787732 0.467964
0.585595 0.777646 0.444205
0.757671 0.767559 0.428885
0.923095 0.756436 0.423651
0.9991 0.73904 0.450645
0.000122072 0.966674 0.499962
0.000411994 0.965682 0.490929
0.000564584 0.964828 0.481559
0.00962844 0.960204 0.466239
0.181949 0.950011 0.441413
0.439704 0.93843 0.413184
0.672541 0.925475 0.387854
0.877852 0.908705 0.373373
0.999435 0.865354 0.384985
1.5259e-05 0.999527 0.353826
0 0.999619 0.348653
4.57771e-05 0.999924 0.342672
0.000244144 0.999786 0.336721
0 0.999954 0.330678
0.000427253 0.999817 0.336233
0.00665293 0.999649 0.321965
0.356008 0.999725 0.289555
0.942016 0.999695 0.269001
0.0435645 0.0400092 0.438331
0.169162 0.0493629 0.498466
0.305913 0.0565499 0.555123
0.470603 0.06215 0.621607
0.624872 0.0720378 0.65185
0.760494 0.0851759 0.671824
0.884535 0.102983 0.69044
0.991852 0.118959 0.715496
0.999954 0.13344 0.75613
0.00291447 0.1953 0.688975
0.135195 0.187701 0.688777
0.284672 0.184237 0.682506
0.438239 0.182727 0.676173
0.59057 0.185031 0.676066
0.732357 0.189364 0.679835
0.866331 0.196048 0.687556
0.988785 0.204944 0.699992
0.999908 0.215442 0.730114
0.00216678 0.317357 0.735637
0.104067 0.307744 0.719493
0.252506 0.298177 0.706981
0.410086 0.291722 0.694499
0.563516 0.287388 0.684855
0.709712 0.285328 0.677592
0.845289 0.286168 0.677256
0.969467 0.290028 0.680537
0.99942 0.295232 0.704738
0.00205997 0.439948 0.747204
0.0779736 0.429358 0.731823
0.222217 0.419867 0.714504
0.379614 0.408942 0.699794
0.538796 0.401175 0.685649
0.687907 0.394003 0.669978
0.824292 0.390494 0.659663
0.955749 0.38764 0.660853
0.999725 0.388281 0.681239
0.00114443 0.564324 0.743145
0.049073 0.555322 0.727596
0.189044 0.544884 0.71191
0.347585 0.534752 0.693065
0.508537 0.523323 0.673884
0.663035 0.514504 0.654551
0.806836 0.507271 0.640711
0.945632 0.500267 0.637263
0.999588 0.493675 0.652369
0.00030518 0.692058 0.73077
0.013077 0.68394 0.716747
0.138491 0.674846 0.700755
0.303777 0.66305 0.680171
0.472541 0.651392 0.656321
0.637354 0.640269 0.637873
0.791913 0.631556 0.619654
0.938704 0.620493 0.609323
0.999619 0.610285 0.625345
0.000564584 0.821973 0.709697
0.000228885 0.818189 0.698528
0.0408179 0.811795 0.683619
0.205234 0.800839 0.661967
0.40061 0.788861 0.638972
0.587564 0.779706 0.613092
0.764019 0.767849 0.592325
0.928374 0.756741 0.58027
0.999405 0.732082 0.583734
0.000183108 0.955673 0.661051
0.000228885 0.954681 0.653208
0.000396735 0.952407 0.642924
0.000717174 0.94876 0.630747
0.163638 0.938933 0.604273
0.430411 0.926513 0.573068
0.670771 0.912734 0.544427
0.877821 0.895842 0.518837
0.999771 0.851316 0.510857
0.000137331 0.999924 0.485069
9.15541e-05 0.999863 0.47744
7.62951e-05 0.999634 0.468971
0.000137331 0.99939 0.457267
0.000396735 0.999893 0.444892
4.57771e-05 0.999527 0.435462
0.002121 0.999863 0.4336
0.364569 0.999481 0.394293
0.960739 0.999634 0.34815
0.0616922 0.0693523 0.637385
0.20264 0.0779736 0.709621
0.352468 0.0884871 0.777539
0.521111 0.100893 0.836316
0.664988 0.11043 0.84596
0.796414 0.124849 0.855131
0.912077 0.137774 0.8663
0.998306 0.152773 0.876997
0.999786 0.168276 0.899321
0.000137331 0.251209 0.895476
0.13753 0.240055 0.888914
0.30013 0.234821 0.878645
0.465415 0.229236 0.871992
0.620325 0.227039 0.86566
0.761852 0.227695 0.860548
0.885512 0.231571 0.859495
0.998352 0.239048 0.862013
0.999939 0.245075 0.880491
0.000350958 0.365011 0.918593
0.0869306 0.354086 0.90605
0.250538 0.344884 0.896071
0.421363 0.334279 0.882445
0.584405 0.324865 0.870573
0.731594 0.320439 0.85948
0.862562 0.317983 0.850172
0.981338 0.319081 0.846998
0.999786 0.319646 0.860212
0.000579843 0.4822 0.925704
0.054612 0.471839 0.912627
0.204974 0.460029 0.899748
0.379507 0.446738 0.883787
0.547341 0.435325 0.866331
0.699763 0.426444 0.848386
0.838743 0.420584 0.835233
0.967132 0.413565 0.827817
0.999817 0.408774 0.837873
0.000350958 0.596704 0.920012
0.029633 0.588556 0.907744
0.159976 0.577478 0.892653
0.337972 0.563622 0.872831
0.510765 0.55021 0.851438
0.671763 0.539406 0.834211
0.818509 0.528695 0.817838
0.954498 0.518013 0.806409
0.999786 0.508293 0.812375
0.000381476 0.711788 0.903517
0.00810254 0.705623 0.894911
0.100771 0.695613 0.87718
0.281971 0.682506 0.857069
0.465003 0.669917 0.836545
0.639719 0.656229 0.815106
0.797971 0.644419 0.79646
0.947219 0.632227 0.780636
0.999329 0.617761 0.776516
0.000183108 0.831556 0.879866
0.00030518 0.827939 0.873732
0.0154726 0.82237 0.861631
0.1682 0.811154 0.840482
0.384863 0.799176 0.8177
0.58761 0.785611 0.793362
0.767956 0.771893 0.76939
0.931777 0.756329 0.747356
0.999603 0.725307 0.723171
0.000793469 0.936095 0.822003
0.000396735 0.936431 0.813962
0.000213626 0.935546 0.805875
0.000640879 0.934249 0.794537
0.137758 0.926513 0.770062
0.408255 0.913588 0.739925
0.659937 0.898939 0.707942
0.875532 0.882231 0.678218
0.999573 0.836408 0.650828
0.000183108 0.999695 0.641047
0.000106813 0.999832 0.633188
0.000228885 0.99971 0.620981
0.000122072 0.999649 0.606165
0.000167849 0.999496 0.587228
3.0518e-05 0.999924 0.56672
0.000656138 0.999878 0.549279
0.375341 0.999527 0.523461
0.975784 0.99971 0.447623
0.0620432 0.133486 0.914504
0.226123 0.149279 0.977676
0.387076 0.167834 0.999969
0.55201 0.17673 0.999893
0.696193 0.183963 0.999573
0.824247 0.193439 0.999786
0.933501 0.207126 0.999588
0.999725 0.217578 0.998657
0.999908 0.232547 0.999374
0.000961318 0.331838 0.999939
0.0968032 0.320256 0.999969
0.287633 0.311223 0.999786
0.472328 0.302647 0.999527
0.638224 0.296513 0.999756
0.77882 0.294942 0.999496
0.902388 0.297169 0.999542
0.999298 0.296574 0.999741
0.999878 0.29897 0.999512
0.000640879 0.440253 0.999832
0.0361791 0.429725 0.999649
0.210239 0.416449 0.999542
0.408484 0.403098 0.999817
0.588693 0.392203 1
0.742779 0.383581 0.999725
0.875731 0.377478 0.999817
0.990662 0.372259 0.999268
0.999374 0.367864 0.999466
0.000259403 0.546319 0.999741
0.00437934 0.53698 0.999878
0.139467 0.523705 0.999664
0.348135 0.508751 0.99968
0.540169 0.494011 0.999863
0.706371 0.481651 0.999588
0.847166 0.471305 0.999146
0.975738 0.46157 0.999695
0.999847 0.447471 0.998779
0.000518807 0.648508 0.999878
0.000991836 0.640787 0.999435
0.0736706 0.629908 0.999634
0.291997 0.614801 0.999481
0.490761 0.59884 0.999832
0.671748 0.583444 0.999924
0.824186 0.570718 0.998917
0.964218 0.556466 0.987488
0.999649 0.529595 0.980865
0.000640879 0.740627 0.999695
0.000396735 0.736522 0.999969
0.0333867 0.72874 0.999969
0.209873 0.715251 0.999756
0.428916 0.701076 0.999741
0.62443 0.685954 0.994034
0.79559 0.66981 0.985779
0.946441 0.64921 0.967269
0.99968 0.620356 0.93959
0.000167849 0.825986 0.999786
0.000350958 0.823301 0.999863
0.00375372 0.820554 0.999863
0.0791485 0.812284 0.998322
0.31252 0.797925 0.993805
0.543343 0.783047 0.975143
0.741543 0.768475 0.950652
0.918196 0.748806 0.922896
0.999542 0.714595 0.887602
0.000595102 0.911345 0.987579
0.000350958 0.910887 0.983734
0.000579843 0.909987 0.97908
0.000366217 0.90988 0.970764
0.0551308 0.908446 0.952636
0.338399 0.895964 0.925536
0.619242 0.88101 0.893751
0.858885 0.862028 0.859861
0.999939 0.819806 0.81323
0.000259403 0.999863 0.838468
3.0518e-05 0.999969 0.830289
0.000167849 0.999985 0.817746
0.000228885 0.999588 0.801266
0.000503548 0.999725 0.77879
0.000289921 0.999802 0.751705
0.000396735 0.999496 0.719799
0.331319 0.999741 0.677836
0.9823 0.999512 0.589502
0.0641794 0.336782 0.999939
0.0762341 0.364309 0.999863
0.274754 0.361059 0.999725
0.489021 0.360815 0.999664
0.661036 0.365118 0.999435
0.802594 0.366003 0.999512
0.915724 0.365408 0.999588
0.999069 0.361761 0.999374
0.999786 0.346563 0.999252
0.000518807 0.46743 0.999939
0.000289921 0.465965 0.999924
0.0244907 0.464805 0.999985
0.30837 0.456168 0.999512
0.541054 0.451545 0.999451
0.714916 0.447684 0.999664
0.857893 0.438941 0.999863
0.980133 0.422812 0.999802
0.999969 0.399191 0.999664
0.000411994 0.535164 0.999847
0.000564584 0.533608 0.999954
0.000289921 0.532387 0.999908
0.14815 0.523568 0.999191
0.430976 0.513985 0.999756
0.639948 0.5093 0.999725
0.803937 0.499931 0.999664
0.948013 0.481453 0.999542
0.999847 0.448005 0.999512
0.000167849 0.598276 1
0.000732433 0.595758 0.999924
0.00062562 0.593759 0.999619
0.0187839 0.590921 0.999863
0.311666 0.576181 0.999786
0.557931 0.56846 0.999451
0.74725 0.561273 0.999741
0.904677 0.543603 0.999603
0.999619 0.505867 0.999588
0.000366217 0.654582 0.999954
0.000656138 0.653391 0.999985
0.000701915 0.652308 0.999908
0.00328069 0.649927 0.999588
0.174395 0.638346 0.999741
0.46363 0.626566 0.999908
0.684215 0.618891 0.999832
0.86128 0.605051 0.999802
0.999725 0.564248 0.999786
6.10361e-05 0.710399 0.999985
0.000762951 0.709087 0.999908
0.000244144 0.709102 0.99968
0.000442512 0.705959 0.999847
0.0382086 0.699763 0.999588
0.339315 0.685313 0.999664
0.610788 0.674556 0.999893
0.818311 0.665141 0.999237
0.997269 0.628977 0.999069
0.000366217 0.771771 0.999969
0.000442512 0.770794 0.999939
0.000350958 0.770214 0.999603
4.57771e-05 0.767071 0.999649
7.62951e-05 0.763653 0.999695
0.165728 0.751568 0.999878
0.512016 0.736446 0.999695
0.771618 0.72723 0.999542
0.996521 0.696406 0.999939
0.000549325 0.855726 0.999985
0.000717174 0.854032 1
0.000411994 0.852155 0.999878
0.00015259 0.849317 0.999573
0.000457771 0.846052 1
7.62951e-05 0.842008 0.999695
0.300969 0.822873 0.99968
0.682902 0.804715 0.99971
0.997467 0.779263 0.999481
0.000259403 0.968353 0.999786
0.000106813 0.969573 0.999634
4.57771e-05 0.971099 0.999985
0.000137331 0.973449 0.999954
0.000244144 0.976623 0.999985
0.00112917 0.982376 0.999969
0.00233463 0.988235 0.999939
0.00277714 0.989334 0.999893
0.99353 0.996414 0.995407
