app/src/main/assets/luts/Fuji-ProNegStd.cube
TITLE "Generated by Resolve"
LUT_3D_SIZE 5
0 0 0
0.107332 0.021149 0.021149
0.297856 0.0538949 0.0617533
0.607263 0.0829175 0.112993
0.904646 0.115923 0.223087
0.0627604 0.172763 0.0194705
0.18471 0.185306 0.0225528
0.374807 0.206332 0.0366979
0.62916 0.241703 0.0733349
0.919249 0.275532 0.173114
0.146517 0.45861 0.0176699
0.270954 0.458671 0.0177768
0.450965 0.462989 0.0268711
0.681102 0.479057 0.0524605
0.953277 0.490654 0.127108
0.219486 0.78764 0.0417945
0.333135 0.785214 0.0339971
0.506096 0.782452 0.0329747
0.728267 0.779919 0.0380407
0.973419 0.760739 0.119188
0.120317 0.99971 0.17351
0.185534 0.999908 0.172122
0.307561 0.999786 0.175967
0.492317 0.999741 0.198535
0.903822 0.999771 0.232609
0.00889601 0.0176242 0.0878462
0.15462 0.0429541 0.142626
0.388449 0.0672618 0.210742
0.67219 0.0946822 0.279408
0.934066 0.11783 0.383963
0.0619516 0.219303 0.217288
0.220539 0.221622 0.220401
0.428962 0.234379 0.233127
0.67744 0.258396 0.27013
0.945174 0.275547 0.351202
0.144015 0.483467 0.252476
0.28423 0.47776 0.247547
0.477424 0.477378 0.243839
0.710536 0.483742 0.258457
0.970489 0.48275 0.311742
0.20676 0.781689 0.264118
0.328267 0.779553 0.253422
0.511376 0.775418 0.238987
0.740795 0.768795 0.23006
0.979126 0.747158 0.27747
0.0831311 0.999542 0.269322
0.170947 0.999725 0.273503
0.304128 0.999573 0.276967
0.493935 0.999512 0.281071
0.915984 0.999603 0.295766
0.0331121 0.0442054 0.221515
0.21384 0.0719158 0.328328
0.487617 0.093843 0.450309
0.737362 0.123812 0.516899
0.960784 0.139452 0.604288
0.0537575 0.282841 0.479881
0.251392 0.276341 0.478645
0.482918 0.280308 0.488579
0.731563 0.291371 0.515099
0.969009 0.292149 0.573037
0.125322 0.523293 0.520317
0.290242 0.514946 0.512108
0.505531 0.506813 0.505272
0.742214 0.502617 0.504356
0.984955 0.485634 0.535042
0.169467 0.784482 0.518151
0.311574 0.779965 0.507362
0.512734 0.774838 0.489525
0.755688 0.763455 0.472786
0.987015 0.733959 0.487144
0.0106661 0.999756 0.411063
0.101183 0.999817 0.405432
0.273762 0.999969 0.404685
0.495247 0.999466 0.407233
0.943496 0.999374 0.396399
0.0679789 0.106111 0.511284
0.299123 0.138827 0.681865
0.57554 0.167605 0.774105
0.809644 0.19205 0.818021
0.981552 0.195224 0.865156
0.0492409 0.378424 0.792859
0.256046 0.368734 0.794751
0.533013 0.35938 0.805631
0.785718 0.352743 0.818845
0.991989 0.336187 0.843854
0.0478523 0.582757 0.804181
0.252888 0.573434 0.804715
0.513161 0.558862 0.804578
0.774502 0.541421 0.803769
0.998871 0.510994 0.813306
0.0579995 0.800092 0.789822
0.239658 0.79704 0.788663
0.492287 0.788144 0.784207
0.76875 0.770947 0.769299
0.995666 0.720546 0.737499
0.00483711 0.99968 0.620295
0.00700389 0.999908 0.60473
0.154864 0.999649 0.587259
0.462623 0.999802 0.571954
0.972869 0.999573 0.532372
0.0589303 0.382437 0.999786
0.135409 0.422782 0.999924
0.551827 0.436118 0.999542
0.835035 0.433204 0.999542
0.999741 0.394736 0.999603
0.0535286 0.553674 0.999954
0.052369 0.551705 0.999619
0.348013 0.55172 0.999863
0.73225 0.544198 0.999329
0.998825 0.486397 0.999664
0.0462196 0.65594 1
0.0458991 0.653544 0.999863
0.161166 0.648157 0.999771
0.629404 0.645335 0.999893
0.983551 0.594324 0.999222
0.0386511 0.758526 0.999832
0.0390784 0.756207 0.999954
0.0407874 0.750195 0.999817
0.505394 0.745998 0.999435
0.973266 0.715175 0.999573
0.0168002 0.976928 0.934478
0.0168612 0.979675 0.934661
0.0157626 0.988052 0.930465
0.0145113 0.998383 0.92459
0.992401 0.995346 0.994095
