app/src/main/assets/luts/Fuji-REALA.cube
TITLE "Generated by Resolve"
LUT_3D_SIZE 5
0 0 0
0.102235 4.57771e-05 9.15541e-05
0.412375 0.00199893 0.00015259
0.689662 0.0069276 0.00708019
0.906722 0.18674 0.176669
0.01944 0.201923 0.000137331
0.214008 0.204227 7.62951e-05
0.442405 0.195346 3.0518e-05
0.696864 0.204929 0
0.932067 0.301259 0.141466
0.157198 0.456336 0.085893
0.247959 0.449958 0.0383154
0.45243 0.446998 0.000122072
0.71519 0.453269 0.000183108
0.967208 0.513771 0.0957504
0.490318 0.809949 0.40618
0.515404 0.805692 0.384176
0.605005 0.80914 0.319097
0.786847 0.814847 0.0565194
0.986374 0.798245 0.0184024
0.662364 0.929641 0.603296
0.6654 0.930037 0.60174
0.682689 0.93225 0.601251
0.738735 0.941909 0.60148
0.969772 0.983322 0.514305
0.000518807 0.00169375 0.0981613
0.208011 0.00798047 0.170703
0.475212 0.0016022 0.188495
0.726543 0.00425727 0.204425
0.910674 0.190158 0.34995
0.000640879 0.204013 0.2121
0.224659 0.226535 0.224491
0.468971 0.210834 0.198825
0.722881 0.206989 0.195193
0.934874 0.30341 0.321218
0.0902571 0.476829 0.221653
0.231586 0.46949 0.194949
0.474357 0.467063 0.178531
0.752468 0.469825 0.180987
0.979568 0.519753 0.287907
0.477943 0.808515 0.456657
0.501366 0.802777 0.427497
0.596689 0.804791 0.356176
0.798413 0.806729 0.167452
0.994781 0.790417 0.232151
0.660716 0.930098 0.627756
0.66212 0.930343 0.627222
0.680247 0.933196 0.626886
0.736263 0.942 0.624125
0.976532 0.985199 0.527459
0.00077821 0.00723278 0.321752
0.235676 0.0215457 0.40238
0.526818 0.0246738 0.458701
0.767514 0.0681315 0.475196
0.902846 0.261097 0.59997
0.000320439 0.20206 0.469215
0.179477 0.221408 0.479149
0.493278 0.242374 0.487724
0.769055 0.241505 0.484245
0.940688 0.337819 0.578271
0.00196841 0.468635 0.487236
0.185565 0.485145 0.493706
0.511086 0.512825 0.510994
0.79704 0.509957 0.497505
0.983276 0.530663 0.548562
0.458915 0.815137 0.634714
0.477516 0.811154 0.613275
0.579309 0.810803 0.561685
0.812375 0.807446 0.474235
0.998795 0.777539 0.491646
0.65565 0.932219 0.67982
0.655253 0.931823 0.677546
0.669932 0.93373 0.675319
0.732738 0.944259 0.674662
0.986435 0.987655 0.557244
0.000213626 0.0283818 0.600061
0.250278 0.0798962 0.653559
0.554284 0.202365 0.720104
0.782986 0.325444 0.762112
0.863691 0.401251 0.800946
0.0857404 0.291341 0.770916
0.16849 0.285634 0.765866
0.517937 0.34168 0.781826
0.784634 0.417411 0.792706
0.889387 0.472343 0.811734
0.116655 0.537423 0.798596
0.151095 0.524956 0.792691
0.475486 0.544152 0.82855
0.815854 0.583185 0.833997
0.94583 0.600244 0.81561
0.435462 0.794644 0.808728
0.426703 0.787472 0.797604
0.510643 0.791669 0.802243
0.810559 0.813245 0.811582
0.998535 0.763119 0.7608
0.65185 0.937011 0.778866
0.651469 0.936614 0.772152
0.653391 0.935882 0.759441
0.714794 0.945281 0.750286
0.994003 0.991806 0.62649
0.156695 0.305348 0.810712
0.162539 0.334646 0.817823
0.518227 0.414069 0.850599
0.800198 0.504387 0.875242
0.882994 0.519173 0.872129
0.181811 0.47837 0.832731
0.180957 0.475196 0.833051
0.2878 0.485328 0.851759
0.711589 0.563073 0.898375
0.901534 0.584329 0.892805
0.213962 0.58883 0.845289
0.213123 0.587869 0.846113
0.215442 0.581643 0.845823
0.59472 0.620584 0.91284
0.922774 0.668528 0.918822
0.289876 0.703838 0.857588
0.287312 0.701213 0.857893
0.280583 0.694789 0.856901
0.463874 0.70309 0.896819
0.945159 0.765866 0.948394
0.628199 0.915938 0.917815
0.631159 0.917479 0.918242
0.638224 0.922087 0.920607
0.644297 0.925902 0.922454
0.995239 0.997482 0.995727
