app/src/main/assets/luts/GR-BleachBypass_V4.cube
TITLE "Ricoh BleachBypass"
#Lut generated by JC from Ricoh GR3X HDF
LUT_3D_SIZE 5
DOMAIN_MIN 0.0 0.0 0.0
DOMAIN_MAX 1.0 1.0 1.0
0.000000 0.000000 0.000000
0.310772 0.114072 0.099267
0.634352 0.244550 0.192220
0.814813 0.382040 0.318365
0.922981 0.502664 0.439761
0.095353 0.377989 0.157475
0.345144 0.422711 0.201144
0.650271 0.507754 0.303005
0.831849 0.588657 0.404477
0.929738 0.677617 0.538249
0.290314 0.705120 0.342625
0.467111 0.735894 0.385485
0.686899 0.772377 0.458044
0.836251 0.812321 0.565186
0.920126 0.846509 0.678679
0.441122 0.897823 0.503281
0.591618 0.919414 0.568250
0.745017 0.926250 0.655689
0.854406 0.941841 0.768297
0.926879 0.965586 0.837907
0.561456 1.000000 0.633366
0.687949 1.000000 0.708378
0.802519 1.000000 0.793944
0.890817 1.000000 0.877688
0.961392 1.000000 0.930553
0.065714 0.094664 0.357843
0.377227 0.191795 0.419096
0.680577 0.346430 0.515624
0.848956 0.494315 0.605158
0.943972 0.594526 0.663965
0.163977 0.437110 0.438991
0.394775 0.471575 0.468416
0.689540 0.537570 0.542894
0.847915 0.628616 0.632991
0.935053 0.736112 0.729521
0.323493 0.743428 0.539952
0.481552 0.758919 0.558177
0.703408 0.785956 0.612979
0.839522 0.829892 0.711758
0.915959 0.878500 0.819018
0.486741 0.919030 0.658334
0.615718 0.926947 0.702086
0.765804 0.930031 0.768260
0.862957 0.944380 0.848211
0.924750 0.974806 0.921882
0.619934 1.000000 0.761461
0.727829 1.000000 0.818039
0.828490 1.000000 0.882022
0.903270 1.000000 0.944028
0.961616 1.000000 0.990072
0.162179 0.142598 0.681098
0.462260 0.272232 0.728214
0.721426 0.439088 0.773121
0.865995 0.590606 0.817917
0.949913 0.676945 0.839269
0.294383 0.497662 0.739607
0.499843 0.541287 0.757231
0.730232 0.609424 0.789933
0.859529 0.703863 0.831359
0.933379 0.799045 0.874796
0.430901 0.784970 0.781433
0.562944 0.798643 0.796253
0.750094 0.823874 0.819121
0.855135 0.859848 0.858492
0.916857 0.907139 0.910459
0.578446 0.929069 0.824853
0.676485 0.930286 0.848455
0.799543 0.936309 0.877739
0.878809 0.955907 0.917846
0.927764 0.980404 0.958028
0.701176 1.000000 0.875282
0.782729 1.000000 0.908777
0.857468 1.000000 0.942977
0.915022 1.000000 0.976652
0.961435 1.000000 1.000000
0.311978 0.266134 0.880899
0.545530 0.377821 0.911922
0.742996 0.521034 0.926437
0.871235 0.657028 0.940396
0.953897 0.735880 0.951207
0.465508 0.600770 0.924321
0.632532 0.654557 0.931951
0.776954 0.716401 0.933472
0.869614 0.794649 0.936141
0.939686 0.855449 0.960146
0.575851 0.832960 0.930891
0.696490 0.847680 0.928217
0.804548 0.873653 0.930235
0.873639 0.906485 0.941732
0.928138 0.939645 0.968202
0.708527 0.940119 0.934582
0.774827 0.944565 0.939930
0.841990 0.952520 0.948170
0.899216 0.972527 0.969416
0.937387 0.989541 0.988563
0.795996 1.000000 0.958322
0.850757 1.000000 0.971850
0.891350 1.000000 0.984403
0.929599 1.000000 0.999068
0.966933 1.000000 1.000000
0.458120 0.403878 1.000000
0.636266 0.501627 1.000000
0.779991 0.609544 1.000000
0.885158 0.707663 1.000000
0.967285 0.772429 1.000000
0.593480 0.670209 1.000000
0.735071 0.735202 1.000000
0.832336 0.796043 1.000000
0.901354 0.853799 1.000000
0.964979 0.891479 1.000000
0.709105 0.862036 1.000000
0.811868 0.895899 1.000000
0.870885 0.923275 1.000000
0.912690 0.948673 1.000000
0.960657 0.965953 1.000000
0.803612 0.958994 1.000000
0.862426 0.970749 1.000000
0.895174 0.980740 1.000000
0.928500 0.992433 1.000000
0.967216 0.999667 1.000000
0.866251 1.000000 1.000000
0.912402 1.000000 1.000000
0.935337 1.000000 1.000000
0.960196 1.000000 1.000000
1.000000 1.000000 1.000000
