app/src/main/assets/luts/GR-BleachBypass_V4.cube
TITLE "Ricoh BleachBypass"
#Lut generated by JC from Ricoh GR3X HDF
LUT_3D_SIZE 9
DOMAIN_MIN 0.0 0.0 0.0
DOMAIN_MAX 1.0 1.0 1.0
0.000000 0.000000 0.000000
0.123134 0.064252 0.055143
0.310772 0.114072 0.099267
0.495644 0.183147 0.153398
0.634352 0.244550 0.192220
0.737483 0.311890 0.250602
0.814813 0.382040 0.318365
0.874469 0.447032 0.382688
0.922981 0.502664 0.439761
0.017966 0.197770 0.084182
0.147169 0.221536 0.103707
0.322443 0.255667 0.143170
0.504416 0.313784 0.201544
0.647879 0.365150 0.246471
0.751377 0.415327 0.291359
0.826553 0.477197 0.355733
0.884000 0.537730 0.424401
0.929753 0.589282 0.485818
0.095353 0.377989 0.157475
0.199754 0.395682 0.168610
0.345144 0.422711 0.201144
0.507650 0.465102 0.251413
0.650271 0.507754 0.303005
0.757519 0.545268 0.345950
0.831849 0.588657 0.404477
0.886595 0.635520 0.473808
0.929738 0.677617 0.538249
0.193405 0.555868 0.247871
0.277496 0.571547 0.257995
0.396398 0.591338 0.282595
0.534423 0.621207 0.322453
0.662711 0.654127 0.372856
0.764829 0.683330 0.422561
0.834669 0.708377 0.473658
0.884252 0.736653 0.537588
0.925187 0.765625 0.601727
0.290314 0.705120 0.342625
0.365396 0.720865 0.360611
0.467111 0.735894 0.385485
0.579208 0.751329 0.413355
0.686899 0.772377 0.458044
0.774554 0.794195 0.513119
0.836251 0.812321 0.565186
0.880565 0.829263 0.622110
0.920126 0.846509 0.678679
0.370062 0.813861 0.426292
0.446091 0.830208 0.451500
0.532986 0.840595 0.480781
0.626935 0.848639 0.513153
0.716055 0.858886 0.558538
0.787685 0.870841 0.611910
0.843043 0.887845 0.675003
0.881925 0.902054 0.724463
0.919502 0.913189 0.763224
0.441122 0.897823 0.503281
0.514396 0.911998 0.533824
0.591618 0.919414 0.568250
0.671161 0.923257 0.608138
0.745017 0.926250 0.655689
0.806596 0.931574 0.709377
0.854406 0.941841 0.768297
0.890754 0.954342 0.812397
0.926879 0.965586 0.837907
0.504690 0.966121 0.572509
0.573488 0.977421 0.606767
0.642702 0.982510 0.644727
0.710983 0.983819 0.687192
0.773925 0.983948 0.734153
0.827519 0.985744 0.783969
0.870805 0.991292 0.832290
0.906879 1.000000 0.869414
0.942014 1.000000 0.892079
0.561456 1.000000 0.633366
0.625544 1.000000 0.669454
0.687949 1.000000 0.708378
0.747720 1.000000 0.750157
0.802519 1.000000 0.793944
0.850259 1.000000 0.837680
0.890817 1.000000 0.877688
0.926591 1.000000 0.909285
0.961392 1.000000 0.930553
0.009139 0.060157 0.180980
0.157009 0.097146 0.209589
0.343566 0.151477 0.254145
0.525618 0.231081 0.317331
0.665122 0.300432 0.361936
0.763731 0.363501 0.406647
0.835927 0.432987 0.460770
0.891315 0.495439 0.510276
0.936394 0.547662 0.553628
0.048004 0.225778 0.226248
0.170595 0.247108 0.242904
0.345863 0.281290 0.281440
0.532505 0.349012 0.353582
0.669660 0.390383 0.387677
0.767787 0.439275 0.423251
0.841312 0.511004 0.484922
0.896077 0.574625 0.543280
0.938887 0.626347 0.592687
0.115450 0.404803 0.282477
0.207174 0.414306 0.283518
0.354834 0.439743 0.314939
0.522903 0.478510 0.362936
0.664152 0.514587 0.407973
0.768295 0.555353 0.451902
0.842571 0.608737 0.514931
0.894616 0.661280 0.579494
0.934636 0.706497 0.635273
0.206429 0.581249 0.351681
0.280785 0.590515 0.352291
0.397455 0.603018 0.371260
0.540306 0.629805 0.407138
0.670738 0.659383 0.451588
0.772517 0.691185 0.503979
0.840982 0.721963 0.560768
0.887299 0.755634 0.627334
0.925917 0.788255 0.687595
0.302386 0.726575 0.428732
0.368264 0.735942 0.434367
0.468168 0.745153 0.455067
0.583294 0.758662 0.481531
0.691513 0.777065 0.521531
0.778481 0.800387 0.574656
0.838214 0.823430 0.633694
0.879725 0.844796 0.698102
0.917991 0.864095 0.752829
0.386928 0.832106 0.506724
0.456407 0.843431 0.524152
0.539610 0.849769 0.546773
0.634277 0.856384 0.576146
0.722401 0.864067 0.616782
0.792800 0.876731 0.667265
0.844552 0.894599 0.728843
0.881374 0.911908 0.785815
0.916867 0.924987 0.825174
0.462062 0.911875 0.578832
0.529550 0.921920 0.603705
0.603178 0.926043 0.633193
0.681781 0.927745 0.669152
0.754868 0.929253 0.712607
0.814192 0.933994 0.761069
0.858260 0.943626 0.814218
0.891769 0.956939 0.860589
0.925119 0.970778 0.888721
0.529429 0.976222 0.643026
0.593197 0.983782 0.672663
0.658616 0.985713 0.706277
0.724680 0.984711 0.744612
0.785784 0.983217 0.787014
0.836620 0.983766 0.831313
0.876395 0.988661 0.874940
0.909076 0.998531 0.911414
0.941242 1.000000 0.934752
0.588985 1.000000 0.698813
0.648688 1.000000 0.730839
0.707152 1.000000 0.765643
0.763731 1.000000 0.803212
0.815635 1.000000 0.842480
0.860202 1.000000 0.881532
0.897286 1.000000 0.917714
0.929662 1.000000 0.947323
0.961565 1.000000 0.967875
0.065714 0.094664 0.357843
0.206008 0.133736 0.382957
0.377227 0.191795 0.419096
0.544146 0.265534 0.466159
0.680577 0.346430 0.515624
0.779890 0.425228 0.564064
0.848956 0.494315 0.605158
0.901052 0.548975 0.636575
0.943972 0.594526 0.663965
0.105306 0.257267 0.396448
0.222202 0.279488 0.410250
0.384035 0.317415 0.442550
0.550781 0.366354 0.485619
0.686276 0.422134 0.527831
0.781908 0.487027 0.573087
0.848926 0.555721 0.620840
0.900913 0.615685 0.661928
0.942462 0.665175 0.696367
0.163977 0.437110 0.438991
0.255538 0.449580 0.443757
0.394775 0.471575 0.468416
0.554824 0.502779 0.505548
0.689540 0.537570 0.542894
0.782029 0.578174 0.582169
0.847915 0.628616 0.632991
0.896100 0.687518 0.686414
0.935053 0.736112 0.729521
0.238075 0.606051 0.486063
0.312085 0.615644 0.488499
0.424158 0.625530 0.501355
0.565000 0.647896 0.530997
0.690939 0.672955 0.567094
0.781587 0.699316 0.607870
0.843238 0.733540 0.662287
0.887033 0.774130 0.722656
0.924475 0.809858 0.769778
0.323493 0.743428 0.539952
0.389688 0.754021 0.546473
0.481552 0.758919 0.558177
0.595743 0.769024 0.579235
0.703408 0.785956 0.612979
0.784415 0.806009 0.655290
0.839522 0.829892 0.711758
0.879567 0.855893 0.773785
0.915959 0.878500 0.819018
0.408175 0.843946 0.598737
0.471743 0.853153 0.611876
0.550614 0.857734 0.630090
0.643407 0.860782 0.652274
0.731921 0.869151 0.686636
0.799566 0.881636 0.728368
0.847482 0.898282 0.780650
0.882114 0.917084 0.834542
0.915346 0.933444 0.872706
0.486741 0.919030 0.658334
0.547002 0.925372 0.677935
0.615718 0.926947 0.702086
0.692731 0.927464 0.731835
0.765804 0.930031 0.768260
0.822218 0.934856 0.805994
0.862957 0.944380 0.848211
0.894154 0.959402 0.891326
0.924750 0.974806 0.921882
0.558112 0.980014 0.713301
0.615718 0.983951 0.737796
0.676002 0.983380 0.765867
0.738940 0.981310 0.798049
0.797685 0.979756 0.832761
0.845502 0.980486 0.867793
0.882129 0.985827 0.903185
0.911873 0.996623 0.936087
0.941140 1.000000 0.960200
0.619934 1.000000 0.761461
0.674436 1.000000 0.788639
0.727829 1.000000 0.818039
0.780189 1.000000 0.849580
0.828490 1.000000 0.882022
0.869586 1.000000 0.913922
0.903270 1.000000 0.944028
0.932457 1.000000 0.970165
0.961616 1.000000 0.990072
0.111401 0.116661 0.533566
0.257685 0.165424 0.558032
0.419283 0.233287 0.586527
0.575218 0.310263 0.619190
0.703906 0.395931 0.657874
0.797694 0.484745 0.700076
0.859279 0.552354 0.728320
0.906839 0.599117 0.745516
0.947807 0.638784 0.760810
0.160265 0.280851 0.572972
0.284758 0.311289 0.585634
0.429214 0.355987 0.606727
0.583131 0.406960 0.635556
0.709444 0.464926 0.666729
0.796627 0.534902 0.702303
0.854723 0.602154 0.736695
0.902985 0.658338 0.764362
0.943267 0.703866 0.786620
0.226383 0.465134 0.599917
0.316281 0.478947 0.607167
0.440605 0.502344 0.624111
0.588670 0.535355 0.653336
0.710998 0.569313 0.678916
0.795092 0.611666 0.706461
0.852092 0.663812 0.742286
0.895894 0.721539 0.780931
0.933924 0.767637 0.810933
0.292408 0.632835 0.631091
0.364511 0.644414 0.638876
0.469734 0.655320 0.650743
0.601971 0.676812 0.675717
0.713523 0.696035 0.698049
0.795146 0.721078 0.722917
0.849064 0.756498 0.761297
0.888487 0.798094 0.804514
0.923453 0.832785 0.838347
0.365656 0.762624 0.665370
0.427581 0.773953 0.676192
0.515351 0.779771 0.686036
0.626548 0.790268 0.702625
0.725020 0.803568 0.722723
0.797560 0.820102 0.750625
0.847216 0.842481 0.791137
0.882840 0.868192 0.834200
0.915779 0.892250 0.870090
0.443434 0.854555 0.701104
0.497388 0.861426 0.711336
0.571210 0.863700 0.724526
0.664040 0.868577 0.743632
0.749004 0.877212 0.767072
0.811414 0.889851 0.798295
0.854421 0.905547 0.835098
0.885485 0.923346 0.873272
0.915643 0.940440 0.905719
0.523532 0.923633 0.742581
0.575621 0.926519 0.757339
0.637864 0.926398 0.775722
0.711491 0.927876 0.799452
0.780949 0.931452 0.825864
0.833149 0.938069 0.852969
0.870351 0.949437 0.884276
0.897833 0.963407 0.915548
0.925278 0.977538 0.942005
0.596032 0.980567 0.783468
0.646971 0.981484 0.802890
0.700216 0.979362 0.824644
0.757629 0.977350 0.849281
0.811856 0.976645 0.874742
0.855758 0.978997 0.900394
0.888873 0.985753 0.927159
0.915094 0.996053 0.952334
0.941405 1.000000 0.973992
0.657074 1.000000 0.821037
0.705849 1.000000 0.843024
0.752697 1.000000 0.866200
0.799071 1.000000 0.890579
0.842361 1.000000 0.915166
0.879255 1.000000 0.939275
0.909171 1.000000 0.962358
0.934966 1.000000 0.983291
0.961553 1.000000 1.000000
0.162179 0.142598 0.681098
0.309520 0.198091 0.706217
0.462260 0.272232 0.728214
0.604093 0.352725 0.748929
0.721426 0.439088 0.773121
0.808020 0.525112 0.799767
0.865995 0.590606 0.817917
0.910698 0.639000 0.829825
0.949913 0.676945 0.839269
0.211215 0.298130 0.718022
0.349322 0.342115 0.733627
0.483654 0.396795 0.747716
0.616760 0.453134 0.762570
0.728340 0.510491 0.779794
0.810359 0.576067 0.802515
0.864005 0.640656 0.824209
0.906133 0.697179 0.843482
0.943876 0.739667 0.858454
0.294383 0.497662 0.739607
0.394545 0.516400 0.748553
0.499843 0.541287 0.757231
0.621755 0.574674 0.772940
0.730232 0.609424 0.789933
0.809014 0.651916 0.809009
0.859529 0.703863 0.831359
0.897347 0.758143 0.855159
0.933379 0.799045 0.874796
0.367077 0.664914 0.760037
0.436794 0.673713 0.767692
0.524445 0.684027 0.774931
0.635976 0.703644 0.789907
0.736112 0.724914 0.804477
0.808309 0.750872 0.819638
0.855074 0.786144 0.842341
0.889372 0.825422 0.868848
0.922969 0.856638 0.891608
0.430901 0.784970 0.781433
0.485782 0.792074 0.789066
0.562944 0.798643 0.796253
0.662103 0.810078 0.807448
0.750094 0.823874 0.819121
0.811120 0.837410 0.833306
0.855135 0.859848 0.858492
0.886173 0.884652 0.885378
0.916857 0.907139 0.910459
0.501033 0.868079 0.801848
0.552517 0.874462 0.811921
0.615753 0.876273 0.819666
0.696767 0.881300 0.828917
0.770846 0.888828 0.840651
0.825467 0.900994 0.861938
0.863868 0.915852 0.885263
0.891055 0.931461 0.908373
0.918369 0.947894 0.932636
0.578446 0.929069 0.824853
0.625154 0.930624 0.836495
0.676485 0.930286 0.848455
0.739269 0.932195 0.862010
0.799543 0.936309 0.877739
0.846337 0.944557 0.897089
0.878809 0.955907 0.917846
0.902926 0.967718 0.937384
0.927764 0.980404 0.958028
0.645730 0.980542 0.849288
0.690160 0.979621 0.863889
0.733568 0.976952 0.878899
0.781415 0.975495 0.894978
0.828041 0.976109 0.911680
0.867014 0.980322 0.929960
0.895811 0.987480 0.948408
0.917891 0.996650 0.965193
0.941907 1.000000 0.982709
0.701176 1.000000 0.875282
0.744024 1.000000 0.892016
0.782729 1.000000 0.908777
0.820928 1.000000 0.925833
0.857468 1.000000 0.942977
0.889320 1.000000 0.960200
0.915022 1.000000 0.976652
0.937091 1.000000 0.991785
0.961435 1.000000 1.000000
0.229999 0.193238 0.794520
0.365400 0.246941 0.817395
0.500748 0.316070 0.832621
0.624764 0.391800 0.844329
0.731493 0.476092 0.858955
0.813369 0.560967 0.875107
0.869536 0.624770 0.886169
0.912904 0.672682 0.894244
0.951490 0.709075 0.901073
0.279329 0.341663 0.826625
0.413640 0.389586 0.842826
0.531077 0.440723 0.849853
0.643447 0.494625 0.854483
0.743304 0.557409 0.865117
0.820292 0.625768 0.878902
0.870516 0.684767 0.890686
0.909020 0.734425 0.902422
0.945315 0.771811 0.913520
0.364742 0.543690 0.845146
0.475897 0.566406 0.854083
0.562410 0.590347 0.856143
0.659334 0.621579 0.862179
0.751199 0.658794 0.872309
0.819682 0.700352 0.881957
0.864965 0.746672 0.892520
0.899855 0.793293 0.906969
0.934700 0.828375 0.922220
0.445103 0.702959 0.858664
0.520311 0.711297 0.862671
0.589871 0.720542 0.864197
0.675216 0.737379 0.869503
0.758563 0.760030 0.878412
0.819429 0.785318 0.885970
0.859222 0.816747 0.896039
0.890627 0.851723 0.912287
0.924554 0.879675 0.930823
0.503411 0.807239 0.870915
0.560771 0.812364 0.873677
0.622199 0.817787 0.874244
0.697798 0.826710 0.876397
0.772704 0.843391 0.885634
0.826533 0.860711 0.895345
0.862482 0.880613 0.907106
0.889694 0.902451 0.923099
0.920125 0.922732 0.941936
0.562236 0.881344 0.880804
0.618330 0.886112 0.884774
0.667765 0.887172 0.885015
0.732577 0.892473 0.889588
0.795152 0.902422 0.899301
0.842041 0.915762 0.912481
0.873946 0.927549 0.923870
0.897468 0.940862 0.937680
0.923280 0.956685 0.956184
0.641417 0.934781 0.890942
0.683582 0.935580 0.896833
0.722002 0.935562 0.902800
0.770839 0.938110 0.909449
0.819071 0.943385 0.918521
0.859387 0.952888 0.931973
0.888188 0.962694 0.945305
0.909427 0.973219 0.958294
0.931664 0.984269 0.973641
0.702801 0.980934 0.903491
0.740904 0.979430 0.913029
0.772891 0.977156 0.922222
0.808354 0.976421 0.931294
0.845159 0.978375 0.941445
0.878688 0.984056 0.954863
0.904028 0.991124 0.968350
0.921870 0.997994 0.979278
0.943098 1.000000 0.991313
0.749370 1.000000 0.921177
0.786530 1.000000 0.932783
0.816370 1.000000 0.943811
0.845056 1.000000 0.954611
0.873659 1.000000 0.965661
0.900012 1.000000 0.977555
0.921552 1.000000 0.989023
0.939882 1.000000 0.999169
0.962366 1.000000 1.000000
0.311978 0.266134 0.880899
0.430303 0.316395 0.900409
0.545530 0.377821 0.911922
0.651016 0.445907 0.919178
0.742996 0.521034 0.926437
0.816477 0.595963 0.934146
0.871235 0.657028 0.940396
0.914777 0.702330 0.945725
0.953897 0.735880 0.951207
0.376742 0.417761 0.907654
0.487915 0.460524 0.921332
0.587221 0.507271 0.926725
0.678867 0.555669 0.928734
0.761036 0.612954 0.931638
0.825937 0.674997 0.935556
0.873485 0.728600 0.940772
0.912147 0.769508 0.948545
0.948799 0.799930 0.957684
0.465508 0.600770 0.924321
0.557538 0.626715 0.930396
0.632532 0.654557 0.931951
0.706240 0.680807 0.931963
0.776954 0.716401 0.933472
0.830134 0.755357 0.932835
0.869614 0.794649 0.936141
0.904572 0.829427 0.946925
0.939686 0.855449 0.960146
0.526799 0.745376 0.931208
0.606529 0.757789 0.932383
0.667162 0.770396 0.931235
0.728439 0.784631 0.928477
0.789832 0.806457 0.930813
0.835181 0.829955 0.931230
0.868104 0.855968 0.935017
0.898188 0.882060 0.946783
0.931278 0.902386 0.962643
0.575851 0.832960 0.930891
0.645176 0.842570 0.932165
0.696490 0.847680 0.928217
0.749492 0.856576 0.925414
0.804548 0.873653 0.930235
0.845842 0.890768 0.936323
0.873639 0.906485 0.941732
0.898899 0.924214 0.952821
0.928138 0.939645 0.968202
0.628009 0.895495 0.931342
0.691552 0.901676 0.931849
0.733424 0.903679 0.929872
0.777461 0.909151 0.931139
0.823052 0.919477 0.937929
0.859235 0.931740 0.946858
0.884861 0.943561 0.953404
0.906706 0.955873 0.963094
0.931119 0.967961 0.977076
0.708527 0.940119 0.934582
0.747047 0.943024 0.936913
0.774827 0.944565 0.939930
0.807305 0.947954 0.943733
0.841990 0.952520 0.948170
0.875123 0.962046 0.958334
0.899216 0.972527 0.969416
0.916801 0.981857 0.978892
0.937387 0.989541 0.988563
0.759775 0.982754 0.943445
0.792935 0.982093 0.948709
0.814845 0.981076 0.954205
0.838288 0.981351 0.959569
0.864594 0.983284 0.964955
0.891731 0.988683 0.974141
0.913216 0.995518 0.985147
0.927521 1.000000 0.993530
0.947308 1.000000 0.999928
0.795996 1.000000 0.958322
0.828540 1.000000 0.965279
0.850757 1.000000 0.971850
0.870614 1.000000 0.978108
0.891350 1.000000 0.984403
0.912060 1.000000 0.991716
0.929599 1.000000 0.999068
0.945119 1.000000 1.000000
0.966933 1.000000 1.000000
0.391545 0.341251 0.948229
0.495172 0.389553 0.964544
0.593288 0.444706 0.973701
0.682274 0.504862 0.978332
0.759893 0.568801 0.981168
0.824100 0.631423 0.983654
0.875761 0.685024 0.986383
0.919170 0.726328 0.989959
0.958845 0.756974 0.994601
0.461420 0.488124 0.969777
0.557345 0.529328 0.980973
0.642145 0.572192 0.984912
0.717654 0.617194 0.984877
0.783762 0.666664 0.983617
0.837934 0.717493 0.982730
0.881508 0.762231 0.984221
0.919476 0.796678 0.989252
0.956089 0.821938 0.996701
0.538558 0.643111 0.981166
0.623310 0.674566 0.986831
0.691435 0.702580 0.986354
0.751502 0.731110 0.983236
0.805028 0.764047 0.979777
0.848107 0.799310 0.976589
0.883079 0.831833 0.977375
0.915812 0.857841 0.984314
0.949879 0.877087 0.994908
0.599483 0.769412 0.981683
0.675571 0.791477 0.983444
0.732042 0.807687 0.980082
0.780238 0.825042 0.975274
0.823910 0.846491 0.972447
0.858051 0.869021 0.970684
0.885301 0.890127 0.972128
0.912581 0.907856 0.980246
0.943912 0.921569 0.992874
0.651775 0.853833 0.974315
0.719629 0.869187 0.974954
0.765480 0.878223 0.971229
0.804284 0.889450 0.967774
0.840840 0.904764 0.967732
0.869152 0.919486 0.970117
0.891031 0.932782 0.973363
0.913275 0.944862 0.980952
0.941432 0.955041 0.993323
0.709005 0.909637 0.967044
0.762861 0.919000 0.967376
0.795402 0.923892 0.966226
0.824929 0.931029 0.966883
0.854213 0.940294 0.969541
0.879533 0.950358 0.974447
0.900197 0.961712 0.979954
0.919038 0.971503 0.986440
0.943245 0.978986 0.996516
0.764051 0.948833 0.965724
0.801894 0.953545 0.967362
0.822477 0.956335 0.969034
0.844335 0.961416 0.972767
0.867196 0.966391 0.975354
0.891593 0.973850 0.980537
0.911243 0.983150 0.988014
0.926510 0.990737 0.994635
0.947872 0.994745 1.000000
0.805168 0.988475 0.975598
0.836125 0.989012 0.977627
0.852967 0.989088 0.980560
0.868035 0.990113 0.983890
0.885607 0.991646 0.986381
0.906362 0.995547 0.990988
0.923329 1.000000 0.997023
0.935738 1.000000 1.000000
0.957419 1.000000 1.000000
0.835287 1.000000 0.990612
0.865054 1.000000 0.993604
0.882902 1.000000 0.996645
0.896747 1.000000 0.999483
0.911276 1.000000 1.000000
0.926949 1.000000 1.000000
0.941081 1.000000 1.000000
0.955294 1.000000 1.000000
0.978077 1.000000 1.000000
0.458120 0.403878 1.000000
0.550601 0.450997 1.000000
0.636266 0.501627 1.000000
0.713035 0.554976 1.000000
0.779991 0.609544 1.000000
0.836914 0.661905 1.000000
0.885158 0.707663 1.000000
0.927601 0.744362 1.000000
0.967285 0.772429 1.000000
0.525024 0.538253 1.000000
0.611002 0.579594 1.000000
0.686348 0.620727 1.000000
0.751608 0.662740 1.000000
0.807630 0.706011 1.000000
0.854796 0.748267 1.000000
0.895007 0.785427 1.000000
0.931627 0.814918 1.000000
0.967650 0.837109 1.000000
0.593480 0.670209 1.000000
0.671454 0.704718 1.000000
0.735071 0.735202 1.000000
0.787826 0.765081 1.000000
0.832336 0.796043 1.000000
0.869362 0.826674 1.000000
0.901354 0.853799 1.000000
0.932255 0.875301 1.000000
0.964979 0.891479 1.000000
0.654585 0.781114 1.000000
0.724272 0.808256 1.000000
0.777308 0.829372 1.000000
0.819065 0.849466 1.000000
0.853700 0.870481 1.000000
0.882036 0.891035 1.000000
0.906702 0.909045 1.000000
0.932247 0.923381 1.000000
0.961889 0.934469 1.000000
0.709105 0.862036 1.000000
0.769442 0.881919 1.000000
0.811868 0.895899 1.000000
0.843981 0.909176 1.000000
0.870885 0.923275 1.000000
0.893136 0.936810 1.000000
0.912690 0.948673 1.000000
0.933890 0.958245 1.000000
0.960657 0.965953 1.000000
0.759853 0.917753 1.000000
0.808481 0.930707 1.000000
0.839360 0.939415 1.000000
0.862718 0.947920 1.000000
0.883644 0.956917 1.000000
0.902710 0.966064 1.000000
0.919851 0.974807 1.000000
0.938036 0.981775 1.000000
0.962321 0.987197 1.000000
0.803612 0.958994 1.000000
0.840971 0.965967 1.000000
0.862426 0.970749 1.000000
0.878837 0.975698 1.000000
0.895174 0.980740 1.000000
0.912732 0.986649 1.000000
0.928500 0.992433 1.000000
0.944292 0.996266 1.000000
0.967216 0.999667 1.000000
0.838257 0.997492 1.000000
0.869451 0.999913 1.000000
0.886691 1.000000 1.000000
0.898881 1.000000 1.000000
0.911691 1.000000 1.000000
0.926681 1.000000 1.000000
0.940569 1.000000 1.000000
0.954840 1.000000 1.000000
0.978000 1.000000 1.000000
0.866251 1.000000 1.000000
0.895249 1.000000 1.000000
0.912402 1.000000 1.000000
0.924132 1.000000 1.000000
0.935337 1.000000 1.000000
0.947612 1.000000 1.000000
0.960196 1.000000 1.000000
0.975334 1.000000 1.000000
1.000000 1.000000 1.000000
