app/src/main/assets/luts/GR-BleachBypass_V4.cube
TITLE "Ricoh BleachBypass"
#Lut generated by JC from Ricoh GR3X HDF
LUT_3D_SIZE 33
DOMAIN_MIN 0.0 0.0 0.0
DOMAIN_MAX 1.0 1.0 1.0
0.000000 0.000000 0.000000
0.005471 0.035955 0.031018
0.040851 0.044985 0.038129
0.080468 0.054473 0.046292
0.123134 0.064252 0.055143
0.168058 0.074644 0.064734
0.214669 0.086148 0.075197
0.262426 0.099230 0.086687
0.310772 0.114072 0.099267
0.359103 0.130496 0.112800
0.406686 0.148042 0.126906
0.452600 0.165949 0.140819
0.495644 0.183147 0.153398
0.534916 0.198978 0.163958
0.570843 0.214059 0.173220
0.603856 0.229046 0.182184
0.634352 0.244550 0.192220
0.662760 0.260751 0.204340
0.689408 0.277449 0.218527
0.714326 0.294519 0.234153
0.737483 0.311890 0.250602
0.758955 0.329466 0.267468
0.778892 0.347116 0.284492
0.797460 0.364690 0.301500
0.814813 0.382040 0.318365
0.831084 0.399039 0.334988
0.846386 0.415583 0.351290
0.860817 0.431597 0.367206
0.874469 0.447032 0.382688
0.887430 0.461861 0.397701
0.899783 0.476074 0.412225
0.911608 0.489672 0.426247
0.922981 0.502664 0.439761
0.000000 0.068240 0.038420
0.010919 0.075644 0.043248
0.045661 0.084055 0.049990
0.084754 0.092551 0.057629
0.126951 0.101079 0.065934
0.171538 0.110153 0.075089
0.217971 0.120385 0.085225
0.265692 0.132399 0.096561
0.314147 0.146446 0.109238
0.362767 0.162343 0.123126
0.410758 0.179552 0.137821
0.457112 0.197179 0.152434
0.500610 0.214059 0.165701
0.540262 0.229496 0.176871
0.576363 0.244092 0.186522
0.609417 0.258520 0.195559
0.639851 0.273142 0.205154
0.668150 0.288145 0.216386
0.694667 0.303619 0.229555
0.719412 0.319632 0.244285
0.742357 0.336184 0.260074
0.763595 0.353170 0.276528
0.783296 0.370411 0.293364
0.801642 0.387703 0.310364
0.818790 0.404851 0.327355
0.834867 0.421689 0.344196
0.849979 0.438091 0.360768
0.864219 0.453966 0.376979
0.877676 0.469258 0.392762
0.890438 0.483936 0.408070
0.902593 0.497990 0.422876
0.914224 0.511420 0.437161
0.925410 0.524239 0.450918
0.000000 0.110467 0.052765
0.019737 0.117496 0.057187
0.053249 0.125090 0.063180
0.090961 0.132470 0.070017
0.132043 0.139807 0.077685
0.175807 0.147690 0.086363
0.221617 0.156725 0.096116
0.268831 0.167597 0.107198
0.316907 0.180637 0.119828
0.365347 0.195773 0.133914
0.413299 0.212414 0.148958
0.459646 0.229517 0.164018
0.503326 0.246048 0.178012
0.543504 0.261377 0.190207
0.580054 0.275685 0.200673
0.613401 0.289460 0.210079
0.644022 0.302995 0.219398
0.672401 0.316628 0.229700
0.698865 0.330745 0.241619
0.723473 0.345600 0.255164
0.746242 0.361250 0.270037
0.767293 0.377571 0.285895
0.786815 0.394331 0.302432
0.805002 0.411271 0.319374
0.822009 0.428148 0.336480
0.837951 0.444759 0.353544
0.852922 0.460953 0.370397
0.867008 0.476624 0.386915
0.880299 0.491710 0.403008
0.892886 0.506180 0.418620
0.904861 0.520020 0.433715
0.916315 0.533236 0.448269
0.927331 0.545837 0.462272
0.003159 0.153813 0.068099
0.031245 0.160340 0.071914
0.063191 0.167088 0.077029
0.099137 0.173599 0.083142
0.138682 0.180109 0.090293
0.181180 0.187136 0.098526
0.225922 0.195242 0.107901
0.272210 0.205088 0.118691
0.319510 0.217078 0.131144
0.367329 0.231248 0.145197
0.414814 0.247031 0.160312
0.460850 0.263401 0.175618
0.504444 0.279401 0.190142
0.544866 0.294385 0.203106
0.581858 0.308233 0.214292
0.615644 0.321193 0.224095
0.646657 0.333637 0.233352
0.675325 0.346055 0.243071
0.701916 0.358964 0.254012
0.726515 0.372732 0.266478
0.749193 0.387472 0.280418
0.770121 0.403053 0.295616
0.789529 0.419223 0.311800
0.807625 0.435693 0.328658
0.824555 0.452184 0.345871
0.840414 0.468458 0.363158
0.855284 0.484339 0.380294
0.869244 0.499710 0.397117
0.882389 0.514502 0.413519
0.894815 0.528682 0.429433
0.906623 0.542239 0.444814
0.917911 0.555177 0.459636
0.928769 0.567505 0.473883
0.017966 0.197770 0.084182
0.045006 0.203694 0.087321
0.075398 0.209679 0.091630
0.109490 0.215560 0.097081
0.147169 0.221536 0.103707
0.187944 0.228005 0.111480
0.231175 0.235484 0.120486
0.276202 0.244572 0.130984
0.322443 0.255667 0.143170
0.369290 0.268783 0.156942
0.415894 0.283421 0.171804
0.461241 0.298711 0.186964
0.504416 0.313784 0.201544
0.544775 0.328028 0.214833
0.582045 0.341223 0.226544
0.616314 0.353482 0.236884
0.647879 0.365150 0.246471
0.677042 0.376717 0.256117
0.703964 0.388701 0.266550
0.728702 0.401517 0.278237
0.751377 0.415327 0.291359
0.772244 0.430039 0.305901
0.791596 0.445443 0.321701
0.809656 0.461262 0.338441
0.826553 0.477197 0.355733
0.842363 0.492978 0.373216
0.857151 0.508405 0.390607
0.870997 0.523346 0.407711
0.884000 0.537730 0.424401
0.896269 0.551521 0.440600
0.907914 0.564707 0.456256
0.919043 0.577291 0.471336
0.929753 0.589282 0.485818
0.034827 0.242216 0.101076
0.060835 0.247587 0.103612
0.089751 0.252927 0.107216
0.121966 0.258263 0.111981
0.157574 0.263808 0.117986
0.196326 0.269900 0.125264
0.237739 0.276989 0.133913
0.281215 0.285560 0.144115
0.326110 0.295917 0.155959
0.371700 0.308017 0.169280
0.417129 0.321421 0.183606
0.461483 0.335431 0.198260
0.503970 0.349346 0.212533
0.544040 0.362668 0.225882
0.581424 0.375184 0.238045
0.616111 0.386918 0.249070
0.648256 0.398113 0.259305
0.678003 0.409154 0.269283
0.705365 0.420453 0.279584
0.730328 0.432386 0.290745
0.753059 0.445167 0.303159
0.773908 0.458819 0.317058
0.793236 0.473235 0.332436
0.811281 0.488184 0.349002
0.828157 0.503357 0.366308
0.843916 0.518455 0.383920
0.858615 0.533255 0.401502
0.872336 0.547614 0.418832
0.885187 0.561456 0.435767
0.897291 0.574744 0.452219
0.908771 0.587463 0.468127
0.919743 0.599609 0.483447
0.930311 0.611189 0.498147
0.053481 0.287132 0.118874
0.078465 0.292083 0.120908
0.105942 0.296917 0.123896
0.136317 0.301783 0.128001
0.169836 0.306941 0.133381
0.206468 0.312725 0.140152
0.245900 0.319520 0.148421
0.287607 0.327690 0.158286
0.330917 0.337423 0.169726
0.375039 0.348615 0.182506
0.419113 0.360876 0.196179
0.462315 0.373669 0.210198
0.503969 0.386484 0.224058
0.543601 0.398948 0.237397
0.580936 0.410857 0.249990
0.615880 0.422157 0.261739
0.648478 0.433012 0.272742
0.678730 0.443673 0.283223
0.706499 0.454375 0.293560
0.731696 0.465395 0.304313
0.754517 0.477011 0.316084
0.775376 0.489417 0.329359
0.794681 0.502646 0.344290
0.812693 0.516521 0.360615
0.829515 0.530724 0.377835
0.845186 0.544937 0.395463
0.859758 0.558923 0.413134
0.873321 0.572537 0.430606
0.885996 0.585698 0.447726
0.897919 0.598364 0.464388
0.909225 0.610514 0.480516
0.920041 0.622137 0.496049
0.930474 0.633231 0.510944
0.073709 0.332448 0.137650
0.097674 0.337146 0.139300
0.123758 0.341638 0.141801
0.152387 0.346140 0.145356
0.183906 0.350955 0.150184
0.218442 0.356427 0.156460
0.255828 0.362903 0.164300
0.295627 0.370665 0.173751
0.337181 0.379815 0.184721
0.379688 0.390209 0.196931
0.422314 0.401506 0.209970
0.464312 0.413304 0.223414
0.505076 0.425236 0.236925
0.544163 0.437008 0.250270
0.581275 0.448391 0.263236
0.616253 0.459275 0.275619
0.649071 0.469787 0.287327
0.679619 0.480051 0.298290
0.707656 0.490125 0.308682
0.733046 0.500176 0.319094
0.755967 0.510545 0.330301
0.776841 0.521607 0.343011
0.796105 0.533531 0.357504
0.814033 0.546176 0.373512
0.830733 0.559224 0.390511
0.846248 0.572359 0.408004
0.860635 0.585355 0.425629
0.873993 0.598068 0.443142
0.886459 0.610417 0.460375
0.898181 0.622350 0.477200
0.909306 0.633836 0.493512
0.919966 0.644852 0.509228
0.930272 0.655388 0.524286
0.095353 0.377989 0.157475
0.118321 0.382603 0.158886
0.143090 0.386919 0.161064
0.170104 0.391174 0.164229
0.199754 0.395682 0.168610
0.232272 0.400802 0.174410
0.267617 0.406880 0.181769
0.305446 0.414164 0.190720
0.345144 0.422711 0.201144
0.385942 0.432369 0.212762
0.427067 0.442857 0.225215
0.467829 0.453866 0.238177
0.507650 0.465102 0.251413
0.546065 0.476283 0.264740
0.582741 0.487156 0.277941
0.617499 0.497613 0.290770
0.650271 0.507754 0.303005
0.680881 0.517590 0.314379
0.709030 0.527023 0.324911
0.734536 0.536117 0.335135
0.757519 0.545268 0.345950
0.778382 0.555005 0.358222
0.797567 0.565596 0.372289
0.815349 0.576913 0.387875
0.831849 0.588657 0.404477
0.847129 0.600554 0.421653
0.861264 0.612409 0.439083
0.874370 0.624093 0.456531
0.886595 0.635520 0.473808
0.898100 0.646628 0.490747
0.909039 0.657368 0.507205
0.919547 0.667705 0.523066
0.929738 0.677617 0.538249
0.118293 0.423460 0.178408
0.140311 0.428118 0.179742
0.163859 0.432387 0.181772
0.189399 0.436493 0.184706
0.217320 0.440721 0.188739
0.247920 0.445449 0.194087
0.281287 0.451059 0.200921
0.317170 0.457798 0.209295
0.355002 0.465708 0.219099
0.394059 0.474651 0.230081
0.433631 0.484397 0.241942
0.473085 0.494695 0.254429
0.511842 0.505284 0.267365
0.549399 0.515865 0.280573
0.585397 0.526179 0.293821
0.619675 0.536174 0.306879
0.652156 0.545926 0.319469
0.682622 0.555360 0.331261
0.710718 0.564220 0.342119
0.736213 0.572472 0.352424
0.759185 0.580590 0.363153
0.779990 0.589147 0.375167
0.799044 0.598439 0.388786
0.816612 0.608371 0.403792
0.832838 0.618712 0.419798
0.847814 0.629261 0.436475
0.861643 0.639873 0.453571
0.874456 0.650440 0.470862
0.886417 0.660872 0.488122
0.897696 0.671087 0.505130
0.908451 0.681019 0.521691
0.918819 0.690618 0.537653
0.928910 0.699852 0.552910
0.142403 0.468487 0.200470
0.163506 0.473230 0.201891
0.185900 0.477496 0.203913
0.210099 0.481503 0.206733
0.236414 0.485472 0.210496
0.265224 0.489804 0.215421
0.296748 0.494933 0.221717
0.330810 0.501117 0.229479
0.366872 0.508394 0.238618
0.404222 0.516623 0.248896
0.442198 0.525612 0.260084
0.480218 0.535155 0.272011
0.517718 0.545013 0.284536
0.554191 0.554905 0.297478
0.589282 0.564603 0.310607
0.622841 0.574078 0.323703
0.654796 0.583381 0.336504
0.684890 0.592393 0.348714
0.712726 0.600773 0.360089
0.738054 0.608423 0.370845
0.760931 0.615822 0.381848
0.781628 0.623437 0.393780
0.800486 0.631523 0.406923
0.817769 0.640076 0.421213
0.833654 0.648987 0.436464
0.848274 0.658152 0.452508
0.861756 0.667486 0.469173
0.874253 0.676904 0.486240
0.885941 0.686305 0.503433
0.896996 0.695590 0.520462
0.907580 0.704673 0.537073
0.917824 0.713491 0.553074
0.927835 0.722005 0.568339
0.167527 0.512718 0.223638
0.187712 0.517509 0.225299
0.208893 0.521669 0.227338
0.231805 0.525536 0.230091
0.256637 0.529265 0.233666
0.283878 0.533282 0.238277
0.313807 0.538005 0.244106
0.346272 0.543698 0.251290
0.380736 0.550385 0.259752
0.416449 0.557891 0.269230
0.452797 0.566070 0.279620
0.489247 0.574761 0.290865
0.525287 0.583763 0.302858
0.560465 0.592854 0.315405
0.594459 0.601868 0.328288
0.627108 0.610766 0.341296
0.658299 0.619535 0.354196
0.687754 0.628024 0.366728
0.715107 0.635970 0.378690
0.740123 0.643297 0.390199
0.762792 0.650261 0.401731
0.783281 0.657156 0.413720
0.801853 0.664191 0.426426
0.818775 0.671470 0.439975
0.834263 0.679027 0.454426
0.848488 0.686866 0.469792
0.861604 0.694965 0.485990
0.873780 0.703256 0.502797
0.885200 0.711633 0.519876
0.896046 0.719978 0.536864
0.906476 0.728191 0.553451
0.916618 0.736203 0.569409
0.926570 0.743970 0.584598
0.193405 0.555868 0.247871
0.212744 0.560660 0.249846
0.232452 0.564426 0.251772
0.253895 0.567963 0.254417
0.277496 0.571547 0.257995
0.303549 0.575430 0.262541
0.332259 0.579929 0.268157
0.363404 0.585234 0.274875
0.396398 0.591338 0.282595
0.430524 0.598098 0.291162
0.465214 0.605411 0.300619
0.499989 0.613161 0.311073
0.534423 0.621207 0.322453
0.568151 0.629408 0.334517
0.600898 0.637667 0.347056
0.632478 0.645933 0.359903
0.662711 0.654127 0.372856
0.691323 0.662085 0.385677
0.718004 0.669630 0.398210
0.742533 0.676695 0.410462
0.764829 0.683330 0.422561
0.784963 0.689644 0.434672
0.803139 0.695803 0.447029
0.819626 0.701997 0.459930
0.834669 0.708377 0.473658
0.848474 0.715040 0.488402
0.861219 0.722019 0.504157
0.873082 0.729261 0.520684
0.884252 0.736653 0.537588
0.894909 0.744072 0.554447
0.905209 0.751417 0.570908
0.915272 0.758615 0.586720
0.925187 0.765625 0.601727
0.219492 0.597354 0.272596
0.238177 0.602159 0.275015
0.256529 0.605539 0.277017
0.276592 0.608738 0.279709
0.298970 0.612118 0.283376
0.323996 0.615922 0.288032
0.351762 0.620313 0.293678
0.381815 0.625314 0.300082
0.413457 0.630854 0.307098
0.446010 0.636849 0.314718
0.479012 0.643268 0.323140
0.512059 0.650019 0.332734
0.544818 0.657035 0.343459
0.577019 0.664289 0.354958
0.608416 0.671739 0.367064
0.638803 0.679340 0.379704
0.667955 0.686965 0.392700
0.695586 0.694394 0.405773
0.721434 0.701508 0.418771
0.745304 0.708266 0.431637
0.767059 0.714573 0.444231
0.786688 0.720381 0.456476
0.804367 0.725840 0.468608
0.820362 0.731192 0.481049
0.834933 0.736642 0.494227
0.848308 0.742346 0.508466
0.860684 0.748372 0.523820
0.872248 0.754675 0.540031
0.883188 0.761150 0.556669
0.893678 0.767681 0.573282
0.903868 0.774178 0.589493
0.913870 0.780577 0.605033
0.923764 0.786840 0.619739
0.244810 0.636404 0.297003
0.263263 0.641403 0.300117
0.280977 0.644795 0.302704
0.299843 0.647683 0.305653
0.320994 0.650759 0.309484
0.345031 0.654434 0.314388
0.371957 0.658746 0.320214
0.401002 0.663456 0.326443
0.431348 0.668443 0.332925
0.462304 0.673645 0.339747
0.493603 0.679154 0.347181
0.524925 0.684883 0.355886
0.556029 0.690863 0.365860
0.586713 0.697168 0.376667
0.616733 0.703795 0.388248
0.645869 0.710723 0.400645
0.673877 0.717802 0.413703
0.700423 0.724662 0.426956
0.725300 0.731264 0.440275
0.748365 0.737643 0.453609
0.769444 0.743605 0.466626
0.788462 0.748978 0.479053
0.805590 0.753936 0.491167
0.821080 0.758721 0.503422
0.835179 0.763525 0.516280
0.848127 0.768510 0.530134
0.860139 0.773763 0.545085
0.871411 0.779253 0.560896
0.882129 0.784895 0.577145
0.892464 0.790599 0.593380
0.902555 0.796295 0.609206
0.912506 0.801931 0.624340
0.922389 0.807478 0.638614
0.268337 0.672287 0.320337
0.286778 0.677535 0.324203
0.304495 0.681242 0.327686
0.322913 0.684179 0.331263
0.343316 0.687173 0.335576
0.366463 0.690689 0.340817
0.392498 0.694826 0.346892
0.420426 0.699161 0.353118
0.449378 0.703558 0.359382
0.478766 0.707991 0.365747
0.508374 0.712551 0.372560
0.538042 0.717298 0.380359
0.567590 0.722324 0.389320
0.596842 0.727742 0.399317
0.625544 0.733591 0.410351
0.653426 0.739824 0.422469
0.680229 0.746260 0.435499
0.705642 0.752544 0.448940
0.729480 0.758628 0.462552
0.751623 0.764545 0.476200
0.771920 0.770121 0.489551
0.790301 0.775197 0.502347
0.806897 0.779892 0.514770
0.821911 0.784381 0.527170
0.835568 0.788804 0.539942
0.848105 0.793294 0.553475
0.859752 0.797941 0.567950
0.870723 0.802747 0.583239
0.881213 0.807662 0.598976
0.891387 0.812627 0.614702
0.901377 0.817592 0.630005
0.911276 0.822525 0.644591
0.921149 0.827406 0.658293
0.290314 0.705120 0.342625
0.308778 0.710475 0.347030
0.326742 0.714489 0.351256
0.345248 0.717732 0.355644
0.365396 0.720865 0.360611
0.387892 0.724271 0.366242
0.412900 0.728077 0.372510
0.439561 0.732014 0.379022
0.467111 0.735894 0.385485
0.494938 0.739627 0.391758
0.522985 0.743367 0.398266
0.551140 0.747228 0.405364
0.579208 0.751329 0.413355
0.607127 0.755935 0.422590
0.634619 0.761094 0.433169
0.661301 0.766645 0.445043
0.686899 0.772377 0.458044
0.711171 0.778068 0.471732
0.733939 0.783622 0.485634
0.755091 0.789020 0.499481
0.774554 0.794195 0.513119
0.792305 0.799075 0.526446
0.808408 0.803681 0.539473
0.822996 0.808076 0.552310
0.836251 0.812321 0.565186
0.848397 0.816496 0.578432
0.859674 0.820693 0.592350
0.870325 0.824953 0.607004
0.880565 0.829263 0.622110
0.890559 0.833592 0.637192
0.900432 0.837916 0.651820
0.910270 0.842223 0.665700
0.920126 0.846509 0.678679
0.311242 0.735342 0.364196
0.329754 0.740697 0.369011
0.347996 0.744918 0.373810
0.366710 0.748400 0.378819
0.386758 0.751635 0.384303
0.408746 0.754964 0.390363
0.432703 0.758458 0.396910
0.458064 0.761974 0.403687
0.484177 0.765336 0.410375
0.510573 0.768512 0.416925
0.537327 0.771702 0.423666
0.564204 0.774880 0.430451
0.590841 0.778089 0.437721
0.617532 0.781975 0.446453
0.643913 0.786531 0.456744
0.669454 0.791438 0.468447
0.693897 0.796499 0.481562
0.717038 0.801555 0.495593
0.738702 0.806496 0.509696
0.758833 0.811327 0.523588
0.777453 0.816097 0.537453
0.794583 0.820804 0.551381
0.810233 0.825389 0.565199
0.824441 0.829787 0.578679
0.837336 0.833980 0.591828
0.849113 0.837989 0.604887
0.860015 0.841891 0.618254
0.870322 0.845746 0.632192
0.880281 0.849572 0.646521
0.890067 0.853369 0.660776
0.899802 0.857147 0.674534
0.909563 0.860916 0.687526
0.919392 0.864688 0.699620
0.331431 0.763356 0.385285
0.350008 0.768661 0.390491
0.368485 0.772990 0.395780
0.387398 0.776621 0.401302
0.407368 0.779906 0.407227
0.428832 0.783108 0.413626
0.451812 0.786303 0.420416
0.475959 0.789417 0.427399
0.500810 0.792356 0.434381
0.526036 0.795123 0.441341
0.551635 0.797873 0.448408
0.577338 0.800535 0.455355
0.602810 0.803141 0.462614
0.628298 0.806341 0.471187
0.653498 0.810242 0.481310
0.677868 0.814476 0.492863
0.701174 0.818853 0.506164
0.723212 0.823249 0.520663
0.743750 0.827505 0.534750
0.762836 0.831690 0.548350
0.780616 0.836013 0.562276
0.797152 0.840537 0.576839
0.812402 0.845121 0.591621
0.826276 0.849536 0.605887
0.838867 0.853750 0.619510
0.850312 0.857734 0.632618
0.860838 0.861491 0.645556
0.870776 0.865067 0.658712
0.880419 0.868511 0.672068
0.889965 0.871871 0.685262
0.899540 0.875196 0.697929
0.909212 0.878523 0.709839
0.919009 0.881877 0.720897
0.351020 0.789456 0.405980
0.369644 0.794674 0.411580
0.388276 0.799031 0.417317
0.407304 0.802729 0.423295
0.427152 0.806012 0.429613
0.448120 0.809073 0.436309
0.470247 0.811995 0.443320
0.493336 0.814766 0.450518
0.517101 0.817359 0.457795
0.541312 0.819799 0.465128
0.565840 0.822153 0.472536
0.590472 0.824419 0.480027
0.614992 0.826681 0.487903
0.639349 0.829282 0.496770
0.663284 0.832441 0.507019
0.686447 0.835945 0.518742
0.708634 0.839598 0.532147
0.729565 0.843305 0.546621
0.748959 0.846824 0.560304
0.767033 0.850314 0.573315
0.784002 0.854132 0.587118
0.799934 0.858378 0.602174
0.814826 0.862932 0.618039
0.828417 0.867350 0.633191
0.840804 0.871677 0.647583
0.851982 0.875748 0.661043
0.862133 0.879468 0.673737
0.871678 0.882866 0.686089
0.880980 0.886019 0.698303
0.890270 0.889035 0.710234
0.899680 0.892008 0.721620
0.909265 0.895000 0.732301
0.919028 0.898040 0.742214
0.370062 0.813861 0.426292
0.388690 0.818959 0.432278
0.407383 0.823282 0.438431
0.426420 0.826974 0.444820
0.446091 0.830208 0.451500
0.466601 0.833128 0.458487
0.487998 0.835816 0.465741
0.510184 0.838300 0.473191
0.532986 0.840595 0.480781
0.556233 0.842734 0.488505
0.579767 0.844758 0.496396
0.603400 0.846699 0.504536
0.626935 0.848639 0.513153
0.650203 0.850763 0.522629
0.672945 0.853228 0.533307
0.694951 0.855983 0.545347
0.716055 0.858886 0.558538
0.735829 0.861802 0.572113
0.754238 0.864664 0.585394
0.771482 0.867588 0.598308
0.787685 0.870841 0.611910
0.802933 0.874586 0.626901
0.817351 0.878856 0.643451
0.830770 0.883341 0.659609
0.843043 0.887845 0.675003
0.854000 0.892049 0.689055
0.863780 0.895792 0.701791
0.872949 0.899093 0.713426
0.881925 0.902054 0.724463
0.890981 0.904837 0.735054
0.900250 0.907577 0.745082
0.909765 0.910351 0.754483
0.919502 0.913189 0.763224
0.388579 0.836751 0.446202
0.407156 0.841700 0.452557
0.425820 0.845936 0.459094
0.444775 0.849567 0.465857
0.464221 0.852716 0.472880
0.484301 0.855495 0.480169
0.505066 0.857982 0.487703
0.526470 0.860226 0.495449
0.548406 0.862261 0.503392
0.570743 0.864127 0.511548
0.593329 0.865863 0.519968
0.615984 0.867507 0.528748
0.638510 0.869124 0.538058
0.660701 0.870823 0.548139
0.682346 0.872698 0.559212
0.703270 0.874761 0.571321
0.723275 0.876954 0.584180
0.742114 0.879207 0.597262
0.759760 0.881510 0.610264
0.776310 0.883937 0.623267
0.791864 0.886677 0.636906
0.806539 0.889940 0.651887
0.820397 0.893723 0.667906
0.833434 0.897950 0.684532
0.845440 0.902431 0.700736
0.856128 0.906668 0.715426
0.865649 0.910469 0.728420
0.874531 0.913744 0.739531
0.883261 0.916658 0.749631
0.892140 0.919341 0.758991
0.901306 0.921971 0.767733
0.910774 0.924646 0.775929
0.920485 0.927389 0.783569
0.406585 0.858282 0.465685
0.425058 0.863057 0.472387
0.443621 0.867168 0.479278
0.462422 0.870696 0.486389
0.481604 0.873734 0.493741
0.501271 0.876371 0.501340
0.521468 0.878680 0.509181
0.542176 0.880714 0.517257
0.563323 0.882521 0.525576
0.584804 0.884141 0.534169
0.606480 0.885613 0.543095
0.628182 0.886977 0.552439
0.649719 0.888282 0.562320
0.670893 0.889596 0.572882
0.691519 0.890984 0.584233
0.711434 0.892483 0.596350
0.730479 0.894096 0.609010
0.748521 0.895822 0.621910
0.765521 0.897675 0.634919
0.781516 0.899716 0.648164
0.796565 0.902081 0.662048
0.810728 0.904910 0.676882
0.824033 0.908193 0.692466
0.836520 0.911944 0.708783
0.848056 0.916024 0.724920
0.858486 0.920030 0.739691
0.867892 0.923725 0.752532
0.876576 0.927039 0.763425
0.885141 0.930017 0.772939
0.893858 0.932712 0.781336
0.902940 0.935346 0.789043
0.912363 0.938022 0.796240
0.922032 0.940755 0.802936
0.424094 0.878596 0.484718
0.442420 0.883179 0.491744
0.460825 0.887136 0.498962
0.479420 0.890533 0.506396
0.498308 0.893441 0.514064
0.517569 0.895933 0.521973
0.537239 0.898076 0.530130
0.557308 0.899923 0.538542
0.577724 0.901523 0.547229
0.598397 0.902920 0.556231
0.619206 0.904152 0.565600
0.639995 0.905255 0.575404
0.660591 0.906273 0.585722
0.680816 0.907255 0.596633
0.700507 0.908256 0.608180
0.719520 0.909324 0.620320
0.737735 0.910498 0.632908
0.755064 0.911812 0.645784
0.771471 0.913303 0.658914
0.786962 0.915029 0.672423
0.801546 0.917072 0.686492
0.815217 0.919498 0.701162
0.828007 0.922330 0.716397
0.839963 0.925568 0.732083
0.851050 0.929099 0.747582
0.861218 0.932708 0.761923
0.870521 0.936202 0.774396
0.879186 0.939454 0.784834
0.887653 0.942442 0.793810
0.896257 0.945215 0.801630
0.905252 0.947929 0.808672
0.914587 0.950663 0.815138
0.924170 0.953434 0.821092
0.441122 0.897823 0.503281
0.459266 0.902201 0.510606
0.477471 0.905987 0.518126
0.495822 0.909233 0.525860
0.514396 0.911998 0.533824
0.533253 0.914343 0.542032
0.552419 0.916326 0.550493
0.571889 0.918001 0.559224
0.591618 0.919414 0.568250
0.611531 0.920607 0.577608
0.631520 0.921621 0.587342
0.651447 0.922491 0.597502
0.671161 0.923257 0.608138
0.690508 0.923964 0.619289
0.709344 0.924664 0.630967
0.727546 0.925408 0.643129
0.745017 0.926250 0.655689
0.761686 0.927238 0.668569
0.777516 0.928420 0.681766
0.792492 0.929849 0.695351
0.806596 0.931574 0.709377
0.819809 0.933634 0.723812
0.832154 0.936050 0.738600
0.843681 0.938810 0.753588
0.854406 0.941841 0.768297
0.864339 0.945035 0.781892
0.873555 0.948265 0.793695
0.882257 0.951384 0.803765
0.890754 0.954342 0.812397
0.899345 0.957175 0.819890
0.908231 0.959963 0.826524
0.917427 0.962761 0.832493
0.926879 0.965586 0.837907
0.457684 0.916084 0.521355
0.475619 0.920249 0.528955
0.493595 0.923852 0.536750
0.511675 0.926936 0.544759
0.529919 0.929550 0.552997
0.548371 0.931746 0.561479
0.567050 0.933576 0.570219
0.585950 0.935089 0.579236
0.605032 0.936331 0.588555
0.624229 0.937342 0.598208
0.643447 0.938163 0.608227
0.662568 0.938830 0.618650
0.681462 0.939383 0.629504
0.699996 0.939867 0.640808
0.718046 0.940329 0.652556
0.735505 0.940825 0.664714
0.752289 0.941408 0.677231
0.768334 0.942133 0.690064
0.783600 0.943047 0.703208
0.798060 0.944198 0.716682
0.811690 0.945624 0.730481
0.824479 0.947355 0.744550
0.836447 0.949404 0.758792
0.847634 0.951763 0.773013
0.858084 0.954387 0.786808
0.867843 0.957214 0.799565
0.877009 0.960152 0.810823
0.885756 0.963092 0.820571
0.894316 0.965978 0.828981
0.902919 0.968817 0.836271
0.911725 0.971643 0.842652
0.920787 0.974486 0.848300
0.930096 0.977355 0.853345
0.473792 0.933488 0.538925
0.491500 0.937438 0.546774
0.509225 0.940853 0.554817
0.527017 0.943769 0.563073
0.544920 0.946228 0.571556
0.562968 0.948276 0.580282
0.581174 0.949958 0.589267
0.599528 0.951321 0.598529
0.617996 0.952408 0.608089
0.636520 0.953258 0.617972
0.655017 0.953910 0.628204
0.673387 0.954405 0.638808
0.691520 0.954780 0.649798
0.709300 0.955081 0.661180
0.726622 0.955356 0.672941
0.743392 0.955655 0.685054
0.759532 0.956033 0.697482
0.774986 0.956541 0.710195
0.789710 0.957227 0.723174
0.803674 0.958132 0.736407
0.816861 0.959293 0.749859
0.829264 0.960735 0.763455
0.840903 0.962472 0.777074
0.851818 0.964499 0.790508
0.862059 0.966790 0.803424
0.871697 0.969302 0.815412
