app/src/main/assets/luts/GR-Negative_V4.cube
TITLE "Ricoh Negative"
#Lut generated by JC from Ricoh GR3X HDF
LUT_3D_SIZE 5
DOMAIN_MIN 0.0 0.0 0.0
DOMAIN_MAX 1.0 1.0 1.0
0.000000 0.000000 0.000000
0.357289 0.087121 0.036821
0.630507 0.190698 0.054094
0.823755 0.288686 0.075801
1.000000 0.377228 0.111661
0.000000 0.232313 0.107737
0.247042 0.268048 0.112803
0.577472 0.343219 0.134890
0.794824 0.416896 0.134099
0.990130 0.497292 0.173146
0.000000 0.469152 0.236202
0.116745 0.492156 0.248580
0.490083 0.529373 0.258844
0.752592 0.578649 0.259813
0.967520 0.633325 0.273332
0.000000 0.652274 0.352589
0.018181 0.673963 0.379660
0.350723 0.697483 0.409970
0.680511 0.732847 0.432987
0.926946 0.777553 0.425741
0.000000 0.812310 0.457469
0.000000 0.834970 0.490108
0.223052 0.855889 0.524295
0.555803 0.884099 0.550671
0.838831 0.921921 0.556939
0.125597 0.065053 0.243935
0.409938 0.139268 0.262036
0.652065 0.255531 0.295123
0.825818 0.361491 0.318150
1.000000 0.438346 0.328500
0.031814 0.274662 0.299327
0.298021 0.306387 0.303808
0.620011 0.369068 0.320633
0.802700 0.448483 0.341941
0.983947 0.536033 0.375181
0.000000 0.495099 0.375422
0.114697 0.511178 0.378767
0.515912 0.545821 0.390305
0.764507 0.595771 0.415819
0.963181 0.652855 0.448082
0.000000 0.676619 0.475070
0.000000 0.688661 0.489243
0.327332 0.708550 0.507518
0.691747 0.741254 0.533085
0.931938 0.788682 0.568840
0.000000 0.837174 0.574338
0.000000 0.851966 0.596033
0.183569 0.867393 0.621719
0.558919 0.893034 0.651784
0.855103 0.931830 0.677675
0.244183 0.098878 0.486476
0.490286 0.193620 0.508393
0.687728 0.317455 0.525592
0.846605 0.427761 0.537447
1.000000 0.495520 0.533987
0.177049 0.327909 0.529986
0.410911 0.364203 0.534921
0.652687 0.422410 0.541386
0.822665 0.502045 0.557552
0.989777 0.580390 0.569232
0.032018 0.534984 0.565069
0.224806 0.548741 0.570291
0.580518 0.583660 0.580703
0.793272 0.618061 0.586295
0.969374 0.674615 0.605720
0.000000 0.705561 0.620178
0.000000 0.712484 0.625867
0.370478 0.729927 0.635476
0.728736 0.757425 0.649555
0.940686 0.798421 0.678368
0.000000 0.861202 0.697166
0.000000 0.870503 0.706269
0.185392 0.881370 0.719083
0.584683 0.901929 0.739503
0.876361 0.939126 0.772002
0.388332 0.180348 0.680803
0.583216 0.263550 0.695584
0.735792 0.372867 0.704454
0.886708 0.476254 0.710379
1.000000 0.542826 0.709014
0.362091 0.406396 0.717016
0.545790 0.449130 0.719995
0.699656 0.503921 0.724483
0.853379 0.569866 0.731071
1.000000 0.631073 0.735264
0.217147 0.586350 0.740080
0.454605 0.606784 0.745473
0.658111 0.634807 0.748735
0.826688 0.667625 0.749310
0.988768 0.717642 0.757432
0.000000 0.741191 0.774224
0.134853 0.748406 0.775201
0.490296 0.761954 0.778905
0.781501 0.784982 0.781999
0.966355 0.823580 0.798207
0.000000 0.890009 0.835202
0.000000 0.895647 0.834505
0.262415 0.902321 0.835832
0.643496 0.917398 0.840946
0.916329 0.953443 0.868088
0.513970 0.285038 0.855760
0.693329 0.359013 0.867771
0.831634 0.443698 0.873402
0.971045 0.523776 0.874297
1.000000 0.586153 0.871595
0.491080 0.479401 0.891591
0.679798 0.529825 0.897436
0.807630 0.582587 0.899640
0.935221 0.636145 0.897726
1.000000 0.685580 0.895980
0.385093 0.647396 0.918665
0.611328 0.676215 0.921446
0.765994 0.704990 0.921742
0.900928 0.735905 0.914916
1.000000 0.776562 0.914804
0.147359 0.787621 0.947448
0.375859 0.798877 0.945031
0.616947 0.812777 0.943339
0.841316 0.834350 0.934123
1.000000 0.873493 0.941152
0.000000 0.925884 0.992111
0.127022 0.932918 0.987126
0.407638 0.940003 0.981669
0.722734 0.955918 0.975911
1.000000 1.000000 1.000000
