app/src/main/assets/luts/GR-Negative_V4.cube
TITLE "Ricoh Negative"
#Lut generated by JC from Ricoh GR3X HDF
LUT_3D_SIZE 33
DOMAIN_MIN 0.0 0.0 0.0
DOMAIN_MAX 1.0 1.0 1.0
0.000000 0.000000 0.000000
0.052664 0.018870 0.011707
0.092347 0.027146 0.014306
0.135221 0.035986 0.017561
0.179912 0.045148 0.021100
0.225273 0.054650 0.024803
0.270392 0.064666 0.028657
0.314548 0.075437 0.032673
0.357289 0.087121 0.036821
0.398354 0.099723 0.040993
0.437539 0.113051 0.044994
0.474716 0.126711 0.048517
0.509786 0.140176 0.051133
0.542700 0.153124 0.052637
0.573642 0.165728 0.053336
0.602850 0.178201 0.053633
0.630507 0.190698 0.054094
0.656776 0.203152 0.055104
0.681967 0.215473 0.056731
0.706398 0.227700 0.058897
0.730314 0.239913 0.061521
0.753892 0.252143 0.064560
0.777260 0.264378 0.067984
0.800520 0.276578 0.071750
0.823755 0.288686 0.075801
0.847032 0.300645 0.080071
0.870401 0.312402 0.084493
0.893898 0.323914 0.089007
0.917551 0.335153 0.093567
0.941375 0.346104 0.098134
0.965381 0.356764 0.102683
0.989572 0.367135 0.107196
1.000000 0.377228 0.111661
0.007440 0.036566 0.019779
0.041880 0.043397 0.020983
0.081040 0.051175 0.023398
0.123904 0.059316 0.026406
0.168961 0.067621 0.029660
0.214930 0.076175 0.033090
0.260814 0.085214 0.036701
0.305759 0.095070 0.040542
0.349297 0.105956 0.044590
0.391182 0.117892 0.048710
0.431144 0.130657 0.052681
0.469067 0.143792 0.056178
0.504857 0.156686 0.058722
0.538421 0.169077 0.060167
0.569819 0.181186 0.060795
0.599335 0.193307 0.061006
0.627233 0.205468 0.061229
0.653715 0.217553 0.061799
0.679089 0.229539 0.062885
0.703639 0.241507 0.064521
0.727602 0.253548 0.066711
0.751165 0.265696 0.069452
0.774476 0.277927 0.072722
0.797660 0.290181 0.076463
0.820816 0.302382 0.080591
0.844021 0.314451 0.085008
0.867330 0.326321 0.089620
0.890781 0.337941 0.094348
0.914398 0.349279 0.099132
0.938197 0.360317 0.103926
0.962184 0.371052 0.108701
0.986361 0.381488 0.113435
1.000000 0.391637 0.118114
0.000000 0.062859 0.030447
0.032622 0.069343 0.031481
0.070397 0.076484 0.033502
0.112300 0.083796 0.036053
0.156972 0.091180 0.038889
0.202986 0.098767 0.041939
0.249229 0.106815 0.045206
0.294746 0.115713 0.048788
0.339016 0.125719 0.052665
0.381705 0.136848 0.056625
0.422481 0.148859 0.060407
0.461261 0.161308 0.063776
0.497934 0.173639 0.066361
0.532375 0.185658 0.068046
0.564511 0.197463 0.068917
0.594630 0.209269 0.069258
0.623043 0.221042 0.069348
0.649992 0.232692 0.069475
0.675747 0.244271 0.069919
0.700560 0.255901 0.070880
0.724667 0.267695 0.072491
0.748275 0.279694 0.074818
0.771568 0.291868 0.077858
0.794703 0.304134 0.081530
0.817806 0.316389 0.085709
0.840963 0.328532 0.090255
0.864236 0.340480 0.095043
0.887664 0.352175 0.099971
0.911268 0.363578 0.104966
0.935061 0.374672 0.109975
0.959046 0.385454 0.114964
0.983224 0.395930 0.119910
1.000000 0.406114 0.124797
0.000000 0.089872 0.041826
0.024546 0.095883 0.042584
0.060504 0.102327 0.044138
0.100745 0.108881 0.046228
0.144256 0.115480 0.048657
0.189621 0.122233 0.051300
0.235664 0.129410 0.054168
0.281415 0.137418 0.057406
0.326262 0.146541 0.061002
0.369731 0.156805 0.064718
0.411432 0.167983 0.068297
0.451235 0.179715 0.071602
0.488966 0.191578 0.074387
0.524450 0.203332 0.076441
0.557625 0.214939 0.077692
0.588676 0.226433 0.078231
0.617890 0.237788 0.078248
0.645530 0.248983 0.078007
0.671834 0.260105 0.077841
0.697037 0.271315 0.078093
0.721380 0.282761 0.079048
0.745103 0.294507 0.080877
0.768434 0.306523 0.083614
0.791570 0.318711 0.087163
0.814661 0.330940 0.091348
0.837811 0.343084 0.095985
0.861085 0.355044 0.100911
0.884522 0.366752 0.106005
0.908142 0.378166 0.111179
0.931953 0.389268 0.116376
0.955957 0.400054 0.121556
0.980152 0.410533 0.126694
1.000000 0.420719 0.131772
0.000000 0.117283 0.053701
0.017779 0.122683 0.054092
0.051827 0.128389 0.055164
0.089967 0.134244 0.056799
0.131596 0.140188 0.058824
0.175580 0.146287 0.061083
0.220819 0.152794 0.063583
0.266373 0.160090 0.066450
0.311521 0.168454 0.069691
0.355684 0.177938 0.073149
0.398399 0.188379 0.076636
0.439355 0.199476 0.079994
0.478280 0.210892 0.083004
0.514962 0.222370 0.085418
0.549332 0.233762 0.087051
0.581504 0.244981 0.087851
0.611712 0.255974 0.087907
0.640204 0.266743 0.087430
0.667192 0.277392 0.086760
0.692889 0.288115 0.086345
0.717558 0.299105 0.086623
0.741485 0.310465 0.087892
0.764939 0.322187 0.090253
0.788154 0.334166 0.093604
0.811305 0.346249 0.097726
0.834509 0.358288 0.102385
0.857838 0.370165 0.107386
0.881329 0.381802 0.112584
0.905001 0.393151 0.117884
0.928860 0.404194 0.123222
0.952907 0.414928 0.128557
0.977137 0.425362 0.133858
1.000000 0.435509 0.139105
0.000000 0.145095 0.066100
0.012251 0.149843 0.066098
0.044333 0.154815 0.066684
0.080145 0.159980 0.067832
0.119459 0.165320 0.069419
0.161549 0.170897 0.071316
0.205520 0.176928 0.073504
0.250491 0.183724 0.076061
0.295671 0.191527 0.079006
0.340377 0.200405 0.082264
0.384031 0.210250 0.085699
0.426150 0.220823 0.089147
0.466333 0.231831 0.092381
0.504289 0.243013 0.095129
0.539904 0.254160 0.097136
0.573247 0.265112 0.098249
0.604518 0.275778 0.098456
0.633940 0.286151 0.097880
0.661688 0.296322 0.096828
0.687956 0.306503 0.095818
0.713040 0.316932 0.095429
0.737272 0.327769 0.096101
0.760960 0.339048 0.098018
0.784361 0.350672 0.101088
0.807668 0.362473 0.105053
0.831008 0.374281 0.109637
0.854457 0.385960 0.114615
0.878057 0.397423 0.119831
0.901825 0.408618 0.125183
0.925767 0.419524 0.130602
0.949883 0.430139 0.136043
0.974169 0.440471 0.141470
0.998622 0.450533 0.146855
0.000000 0.173451 0.079153
0.007698 0.177596 0.078784
0.037683 0.181893 0.078909
0.071058 0.186411 0.079572
0.107907 0.191196 0.080722
0.147874 0.196328 0.082264
0.190313 0.201993 0.084169
0.234431 0.208431 0.086469
0.279406 0.215828 0.089187
0.324465 0.224248 0.092287
0.368907 0.233621 0.095676
0.412106 0.243761 0.099199
0.453517 0.254412 0.102629
0.492738 0.265303 0.105680
0.529574 0.276179 0.108046
0.564055 0.286833 0.109500
0.596369 0.297165 0.109943
0.626713 0.307139 0.109376
0.655238 0.316818 0.108049
0.682141 0.326415 0.106542
0.707734 0.336209 0.105547
0.732382 0.346422 0.105639
0.756423 0.357142 0.107083
0.780131 0.368288 0.109798
0.803704 0.379681 0.113500
0.827274 0.391132 0.117884
0.850922 0.402494 0.122718
0.874690 0.413673 0.127843
0.898601 0.424617 0.133157
0.922661 0.435303 0.138588
0.946873 0.445729 0.144080
0.971238 0.455900 0.149589
0.995752 0.465827 0.155080
0.000000 0.202502 0.093005
0.003965 0.206162 0.092365
0.031712 0.209900 0.092107
0.062559 0.213861 0.092338
0.096885 0.218148 0.093068
0.134652 0.222870 0.094249
0.175435 0.228196 0.095857
0.218541 0.234317 0.097909
0.263138 0.241367 0.100417
0.308374 0.249392 0.103357
0.353435 0.258345 0.106660
0.397561 0.268082 0.110187
0.440081 0.278376 0.113728
0.480478 0.288955 0.117003
0.518464 0.299521 0.119678
0.554020 0.309835 0.121463
0.587331 0.319815 0.122200
0.618563 0.329386 0.121747
0.647863 0.338564 0.120274
0.675459 0.347574 0.118422
0.701655 0.356714 0.116956
0.726823 0.366267 0.116552
0.751332 0.376376 0.117544
0.775464 0.386969 0.119849
0.799411 0.397855 0.123172
0.823304 0.408837 0.127216
0.847225 0.419770 0.131766
0.871221 0.430561 0.136681
0.895319 0.441160 0.141861
0.919532 0.451547 0.147230
0.943869 0.461715 0.152718
0.968333 0.471667 0.158268
0.992924 0.481411 0.163829
0.000000 0.232313 0.107737
0.001005 0.235643 0.106964
0.026362 0.238966 0.106444
0.054563 0.242474 0.106318
0.086301 0.246321 0.106656
0.121824 0.250643 0.107467
0.160900 0.255606 0.108754
0.202920 0.261374 0.110532
0.247042 0.268048 0.112803
0.292333 0.275657 0.115536
0.337863 0.284164 0.118668
0.382747 0.293450 0.122081
0.426202 0.303313 0.125589
0.467619 0.313485 0.128939
0.506644 0.323662 0.131803
0.543210 0.333602 0.133861
0.577472 0.343219 0.134890
0.609583 0.352417 0.134676
0.639698 0.361162 0.133302
0.668053 0.369633 0.131344
0.694925 0.378158 0.129613
0.720695 0.387083 0.128858
0.745765 0.396586 0.129443
0.770414 0.406589 0.131281
0.794824 0.416896 0.134099
0.819117 0.427321 0.137653
0.843375 0.437732 0.141778
0.867650 0.448046 0.146365
0.891975 0.458221 0.151323
0.916373 0.468239 0.156563
0.940860 0.478090 0.161998
0.965444 0.487774 0.167548
0.990130 0.497292 0.173146
0.000000 0.262818 0.123308
0.000000 0.265964 0.122544
0.021594 0.269000 0.121874
0.046983 0.272152 0.121477
0.076020 0.275606 0.121481
0.109239 0.279525 0.121944
0.146579 0.284084 0.122902
0.187497 0.289438 0.124379
0.231124 0.295669 0.126366
0.276425 0.302794 0.128821
0.322338 0.310781 0.131682
0.367855 0.319531 0.134854
0.412093 0.328859 0.138186
0.454377 0.338507 0.141453
0.494314 0.348198 0.144364
0.531816 0.357721 0.146603
0.567001 0.366970 0.147898
0.600002 0.375844 0.148039
0.630972 0.384235 0.147000
0.660129 0.392246 0.145195
0.687725 0.400254 0.143458
0.714156 0.408635 0.142527
0.739844 0.417564 0.142742
0.765067 0.426962 0.144044
0.789995 0.436645 0.146235
0.814742 0.446451 0.149160
0.839386 0.456272 0.152734
0.863980 0.466046 0.156893
0.888566 0.475740 0.161555
0.913177 0.485339 0.166613
0.937837 0.494831 0.171953
0.962561 0.504208 0.177468
0.987356 0.513466 0.183073
0.000000 0.293820 0.139564
0.000000 0.296894 0.138932
0.017316 0.299736 0.138195
0.039700 0.302603 0.137619
0.065879 0.305694 0.137380
0.096693 0.309204 0.137566
0.132269 0.313330 0.138234
0.172114 0.318225 0.139413
0.215293 0.323955 0.141080
0.260640 0.330524 0.143180
0.306935 0.337912 0.145676
0.353032 0.346044 0.148517
0.397965 0.354752 0.151584
0.441020 0.363798 0.154676
0.481788 0.372935 0.157528
0.520166 0.381978 0.159844
0.556255 0.390812 0.161346
0.590139 0.399330 0.161846
0.621940 0.407386 0.161249
0.651874 0.415036 0.159829
0.680209 0.422675 0.158341
0.707341 0.430632 0.157394
0.733679 0.439046 0.157278
0.759500 0.447851 0.157999
0.784975 0.456897 0.159476
0.810208 0.466056 0.161672
0.835269 0.475254 0.164601
0.860212 0.484454 0.168259
0.885088 0.493638 0.172572
0.909937 0.502790 0.177407
0.934793 0.511896 0.182617
0.959675 0.520942 0.188066
0.984594 0.529917 0.193649
0.000000 0.325005 0.156216
0.000000 0.328080 0.155827
0.013246 0.330789 0.155097
0.032494 0.333414 0.154466
0.055662 0.336156 0.154123
0.083952 0.339274 0.154170
0.117745 0.342981 0.154649
0.156579 0.347414 0.155580
0.199407 0.352613 0.156917
0.244895 0.358568 0.158593
0.291631 0.365288 0.160644
0.338312 0.372740 0.163099
0.383904 0.380781 0.165874
0.427699 0.389186 0.168759
0.469292 0.397728 0.171491
0.508548 0.406231 0.173794
0.545515 0.414569 0.175413
0.580239 0.422628 0.176170
0.612823 0.430316 0.176006
0.643483 0.437716 0.175135
0.672531 0.445111 0.174055
0.700362 0.452749 0.173202
0.727353 0.460727 0.172814
0.753778 0.468990 0.172969
0.779806 0.477429 0.173710
0.805536 0.485955 0.175135
0.831031 0.494534 0.177371
0.856346 0.503160 0.180483
0.881535 0.511828 0.184407
0.906648 0.520528 0.188983
0.931721 0.529240 0.194030
0.956777 0.537945 0.199384
0.981833 0.546625 0.204917
0.000000 0.355848 0.172799
0.000000 0.359054 0.172717
0.008941 0.361687 0.172220
0.025079 0.364091 0.171724
0.045164 0.366528 0.171475
0.070834 0.369325 0.171589
0.102833 0.372699 0.172073
0.140727 0.376718 0.172862
0.183303 0.381372 0.173866
0.229017 0.386657 0.175054
0.276258 0.392642 0.176581
0.323541 0.399377 0.178628
0.369787 0.406746 0.181131
0.414346 0.414506 0.183814
0.456813 0.422435 0.186400
0.496993 0.430369 0.188650
0.534842 0.438172 0.190344
0.570386 0.445738 0.191313
0.603729 0.453039 0.191533
0.635094 0.460179 0.191166
0.664825 0.467353 0.190494
0.693324 0.474725 0.189771
0.720950 0.482341 0.189172
0.747961 0.490141 0.188821
0.774527 0.498037 0.188868
0.800747 0.505980 0.189537
0.826681 0.513978 0.191075
0.852383 0.522058 0.193618
0.877909 0.530233 0.197117
0.903308 0.538495 0.201395
0.928617 0.546821 0.206241
0.953862 0.555186 0.211466
0.979063 0.563568 0.216918
0.000000 0.385950 0.189179
0.000000 0.389298 0.189471
0.004277 0.391928 0.189362
0.017502 0.394206 0.189208
0.034473 0.396430 0.189257
0.057415 0.399010 0.189644
0.087612 0.402175 0.190338
0.124567 0.405858 0.191126
0.166875 0.409981 0.191857
0.212758 0.414550 0.192534
0.260498 0.419728 0.193465
0.308361 0.425730 0.195109
0.355260 0.432457 0.197401
0.400670 0.439590 0.199894
0.444121 0.446910 0.202320
0.485314 0.454280 0.204514
0.524117 0.461562 0.206285
0.560535 0.468641 0.207437
0.594669 0.475529 0.207959
0.626753 0.482355 0.207986
0.657157 0.489277 0.207649
0.686303 0.496396 0.207048
0.714532 0.503704 0.206294
0.742095 0.511120 0.205525
0.769169 0.518556 0.204959
0.795863 0.525993 0.204929
0.822234 0.533477 0.205788
0.848336 0.541065 0.207739
0.874217 0.548787 0.210769
0.899921 0.556639 0.214700
0.925481 0.564599 0.219302
0.950923 0.572637 0.224362
0.976271 0.580726 0.229702
0.000000 0.414993 0.205290
0.000000 0.418491 0.206024
0.000000 0.421202 0.206404
0.009915 0.423448 0.206732
0.024047 0.425616 0.207269
0.044364 0.428127 0.208126
0.072568 0.431163 0.209170
0.108347 0.434564 0.210071
0.150124 0.438195 0.210668
0.195799 0.442047 0.210936
0.243792 0.446399 0.211330
0.292131 0.451663 0.212607
0.339785 0.457751 0.214674
0.386267 0.464260 0.216929
0.430915 0.470992 0.219166
0.473296 0.477832 0.221307
0.513183 0.484640 0.223185
0.550582 0.491244 0.224489
0.585586 0.497699 0.225236
0.618427 0.504178 0.225574
0.649515 0.510812 0.225518
0.679300 0.517670 0.225046
0.708108 0.524702 0.224214
0.736190 0.531798 0.223142
0.763745 0.538863 0.222070
0.790898 0.545888 0.221406
0.817708 0.552945 0.221592
0.844220 0.560114 0.222919
0.870473 0.567439 0.225426
0.896494 0.574923 0.228958
0.922310 0.582546 0.233273
0.947948 0.590275 0.238130
0.973439 0.598081 0.243324
0.000000 0.442725 0.220957
0.000000 0.446382 0.222160
0.000000 0.449267 0.223125
0.002208 0.451615 0.224023
0.014372 0.453881 0.225168
0.032480 0.456435 0.226597
0.058513 0.459381 0.228070
0.092632 0.462528 0.229171
0.133162 0.465689 0.229754
0.178063 0.468919 0.229930
0.225596 0.472597 0.230185
0.274259 0.477103 0.231108
0.322950 0.482442 0.232737
0.370793 0.488331 0.234685
0.416932 0.494537 0.236736
0.460747 0.500896 0.238807
0.501912 0.507239 0.240735
0.540403 0.513408 0.242219
0.576338 0.519469 0.243230
0.609989 0.525599 0.243854
0.641795 0.531930 0.244062
0.672216 0.538512 0.243785
0.701596 0.545279 0.243006
0.730199 0.552105 0.241780
0.758240 0.558886 0.240320
0.785857 0.565606 0.239066
0.813117 0.572338 0.238561
0.840053 0.579172 0.239217
0.866686 0.586165 0.241155
0.893026 0.593329 0.244242
0.919091 0.600645 0.248228
0.944915 0.608085 0.252842
0.970537 0.615619 0.257846
0.000000 0.469152 0.236202
0.000000 0.472893 0.237767
0.000000 0.475939 0.239243
0.000000 0.478516 0.240770
0.005640 0.480985 0.242534
0.022286 0.483607 0.244485
0.046308 0.486454 0.246351
0.078244 0.489400 0.247792
0.116745 0.492156 0.248580
0.160112 0.494851 0.248885
0.206650 0.497948 0.249192
0.255358 0.501770 0.249928
0.304960 0.506399 0.251212
0.354244 0.511740 0.252927
0.402063 0.517534 0.254873
0.447498 0.523480 0.256888
0.490083 0.529373 0.258844
0.529744 0.535131 0.260554
0.566651 0.540819 0.261876
0.601153 0.546596 0.262783
0.633717 0.552609 0.263272
0.664811 0.558912 0.263288
0.694812 0.565441 0.262727
0.724002 0.572059 0.261526
0.752592 0.578649 0.259813
0.780721 0.585174 0.258018
0.808457 0.591677 0.256802
0.835831 0.598253 0.256746
0.862846 0.604973 0.258069
0.889495 0.611856 0.260663
0.915794 0.618892 0.264265
0.941784 0.626057 0.268578
0.967520 0.633325 0.273332
0.000000 0.494463 0.251217
0.000000 0.498238 0.253078
0.000000 0.501420 0.254977
0.000000 0.504195 0.257003
0.000000 0.506814 0.259224
0.013465 0.509461 0.261547
0.035921 0.512178 0.263725
0.065483 0.514839 0.265451
0.101448 0.517250 0.266530
0.142474 0.519636 0.267205
0.187722 0.522376 0.267864
0.236318 0.525681 0.268675
0.286465 0.529719 0.269870
0.336964 0.534647 0.271573
0.386383 0.540138 0.273543
0.433408 0.545720 0.275544
0.477401 0.551188 0.277588
0.518239 0.556523 0.279570
0.556141 0.561800 0.281179
0.591521 0.567184 0.282318
0.624891 0.572855 0.283090
0.656747 0.578895 0.283503
0.687494 0.585245 0.283347
0.717414 0.591750 0.282373
0.746683 0.598263 0.280593
0.775419 0.604698 0.278387
0.803683 0.611051 0.276503
0.831514 0.617418 0.275701
0.858906 0.623892 0.276335
0.885847 0.630512 0.278348
0.912355 0.637278 0.281480
0.938488 0.644175 0.285406
0.964317 0.651182 0.289827
0.000000 0.518853 0.266121
0.000000 0.522636 0.268256
0.000000 0.525907 0.270492
0.000000 0.528798 0.272867
0.000000 0.531479 0.275380
0.004947 0.534073 0.277919
0.026338 0.536600 0.280275
0.053944 0.538990 0.282224
0.087592 0.541221 0.283696
0.126575 0.543480 0.284880
0.170379 0.546038 0.286019
0.218191 0.549068 0.287210
0.268271 0.552772 0.288692
0.319355 0.557357 0.290619
0.369921 0.562540 0.292735
0.418252 0.567739 0.294761
0.463501 0.572756 0.296921
0.505466 0.577661 0.299258
0.544365 0.582487 0.301086
0.580668 0.587420 0.302311
0.614935 0.592715 0.303302
0.647686 0.598508 0.304210
0.679357 0.604752 0.304681
0.710216 0.611258 0.304148
0.740350 0.617832 0.302555
0.769820 0.624284 0.300198
0.798691 0.630544 0.297780
0.827006 0.636711 0.296198
0.854770 0.642932 0.296026
0.881980 0.649284 0.297341
0.908672 0.655780 0.299897
0.934927 0.662411 0.303340
0.960837 0.669161 0.307333
0.000000 0.542466 0.280924
0.000000 0.546231 0.283305
0.000000 0.549536 0.285803
0.000000 0.552475 0.288422
0.000000 0.555158 0.291122
0.000000 0.557669 0.293797
0.016833 0.560037 0.296290
0.043070 0.562264 0.298472
0.074985 0.564407 0.300331
0.112344 0.566627 0.302005
0.154700 0.569129 0.303662
0.201214 0.572088 0.305432
0.250560 0.575651 0.307443
0.301378 0.579903 0.309755
0.352262 0.584690 0.312196
0.401438 0.589497 0.314540
0.447781 0.594070 0.316918
0.490898 0.598560 0.319418
0.530825 0.602939 0.321353
0.568176 0.607394 0.322502
0.603513 0.612289 0.323604
0.637358 0.617817 0.324977
0.670174 0.623993 0.326271
0.702209 0.630585 0.326396
0.733393 0.637358 0.325345
0.763737 0.643934 0.323156
0.793307 0.650134 0.320381
0.822140 0.656086 0.318015
0.850273 0.662030 0.316955
0.877738 0.668109 0.317505
0.904600 0.674343 0.319421
0.930967 0.680719 0.322304
0.956959 0.687223 0.325783
0.000000 0.565413 0.295597
0.000000 0.569138 0.298190
0.000000 0.572440 0.300896
0.000000 0.575385 0.303696
0.000000 0.578048 0.306540
0.000000 0.580494 0.309337
0.007143 0.582771 0.311983
0.032510 0.584925 0.314413
0.063146 0.587049 0.316645
0.099065 0.589288 0.318785
0.139921 0.591809 0.320967
0.184972 0.594749 0.323296
0.233113 0.598198 0.325836
0.283051 0.602161 0.328590
0.333446 0.606520 0.331472
0.382820 0.610934 0.334321
0.429902 0.615082 0.336937
0.473962 0.619150 0.339362
0.515071 0.623154 0.341370
0.553724 0.627238 0.342686
0.590429 0.631777 0.343923
0.625652 0.637010 0.345474
0.659865 0.643030 0.347389
0.693262 0.649754 0.348450
0.725640 0.656781 0.348264
0.756971 0.663524 0.346518
0.787305 0.669680 0.343704
0.816674 0.675404 0.340660
0.845182 0.681069 0.338746
0.872911 0.686898 0.338576
0.899949 0.692896 0.339861
0.926445 0.699042 0.342149
0.952543 0.705322 0.345051
0.000000 0.587792 0.310112
0.000000 0.591464 0.312889
0.000000 0.594743 0.315768
0.000000 0.597677 0.318720
0.000000 0.600322 0.321698
0.000000 0.602739 0.324632
0.000000 0.604984 0.327461
0.022027 0.607131 0.330154
0.051715 0.609282 0.332745
0.086372 0.611567 0.335318
0.125761 0.614118 0.337974
0.169267 0.617036 0.340787
0.215951 0.620364 0.343789
0.264654 0.624073 0.346959
0.314104 0.628042 0.350213
0.363001 0.632040 0.353389
0.410221 0.635886 0.356298
0.455060 0.639617 0.358847
0.497408 0.643314 0.360963
0.537510 0.647142 0.362659
0.575786 0.651451 0.364328
0.612669 0.656557 0.366299
0.648408 0.662372 0.368155
0.683187 0.668948 0.369884
0.716770 0.675984 0.370588
0.749136 0.682757 0.369560
0.780305 0.688917 0.367041
0.810246 0.694467 0.363588
0.839187 0.699934 0.361068
0.867229 0.705572 0.360316
0.894492 0.711378 0.361007
0.921176 0.717332 0.362680
0.947443 0.723422 0.364955
0.000000 0.609684 0.324455
0.000000 0.613301 0.327393
0.000000 0.616550 0.330423
0.000000 0.619471 0.333517
0.000000 0.622112 0.336633
0.000000 0.624529 0.339725
0.000000 0.626787 0.342754
0.011485 0.628966 0.345715
0.040480 0.631165 0.348641
0.074066 0.633497 0.351598
0.112096 0.636065 0.354657
0.154077 0.638937 0.357870
0.199217 0.642133 0.361245
0.246496 0.645608 0.364747
0.294772 0.649260 0.368292
0.342913 0.652944 0.371740
0.389969 0.656548 0.374929
0.435321 0.660069 0.377754
0.478696 0.663599 0.380210
0.520114 0.667321 0.382413
0.559848 0.671534 0.384617
0.598240 0.676474 0.386912
0.635456 0.682076 0.389055
0.671495 0.688324 0.391079
0.706213 0.694985 0.392302
0.739632 0.701536 0.391909
0.771719 0.707610 0.389736
0.802407 0.713154 0.386468
0.831928 0.718574 0.383767
0.860386 0.724093 0.382512
0.887994 0.729759 0.382609
0.914986 0.735562 0.383644
0.941526 0.741497 0.385251
0.000000 0.631159 0.338616
0.000000 0.634723 0.341698
0.000000 0.637945 0.344868
0.000000 0.640858 0.348099
0.000000 0.643507 0.351359
0.000000 0.645946 0.354617
0.000000 0.648241 0.357853
0.000813 0.650469 0.361069
0.029321 0.652721 0.364295
0.062031 0.655090 0.367580
0.098862 0.657656 0.370971
0.139427 0.660467 0.374500
0.183065 0.663529 0.378163
0.228907 0.666802 0.381921
0.275966 0.670210 0.385694
0.323272 0.673659 0.389370
0.370008 0.677083 0.392825
0.415594 0.680484 0.395981
0.459675 0.683954 0.398867
0.502127 0.687664 0.401604
0.543060 0.691822 0.404309
0.582690 0.696558 0.406951
0.621106 0.701881 0.409451
0.658241 0.707739 0.411721
0.694011 0.713930 0.413281
0.728406 0.720122 0.413398
0.761381 0.726032 0.411754
0.792875 0.731594 0.408918
0.823091 0.737015 0.406317
0.852164 0.742471 0.404728
0.880312 0.748039 0.404290
0.907767 0.753729 0.404694
0.934702 0.759539 0.405630
0.000000 0.652274 0.352589
0.000000 0.655790 0.355804
0.000000 0.658989 0.359103
0.000000 0.661901 0.362467
0.000000 0.664568 0.365871
0.000000 0.667041 0.369295
0.000000 0.669382 0.372728
0.000000 0.671663 0.376176
0.018181 0.673963 0.379660
0.050198 0.676358 0.383216
0.086011 0.678910 0.386873
0.125320 0.681654 0.390647
0.167583 0.684594 0.394528
0.212075 0.687699 0.398476
0.257963 0.690917 0.402425
0.304419 0.694190 0.406285
0.350723 0.697483 0.409970
0.396315 0.700811 0.413433
0.440806 0.704254 0.416702
0.483990 0.707946 0.419853
0.525845 0.712024 0.422927
0.566447 0.716573 0.425883
0.605809 0.721611 0.428662
0.643856 0.727086 0.431149
0.680511 0.732847 0.432987
0.715745 0.738675 0.433475
0.749531 0.744382 0.432259
0.781857 0.749905 0.430106
0.812842 0.755322 0.427924
0.842645 0.760745 0.426335
0.871464 0.766243 0.425537
0.899506 0.771843 0.425405
0.926946 0.777553 0.425741
0.000000 0.673074 0.366373
0.000000 0.676549 0.369707
0.000000 0.679731 0.373127
0.000000 0.682647 0.376616
0.000000 0.685336 0.380158
0.000000 0.687847 0.383737
0.000000 0.690236 0.387348
0.000000 0.692567 0.390996
0.007041 0.694907 0.394697
0.038529 0.697319 0.398471
0.073503 0.699851 0.402336
0.111733 0.702532 0.406298
0.152782 0.705367 0.410341
0.196050 0.708336 0.414430
0.240842 0.711407 0.418510
0.286451 0.714547 0.422514
0.332233 0.717742 0.426383
0.377654 0.721013 0.430086
0.422313 0.724427 0.433637
0.465955 0.728078 0.437068
0.508459 0.732060 0.440387
0.549784 0.736435 0.443555
0.589881 0.741215 0.446502
0.628670 0.746357 0.449084
0.666074 0.751754 0.450990
0.702054 0.757265 0.451738
0.736591 0.762762 0.451163
0.769699 0.768190 0.449759
0.801465 0.773568 0.448147
0.832031 0.778954 0.446777
0.861572 0.784395 0.445854
0.890268 0.789922 0.445375
0.918286 0.795549 0.445255
0.000000 0.693597 0.379964
0.000000 0.697038 0.383407
0.000000 0.700206 0.386936
0.000000 0.703129 0.390541
0.000000 0.705843 0.394207
0.000000 0.708392 0.397924
0.000000 0.710826 0.401690
0.000000 0.713201 0.405505
0.000000 0.715574 0.409380
0.027006 0.717996 0.413327
0.061304 0.720508 0.417352
0.098626 0.723135 0.421453
0.138623 0.725884 0.425616
0.180801 0.728746 0.429807
0.224581 0.731704 0.433983
0.269354 0.734741 0.438094
0.314548 0.737858 0.442097
0.359661 0.741078 0.445968
0.404295 0.744451 0.449705
0.448158 0.748046 0.453312
0.491065 0.751929 0.456780
0.532895 0.756144 0.460063
0.573548 0.760700 0.463077
0.612933 0.765564 0.465674
0.650970 0.770664 0.467609
0.687611 0.775906 0.468616
