app/src/main/assets/luts/GR-Negative_V4.cube
TITLE "Ricoh Negative"
#Lut generated by JC from Ricoh GR3X HDF
LUT_3D_SIZE 9
DOMAIN_MIN 0.0 0.0 0.0
DOMAIN_MAX 1.0 1.0 1.0
0.000000 0.000000 0.000000
0.179912 0.045148 0.021100
0.357289 0.087121 0.036821
0.509786 0.140176 0.051133
0.630507 0.190698 0.054094
0.730314 0.239913 0.061521
0.823755 0.288686 0.075801
0.917551 0.335153 0.093567
1.000000 0.377228 0.111661
0.000000 0.117283 0.053701
0.131596 0.140188 0.058824
0.311521 0.168454 0.069691
0.478280 0.210892 0.083004
0.611712 0.255974 0.087907
0.717558 0.299105 0.086623
0.811305 0.346249 0.097726
0.905001 0.393151 0.117884
1.000000 0.435509 0.139105
0.000000 0.232313 0.107737
0.086301 0.246321 0.106656
0.247042 0.268048 0.112803
0.426202 0.303313 0.125589
0.577472 0.343219 0.134890
0.694925 0.378158 0.129613
0.794824 0.416896 0.134099
0.891975 0.458221 0.151323
0.990130 0.497292 0.173146
0.000000 0.355848 0.172799
0.045164 0.366528 0.171475
0.183303 0.381372 0.173866
0.369787 0.406746 0.181131
0.534842 0.438172 0.190344
0.664825 0.467353 0.190494
0.774527 0.498037 0.188868
0.877909 0.530233 0.197117
0.979063 0.563568 0.216918
0.000000 0.469152 0.236202
0.005640 0.480985 0.242534
0.116745 0.492156 0.248580
0.304960 0.506399 0.251212
0.490083 0.529373 0.258844
0.633717 0.552609 0.263272
0.752592 0.578649 0.259813
0.862846 0.604973 0.258069
0.967520 0.633325 0.273332
0.000000 0.565413 0.295597
0.000000 0.578048 0.306540
0.063146 0.587049 0.316645
0.233113 0.598198 0.325836
0.429902 0.615082 0.336937
0.590429 0.631777 0.343923
0.725640 0.656781 0.348264
0.845182 0.681069 0.338746
0.952543 0.705322 0.345051
0.000000 0.652274 0.352589
0.000000 0.664568 0.365871
0.018181 0.673963 0.379660
0.167583 0.684594 0.394528
0.350723 0.697483 0.409970
0.525845 0.712024 0.422927
0.680511 0.732847 0.432987
0.812842 0.755322 0.427924
0.926946 0.777553 0.425741
0.000000 0.733927 0.406565
0.000000 0.746168 0.421558
0.000000 0.756162 0.437659
0.111999 0.766266 0.454643
0.281463 0.777678 0.471605
0.456755 0.791245 0.486879
0.619558 0.808501 0.497958
0.762644 0.828404 0.500448
0.887590 0.849558 0.498412
0.000000 0.812310 0.457469
0.000000 0.824587 0.473269
0.000000 0.834970 0.490108
0.064002 0.844997 0.507426
0.223052 0.855889 0.524295
0.392175 0.868654 0.539355
0.555803 0.884099 0.550671
0.705126 0.902070 0.556329
0.838831 0.921921 0.556939
0.063391 0.037680 0.120778
0.215905 0.069860 0.130254
0.382748 0.109602 0.141500
0.525732 0.164395 0.158265
0.639955 0.221535 0.169503
0.733902 0.271614 0.177430
0.823659 0.321220 0.190672
0.915558 0.366834 0.204694
1.000000 0.406934 0.217863
0.022559 0.140389 0.153832
0.156605 0.161577 0.157783
0.331141 0.183180 0.162372
0.498017 0.224252 0.177292
0.626629 0.270031 0.185614
0.723919 0.315230 0.187223
0.811089 0.368254 0.203601
0.902063 0.417613 0.223844
0.997834 0.459894 0.241699
0.000000 0.251032 0.192376
0.092431 0.261911 0.187791
0.258775 0.280845 0.192759
0.446390 0.313161 0.204398
0.596928 0.351162 0.214899
0.705151 0.387286 0.215844
0.796465 0.431211 0.229562
0.889797 0.475793 0.250418
0.986422 0.515963 0.270789
0.000000 0.371467 0.241099
0.036859 0.379975 0.235851
0.182875 0.392780 0.239232
0.382489 0.417458 0.246714
0.552314 0.446848 0.256296
0.675561 0.476324 0.264840
0.778071 0.510216 0.274317
0.876863 0.543183 0.288584
0.975932 0.577427 0.308907
0.000000 0.483299 0.295890
0.000262 0.491096 0.295481
0.103806 0.499845 0.302143
0.307019 0.515476 0.307370
0.500994 0.537375 0.315969
0.643085 0.561202 0.326124
0.757123 0.589373 0.333957
0.862821 0.614759 0.340709
0.965413 0.643590 0.358514
0.000000 0.578909 0.355046
0.000000 0.587787 0.361244
0.037106 0.593319 0.367537
0.215305 0.604859 0.376098
0.427267 0.621451 0.387713
0.596554 0.638877 0.397857
0.730401 0.663864 0.409753
0.846285 0.688920 0.414675
0.952404 0.713313 0.424601
0.000000 0.665560 0.411914
0.000000 0.674841 0.421547
0.000000 0.681524 0.432262
0.135336 0.690971 0.444928
0.335888 0.703866 0.459571
0.525759 0.717751 0.472810
0.684798 0.737490 0.486845
0.816852 0.760787 0.496495
0.930532 0.783954 0.500963
0.000000 0.747162 0.465504
0.000000 0.756883 0.477496
0.000000 0.764623 0.491070
0.078746 0.773195 0.506014
0.260456 0.783668 0.521666
0.450373 0.796253 0.537000
0.622402 0.812898 0.551935
0.769059 0.833263 0.563492
0.894532 0.855221 0.567657
0.000000 0.825462 0.516071
0.000000 0.835592 0.529301
0.000000 0.843993 0.543962
0.034252 0.852402 0.559561
0.201729 0.862040 0.575445
0.382725 0.873861 0.590994
0.556119 0.888858 0.605340
0.711051 0.906973 0.616174
0.846924 0.927280 0.621206
0.125597 0.065053 0.243935
0.261102 0.096559 0.251337
0.409938 0.139268 0.262036
0.542688 0.193794 0.277603
0.652065 0.255531 0.295123
0.741443 0.311460 0.307866
0.825818 0.361491 0.318150
0.914995 0.402548 0.323500
1.000000 0.438346 0.328500
0.084449 0.166224 0.271874
0.206928 0.185093 0.272869
0.366629 0.212434 0.280047
0.521302 0.249846 0.291003
0.643032 0.298125 0.303542
0.731998 0.347965 0.314984
0.812619 0.400630 0.329159
0.900659 0.446587 0.340335
0.995291 0.486325 0.350243
0.031814 0.274662 0.299327
0.131959 0.286326 0.297160
0.298021 0.306387 0.303808
0.478302 0.334741 0.312060
0.620011 0.369068 0.320633
0.717724 0.404665 0.327405
0.802700 0.448483 0.341941
0.890280 0.495245 0.360796
0.983947 0.536033 0.375181
0.000000 0.388678 0.333432
0.054371 0.397595 0.330119
0.207858 0.411089 0.333654
0.409235 0.434409 0.340355
0.574472 0.458999 0.347863
0.691230 0.486133 0.357837
0.786274 0.519551 0.373838
0.878905 0.555800 0.392658
0.973947 0.591480 0.407113
0.000000 0.495099 0.375422
0.004367 0.502574 0.374816
0.114697 0.511178 0.378767
0.321836 0.525971 0.382837
0.515912 0.545821 0.390305
0.655491 0.569395 0.401188
0.764507 0.595771 0.415819
0.864696 0.623242 0.433020
0.963181 0.652855 0.448082
0.000000 0.589514 0.423776
0.000000 0.596719 0.427194
0.031885 0.602257 0.432050
0.211915 0.610777 0.435423
0.431970 0.626146 0.443804
0.605799 0.645142 0.454787
0.736145 0.668231 0.469229
0.846914 0.693056 0.487701
0.950052 0.718897 0.503160
0.000000 0.676619 0.475070
0.000000 0.683689 0.481431
0.000000 0.688661 0.489243
0.109617 0.696201 0.497535
0.327332 0.708550 0.507518
0.530486 0.722410 0.517669
0.691747 0.741254 0.533085
0.821004 0.764542 0.554874
0.931938 0.788682 0.568840
0.000000 0.758689 0.525549
0.000000 0.766192 0.534215
0.000000 0.772078 0.544582
0.048986 0.779221 0.555925
0.243321 0.788662 0.567626
0.447764 0.800625 0.580237
0.627880 0.817083 0.596871
0.776526 0.837699 0.616344
0.900729 0.860105 0.628265
0.000000 0.837174 0.574338
0.000000 0.845324 0.584415
0.000000 0.851966 0.596033
0.007277 0.858920 0.608603
0.183569 0.867393 0.621719
0.376449 0.878413 0.635869
0.558919 0.893034 0.651784
0.718289 0.911185 0.667389
0.855103 0.931830 0.677675
0.182692 0.082326 0.371692
0.315471 0.119217 0.380034
0.447889 0.168654 0.392284
0.568782 0.225572 0.405586
0.671514 0.288622 0.418474
0.756115 0.351282 0.431873
0.833772 0.400293 0.438009
0.919340 0.436486 0.436733
1.000000 0.468556 0.435607
0.150907 0.187422 0.401299
0.274685 0.209158 0.401192
0.412278 0.243097 0.409283
0.549636 0.282148 0.418379
0.661448 0.328765 0.425402
0.744534 0.381594 0.436574
0.818548 0.433589 0.447594
0.903663 0.476340 0.452535
0.996608 0.513058 0.455706
0.099859 0.300371 0.419996
0.200403 0.310885 0.418832
0.349209 0.332244 0.424968
0.512875 0.361890 0.434564
0.638596 0.392644 0.437629
0.730730 0.429269 0.444000
0.810490 0.473500 0.456817
0.893710 0.518717 0.469384
0.984718 0.557667 0.476552
0.031062 0.411714 0.442204
0.104957 0.419886 0.442484
0.259138 0.434651 0.447695
0.451008 0.458000 0.456435
0.598829 0.478586 0.459420
0.709219 0.503985 0.465182
0.798065 0.535436 0.477234
0.884685 0.571046 0.490491
0.975125 0.606712 0.500095
0.000000 0.513107 0.470719
0.030607 0.521574 0.473632
0.155703 0.530085 0.476277
0.364286 0.544781 0.482214
0.544511 0.561581 0.485728
0.675251 0.582105 0.492136
0.777565 0.603733 0.501359
0.871158 0.629595 0.513906
0.964422 0.661731 0.529036
0.000000 0.603227 0.504132
0.000000 0.608563 0.505816
0.050018 0.614729 0.509669
0.239933 0.624347 0.515269
0.458314 0.637513 0.519990
0.625812 0.654826 0.527553
0.749842 0.674517 0.537719
0.852900 0.696813 0.552694
0.950901 0.723906 0.570448
0.000000 0.689241 0.545178
0.000000 0.694331 0.549040
0.000000 0.698527 0.554781
0.108869 0.705965 0.561714
0.337693 0.716747 0.568010
0.546420 0.729856 0.575119
0.706119 0.748336 0.588759
0.828725 0.769034 0.607500
0.934807 0.792916 0.625278
0.000000 0.770716 0.589184
0.000000 0.776447 0.594808
0.000000 0.781069 0.602281
0.034424 0.787266 0.610517
0.239987 0.795548 0.618399
0.455512 0.806973 0.628008
0.640101 0.822932 0.643342
0.787455 0.842416 0.664104
0.908068 0.864720 0.680480
0.000000 0.848783 0.634336
0.000000 0.855278 0.641172
0.000000 0.860498 0.649575
0.000000 0.866225 0.658831
0.176030 0.873566 0.668622
0.378926 0.883656 0.680211
0.567744 0.897387 0.695333
0.728791 0.914935 0.712819
0.864671 0.935736 0.727025
0.244183 0.098878 0.486476
0.373059 0.140196 0.497242
0.490286 0.193620 0.508393
0.595371 0.253185 0.517948
0.687728 0.317455 0.525592
0.769868 0.380584 0.534432
0.846605 0.427761 0.537447
0.929817 0.464320 0.536431
1.000000 0.495520 0.533987
0.216489 0.199995 0.512820
0.348219 0.232611 0.518045
0.462694 0.271458 0.523597
0.575582 0.314969 0.528350
0.675158 0.361671 0.532014
0.759576 0.412803 0.539353
0.833166 0.461151 0.546229
0.913044 0.503382 0.550952
1.000000 0.538576 0.552095
0.177049 0.327909 0.529986
0.291113 0.342486 0.531689
0.410911 0.364203 0.534921
0.539622 0.391342 0.538030
0.652687 0.422410 0.541386
0.745761 0.459909 0.548154
0.822665 0.502045 0.557552
0.901035 0.543962 0.565924
0.989777 0.580390 0.569232
0.110423 0.440389 0.545844
0.198620 0.446398 0.546402
0.331068 0.459706 0.550651
0.489396 0.479425 0.555290
0.621955 0.501862 0.559066
0.724909 0.527082 0.563241
0.809493 0.557453 0.571963
0.891462 0.591017 0.580198
0.979280 0.624941 0.586124
0.032018 0.534984 0.565069
0.094166 0.540042 0.566435
0.224806 0.548741 0.570291
0.417464 0.565222 0.576640
0.580518 0.583660 0.580703
0.696026 0.598637 0.581397
0.793272 0.618061 0.586295
0.881210 0.643221 0.594335
0.969374 0.674615 0.605720
0.000000 0.622560 0.589665
0.002117 0.627863 0.592267
0.090197 0.631352 0.594323
0.289645 0.640963 0.597653
0.500146 0.655245 0.601861
0.654196 0.669304 0.607022
0.769848 0.685313 0.611898
0.865316 0.705060 0.619839
0.956998 0.732301 0.634973
0.000000 0.705561 0.620178
0.000000 0.709299 0.622198
0.000000 0.712484 0.625867
0.137167 0.719253 0.630361
0.370478 0.729927 0.635476
0.577901 0.742608 0.641627
0.728736 0.757425 0.649555
0.840358 0.774762 0.661301
0.940686 0.798421 0.678368
0.000000 0.784442 0.656374
0.000000 0.788864 0.659159
0.000000 0.792660 0.664032
0.042874 0.798156 0.669696
0.257920 0.805597 0.675100
0.478704 0.815950 0.681744
0.661012 0.828972 0.692279
0.800445 0.845824 0.708977
0.916146 0.868388 0.726887
0.000000 0.861202 0.697166
0.000000 0.866401 0.700914
0.000000 0.870503 0.706269
0.000000 0.875182 0.712456
0.185392 0.881370 0.719083
0.394242 0.890055 0.727395
0.584683 0.901929 0.739503
0.743286 0.918104 0.755771
0.876361 0.939126 0.772002
0.313799 0.130649 0.587233
0.431812 0.170732 0.597534
0.533164 0.221594 0.605501
0.623270 0.278821 0.611780
0.705984 0.342299 0.617617
0.784262 0.405340 0.623527
0.862280 0.452332 0.625975
0.945939 0.488877 0.625953
1.000000 0.519858 0.624109
0.289844 0.227124 0.608154
0.415553 0.262465 0.615294
0.509162 0.300230 0.617378
0.600604 0.343359 0.620018
0.687331 0.392914 0.624061
0.769467 0.446688 0.630035
0.846334 0.491892 0.635378
0.927079 0.530280 0.639061
1.000000 0.563452 0.640035
0.253040 0.360593 0.624793
0.381617 0.378494 0.626931
0.473357 0.400154 0.627747
0.570732 0.426277 0.628676
0.667970 0.458403 0.633022
0.757566 0.495433 0.639753
0.835214 0.532717 0.645878
0.913065 0.570149 0.650850
1.000000 0.604449 0.653871
0.203597 0.471256 0.637108
0.315158 0.479887 0.637994
0.420051 0.492094 0.641046
0.535553 0.508738 0.643009
0.645226 0.530499 0.646530
0.740158 0.554921 0.651108
0.822383 0.582038 0.655487
0.900985 0.613798 0.660799
0.987393 0.646684 0.666542
0.115173 0.558372 0.653004
0.210383 0.563250 0.652854
0.332586 0.572175 0.657213
0.479349 0.584866 0.659335
0.612959 0.603080 0.662741
0.718212 0.620029 0.665293
0.808336 0.638805 0.667481
0.889974 0.662980 0.672430
0.976271 0.693030 0.681209
0.004205 0.641480 0.671627
0.074377 0.646717 0.672696
0.178031 0.649131 0.672841
0.362503 0.658832 0.675618
0.546937 0.673172 0.680894
0.684638 0.688166 0.685472
0.789710 0.701729 0.686802
0.878070 0.719740 0.691483
0.965445 0.746355 0.702796
0.000000 0.722376 0.695459
0.000000 0.725503 0.695073
0.019039 0.728059 0.696410
0.197463 0.735143 0.700069
0.425388 0.744957 0.705563
0.616976 0.755853 0.708450
0.754209 0.768744 0.712115
0.856546 0.784626 0.720807
0.950799 0.807882 0.735148
0.000000 0.799471 0.726550
0.000000 0.803050 0.726794
0.000000 0.806207 0.729334
0.080767 0.811022 0.732873
0.298152 0.817380 0.736411
0.513845 0.825762 0.739412
0.688678 0.836739 0.745805
0.818461 0.851843 0.758622
0.928174 0.874053 0.775577
0.000000 0.874802 0.763704
0.000000 0.879003 0.764753
0.000000 0.882094 0.767335
0.020411 0.885742 0.770702
0.214309 0.890739 0.774302
0.422571 0.897874 0.778996
0.610163 0.907983 0.787402
0.763746 0.922831 0.801207
0.892695 0.944123 0.817886
0.388332 0.180348 0.680803
0.494555 0.217650 0.689404
0.583216 0.263550 0.695584
0.661437 0.315484 0.700234
0.735792 0.372867 0.704454
0.809684 0.429808 0.708293
0.886708 0.476254 0.710379
0.970286 0.512369 0.710464
1.000000 0.542826 0.709014
0.379816 0.282016 0.700805
0.487068 0.312862 0.705905
0.567539 0.348396 0.708718
0.641545 0.387404 0.710925
0.715874 0.433270 0.713719
0.790613 0.482698 0.717777
0.866673 0.524537 0.721141
0.948873 0.558422 0.722975
1.000000 0.588680 0.723398
0.362091 0.406396 0.717016
0.470225 0.425570 0.717653
0.545790 0.449130 0.719995
0.620794 0.473784 0.721730
0.699656 0.503921 0.724483
0.778375 0.537881 0.728462
0.853379 0.569866 0.731071
0.932176 0.600998 0.733324
1.000000 0.631073 0.735264
0.304165 0.509912 0.728566
0.428176 0.521679 0.728708
0.514286 0.534876 0.731259
0.596490 0.550337 0.732817
0.682212 0.570801 0.736035
0.764913 0.593114 0.738853
0.840785 0.616414 0.739416
0.917002 0.643880 0.741862
1.000000 0.673080 0.745712
0.217147 0.586350 0.740080
0.348185 0.597366 0.742412
0.454605 0.606784 0.745473
0.556309 0.617852 0.745644
0.658111 0.634807 0.748735
0.748738 0.650540 0.750044
0.826688 0.667625 0.749310
0.901864 0.690073 0.751097
0.988768 0.717642 0.757432
0.080317 0.662607 0.754974
0.207657 0.671405 0.757103
0.321258 0.676202 0.757665
0.461224 0.684199 0.758443
0.604771 0.697140 0.762572
0.720578 0.709891 0.763958
0.811161 0.724366 0.763586
0.890307 0.742347 0.765555
0.977589 0.767537 0.774242
0.000000 0.741191 0.774224
0.048743 0.745805 0.774715
0.134853 0.748406 0.775201
0.295281 0.754141 0.776642
0.490296 0.761954 0.778905
0.657205 0.772862 0.780146
0.781501 0.784982 0.781999
0.875787 0.800227 0.786475
0.966355 0.823580 0.798207
0.000000 0.816424 0.801744
0.000000 0.819753 0.800772
0.005875 0.821745 0.801105
0.153147 0.825429 0.802277
0.353555 0.830673 0.802897
0.554443 0.838376 0.802890
0.720777 0.848149 0.805304
0.843608 0.862072 0.813969
0.947743 0.884938 0.829799
0.000000 0.890009 0.835202
0.000000 0.893537 0.834285
0.000000 0.895647 0.834505
0.076763 0.898274 0.835262
0.262415 0.902321 0.835832
0.462066 0.908443 0.836782
0.643496 0.917398 0.840946
0.791811 0.931420 0.851585
0.916329 0.953443 0.868088
0.456703 0.235205 0.770000
0.556386 0.271138 0.777552
0.639138 0.312879 0.783020
0.711360 0.359244 0.786970
0.780091 0.408829 0.789973
0.849915 0.457552 0.792153
0.924251 0.500009 0.793077
1.000000 0.534980 0.792577
1.000000 0.564869 0.791094
0.452677 0.336643 0.789653
0.553949 0.366868 0.794565
0.631629 0.400069 0.797870
0.698613 0.436431 0.800256
0.764180 0.476477 0.802238
0.831864 0.517548 0.804047
0.903974 0.554346 0.805088
0.983125 0.585591 0.805139
1.000000 0.613666 0.804728
0.436962 0.446215 0.805773
0.543936 0.469545 0.808265
0.620624 0.492848 0.810394
0.685834 0.518184 0.812248
0.751203 0.546702 0.814027
0.818603 0.576945 0.815360
0.888319 0.605621 0.815427
0.964250 0.632455 0.815225
1.000000 0.658805 0.815775
0.391220 0.542194 0.818618
0.513505 0.559658 0.820388
0.599456 0.575125 0.822167
0.668731 0.592538 0.823730
0.737631 0.612868 0.825805
0.806566 0.633804 0.826174
0.873884 0.654852 0.824141
0.946330 0.677518 0.823305
1.000000 0.702352 0.825228
0.315758 0.620006 0.830713
0.453595 0.633688 0.832992
0.552304 0.644290 0.834614
0.634629 0.657117 0.835717
0.715416 0.673257 0.837568
0.790862 0.687458 0.836473
0.858355 0.702981 0.832478
0.928289 0.722686 0.830859
1.000000 0.746616 0.835118
0.200714 0.691832 0.844820
0.336318 0.701381 0.845665
0.445898 0.707321 0.845870
0.553130 0.716059 0.846681
0.664100 0.727674 0.848245
0.761546 0.738679 0.846768
0.841077 0.753047 0.843652
0.913503 0.770960 0.842205
1.000000 0.794093 0.848406
0.049416 0.764132 0.860673
0.166265 0.769030 0.859848
0.275323 0.771208 0.859010
0.404295 0.777354 0.860534
0.557698 0.784360 0.860363
0.699304 0.794000 0.858354
0.812031 0.806868 0.856383
0.898314 0.823198 0.857031
0.989982 0.845813 0.866199
0.000000 0.835813 0.882986
0.021935 0.839169 0.881043
0.120642 0.840639 0.879919
0.252700 0.843651 0.879837
0.423277 0.848335 0.878099
0.600862 0.855729 0.874567
0.755229 0.864850 0.871147
0.873512 0.878825 0.874731
0.975022 0.902917 0.890366
0.000000 0.907110 0.911880
0.000000 0.910569 0.909758
0.025637 0.912335 0.908345
0.160036 0.914509 0.907219
0.329078 0.918195 0.905357
0.511795 0.923948 0.902901
0.682140 0.932508 0.902626
0.825245 0.946566 0.909487
0.947154 0.969826 0.925750
0.513970 0.285038 0.855760
0.611318 0.320295 0.862729
0.693329 0.359013 0.867771
0.764682 0.400601 0.871229
0.831634 0.443698 0.873402
0.899227 0.485706 0.874424
0.971045 0.523776 0.874297
1.000000 0.556915 0.873193
1.000000 0.586153 0.871595
0.508232 0.381336 0.875212
0.608482 0.412021 0.880333
0.688662 0.444074 0.883772
0.756079 0.478023 0.886004
0.819099 0.513579 0.887274
0.883185 0.548925 0.887638
0.951822 0.581592 0.887093
1.000000 0.610795 0.885997
1.000000 0.637632 0.885028
0.491080 0.479401 0.891591
0.597794 0.505080 0.895137
0.679798 0.529825 0.897436
0.746232 0.555506 0.898935
0.807630 0.582587 0.899640
0.869578 0.609959 0.899217
0.935221 0.636145 0.897726
1.000000 0.661015 0.896258
1.000000 0.685580 0.895980
0.452290 0.569174 0.905579
0.569587 0.589814 0.908150
0.658869 0.608134 0.909788
0.729224 0.626984 0.910832
0.793048 0.647038 0.911121
0.855487 0.667245 0.909660
0.919147 0.687434 0.906702
0.989564 0.708488 0.904641
1.000000 0.731319 0.905380
0.385093 0.647396 0.918665
0.512023 0.663152 0.920446
0.611328 0.676215 0.921446
0.692146 0.689974 0.922005
0.765994 0.704990 0.921742
0.835178 0.719912 0.919184
0.900928 0.735905 0.914916
0.971067 0.754533 0.912504
1.000000 0.776562 0.914804
0.280490 0.718571 0.932231
0.407870 0.729403 0.932527
0.516725 0.737710 0.932477
0.615304 0.747239 0.932651
0.711145 0.758220 0.931817
0.799377 0.769882 0.928503
0.877191 0.783881 0.923988
0.952458 0.801359 0.921951
1.000000 0.823346 0.926252
0.147359 0.787621 0.947448
0.263492 0.794287 0.946049
0.375859 0.798877 0.945031
0.492063 0.805075 0.945029
0.616947 0.812777 0.943339
0.736906 0.822076 0.938827
0.841316 0.834350 0.934123
0.931659 0.850903 0.933455
1.000000 0.873493 0.941152
0.023035 0.856461 0.966893
0.124804 0.861233 0.964573
0.233792 0.864116 0.962791
0.358591 0.867845 0.961551
0.502925 0.873183 0.958662
0.651823 0.880404 0.953327
0.787876 0.890484 0.948583
0.903285 0.905908 0.950156
1.000000 0.929645 0.962637
0.000000 0.925884 0.992111
0.018554 0.930264 0.989451
0.127022 0.932918 0.987126
0.256395 0.935772 0.984839
0.407638 0.940003 0.981669
0.568696 0.946316 0.977771
0.722734 0.955918 0.975911
0.859670 0.971392 0.980879
1.000000 1.000000 1.000000
