app/src/main/assets/luts/GR-Positive_V4.cube
TITLE "Ricoh Positive"
#Lut generated by JC from Ricoh GR3X HDF
LUT_3D_SIZE 5
DOMAIN_MIN 0.0 0.0 0.0
DOMAIN_MAX 1.0 1.0 1.0
0.000000 0.000000 0.000000
0.235351 0.014019 0.004741
0.510533 0.025911 0.000000
0.725851 0.014777 0.000000
0.925010 0.013654 0.000000
0.062510 0.240407 0.087314
0.236006 0.231727 0.074880
0.498136 0.230614 0.062610
0.719710 0.212579 0.013171
0.919321 0.217463 0.000000
0.149323 0.510701 0.207607
0.292995 0.512355 0.207763
0.509766 0.513483 0.195167
0.717416 0.511750 0.152387
0.922133 0.485796 0.105261
0.207641 0.753213 0.340276
0.356661 0.746318 0.355230
0.536567 0.740249 0.363319
0.723378 0.743455 0.351338
0.930796 0.746293 0.295566
0.246857 0.991874 0.470988
0.398786 0.981596 0.491320
0.565001 0.973855 0.507209
0.747253 0.976852 0.506108
0.950199 0.989005 0.475949
0.007942 0.000000 0.110928
0.214338 0.000000 0.151163
0.496545 0.015309 0.153390
0.712857 0.006005 0.138939
0.914817 0.000000 0.120308
0.036411 0.219568 0.217990
0.203283 0.209859 0.207614
0.496951 0.189189 0.194215
0.710313 0.166543 0.169978
0.908901 0.177961 0.163290
0.107818 0.506850 0.316544
0.252340 0.509061 0.309730
0.499651 0.507704 0.301511
0.711094 0.496584 0.280544
0.913582 0.458256 0.259050
0.179613 0.749339 0.444687
0.322517 0.742458 0.453390
0.519899 0.738471 0.454974
0.712467 0.737633 0.450116
0.920885 0.735364 0.434852
0.217387 0.988255 0.574710
0.366261 0.976532 0.588549
0.539749 0.966678 0.600847
0.730047 0.968533 0.610349
0.937548 0.982215 0.601459
0.000000 0.000000 0.285154
0.170698 0.000000 0.356411
0.471976 0.000000 0.373031
0.707143 0.000000 0.362035
0.910190 0.000000 0.337036
0.011212 0.146042 0.423173
0.159000 0.147665 0.424954
0.470381 0.140638 0.411992
0.703986 0.133860 0.401435
0.907662 0.146957 0.383008
0.056403 0.482979 0.488065
0.200686 0.485226 0.486967
0.483300 0.487296 0.487286
0.710349 0.460002 0.469236
0.914745 0.426462 0.446652
0.137597 0.747181 0.579556
0.270890 0.739236 0.579290
0.498319 0.734167 0.575223
0.717568 0.732509 0.571484
0.920611 0.717509 0.561171
0.165705 0.986375 0.688954
0.312756 0.976759 0.691975
0.506980 0.966684 0.693873
0.721109 0.966292 0.700684
0.935045 0.977776 0.707617
0.000000 0.000000 0.525270
0.130936 0.000000 0.565559
0.410807 0.000000 0.584666
0.679746 0.000000 0.579883
0.901412 0.000000 0.551211
0.000000 0.049259 0.624355
0.116387 0.070082 0.632266
0.410162 0.079425 0.628076
0.685103 0.078788 0.622371
0.907150 0.110932 0.599665
0.004920 0.426630 0.673283
0.148298 0.431366 0.672718
0.441951 0.438067 0.671636
0.702574 0.423681 0.666763
0.921335 0.404528 0.649223
0.047935 0.722976 0.728608
0.180192 0.723128 0.727736
0.449716 0.723319 0.725642
0.717790 0.720346 0.718261
0.934507 0.701115 0.712106
0.075997 0.974594 0.822829
0.216145 0.972428 0.819406
0.440148 0.968378 0.814439
0.707874 0.967312 0.808513
0.947864 0.975021 0.821444
0.000000 0.000000 0.725975
0.127524 0.000000 0.757101
0.375474 0.000000 0.772781
0.640339 0.000000 0.769126
0.881566 0.000000 0.747199
0.000000 0.022245 0.806052
0.117037 0.039302 0.823605
0.375551 0.057387 0.828387
0.652582 0.071208 0.821113
0.897079 0.096787 0.800961
0.000000 0.361657 0.860116
0.103335 0.373182 0.867860
0.375615 0.381811 0.869894
0.671685 0.380308 0.864320
0.919405 0.382884 0.849307
0.000000 0.671850 0.909602
0.075719 0.676270 0.910695
0.339107 0.681381 0.910714
0.673565 0.685301 0.904539
0.941324 0.683938 0.899558
0.000000 0.944117 0.984626
0.118608 0.948610 0.981199
0.356787 0.952924 0.976804
0.673930 0.961176 0.969886
1.000000 1.000000 1.000000
