app/src/main/assets/luts/GR-Positive_V4.cube
TITLE "Ricoh Positive"
#Lut generated by JC from Ricoh GR3X HDF
LUT_3D_SIZE 9
DOMAIN_MIN 0.0 0.0 0.0
DOMAIN_MAX 1.0 1.0 1.0
0.000000 0.000000 0.000000
0.108393 0.009284 0.002767
0.235351 0.014019 0.004741
0.374192 0.023005 0.003477
0.510533 0.025911 0.000000
0.623934 0.020565 0.000000
0.725851 0.014777 0.000000
0.824953 0.012608 0.000000
0.925010 0.013654 0.000000
0.025580 0.117535 0.040545
0.113226 0.112892 0.038721
0.230890 0.107873 0.034580
0.368925 0.108484 0.030531
0.505143 0.106568 0.017439
0.621655 0.098408 0.000000
0.723502 0.096909 0.000000
0.821651 0.100688 0.000000
0.921976 0.107072 0.000000
0.062510 0.240407 0.087314
0.133327 0.233947 0.080454
0.236006 0.231727 0.074880
0.366325 0.233095 0.071285
0.498136 0.230614 0.062610
0.617228 0.219015 0.038518
0.719710 0.212579 0.013171
0.817849 0.212311 0.000000
0.919321 0.217463 0.000000
0.108847 0.376872 0.145314
0.167567 0.373121 0.138351
0.257924 0.374118 0.132968
0.375919 0.376951 0.128454
0.498857 0.378362 0.122033
0.613597 0.373802 0.103487
0.716703 0.362747 0.071941
0.816490 0.350162 0.045646
0.919161 0.346776 0.038623
0.149323 0.510701 0.207607
0.208593 0.511222 0.208372
0.292995 0.512355 0.207763
0.398011 0.510740 0.201648
0.509766 0.513483 0.195167
0.616027 0.516492 0.182276
0.717416 0.511750 0.152387
0.818879 0.496558 0.117467
0.922133 0.485796 0.105261
0.180696 0.633930 0.272994
0.247030 0.632873 0.278083
0.327283 0.631330 0.282026
0.423358 0.628614 0.281625
0.524586 0.628572 0.278475
0.621683 0.631706 0.270570
0.719854 0.634275 0.252185
0.822309 0.629615 0.213007
0.926274 0.620884 0.193311
0.207641 0.753213 0.340276
0.278130 0.749930 0.347913
0.356661 0.746318 0.355230
0.444743 0.742661 0.360425
0.536567 0.740249 0.363319
0.628227 0.740481 0.362021
0.723378 0.743455 0.351338
0.825394 0.747075 0.321105
0.930796 0.746293 0.295566
0.229560 0.872111 0.406737
0.302454 0.867562 0.416110
0.379815 0.862677 0.425530
0.462965 0.858161 0.433670
0.549849 0.854941 0.439521
0.639205 0.854383 0.441258
0.733110 0.857454 0.434793
0.833472 0.862903 0.416193
0.938472 0.867222 0.393012
0.246857 0.991874 0.470988
0.321522 0.986888 0.481132
0.398786 0.981596 0.491320
0.479998 0.976915 0.500419
0.565001 0.973855 0.507209
0.653734 0.973598 0.509965
0.747253 0.976852 0.506108
0.846355 0.982721 0.493926
0.950199 0.989005 0.475949
0.004365 0.000000 0.053278
0.099506 0.000242 0.066495
0.226380 0.005617 0.071184
0.368544 0.016520 0.072100
0.505100 0.022882 0.063932
0.617978 0.016997 0.050411
0.719756 0.007866 0.038178
0.818847 0.001886 0.028366
0.919475 0.000199 0.021802
0.018412 0.106551 0.097437
0.097180 0.102318 0.099900
0.215758 0.093898 0.093714
0.361987 0.089974 0.088948
0.502297 0.086102 0.079519
0.616947 0.078678 0.063576
0.716879 0.078562 0.052579
0.814436 0.081713 0.044889
0.915555 0.088416 0.041541
0.048012 0.232076 0.141804
0.111272 0.226197 0.133242
0.215353 0.221496 0.127429
0.356273 0.217009 0.123281
0.496430 0.209981 0.115654
0.614997 0.196658 0.098130
0.713518 0.188778 0.081665
0.810096 0.187841 0.069918
0.912557 0.195800 0.068598
0.090673 0.374966 0.194024
0.145586 0.374253 0.184967
0.237079 0.371677 0.179167
0.363296 0.371135 0.173587
0.495573 0.369879 0.168294
0.611312 0.363981 0.157171
0.710816 0.347908 0.133029
0.809051 0.329360 0.112015
0.912709 0.327341 0.110594
0.133150 0.511097 0.252862
0.188494 0.513256 0.249588
0.273946 0.512582 0.248292
0.386742 0.510789 0.242707
0.505780 0.513597 0.238676
0.612954 0.516379 0.230787
0.713123 0.509259 0.208636
0.813739 0.486560 0.180498
0.916656 0.472624 0.173982
0.167042 0.632410 0.319595
0.229573 0.630600 0.321320
0.311441 0.630081 0.324400
0.413931 0.629550 0.323820
0.519338 0.629812 0.321453
0.616780 0.631829 0.316158
0.714360 0.633720 0.303696
0.817345 0.626637 0.278057
0.921162 0.613446 0.261910
0.195530 0.751029 0.389264
0.263458 0.747221 0.394954
0.342098 0.744190 0.401483
0.433631 0.741659 0.406008
0.528706 0.739071 0.408458
0.620977 0.737994 0.407906
0.716161 0.740539 0.402669
0.819111 0.743704 0.386357
0.925102 0.741189 0.365164
0.217655 0.869850 0.457173
0.288746 0.864813 0.465073
0.365601 0.859761 0.473591
0.450243 0.855161 0.481065
0.539224 0.851293 0.486701
0.629703 0.849653 0.489920
0.724251 0.852424 0.489127
0.825684 0.858511 0.479483
0.931723 0.862833 0.460787
0.234057 0.989564 0.522255
0.307489 0.984119 0.531080
0.384247 0.978315 0.540361
0.466176 0.973069 0.548990
0.552628 0.969295 0.556116
0.642730 0.968416 0.560906
0.737379 0.971683 0.561520
0.837640 0.978190 0.554932
0.942740 0.984929 0.540792
0.007942 0.000000 0.110928
0.092853 0.000000 0.135912
0.214338 0.000000 0.151163
0.358556 0.006640 0.155633
0.496545 0.015309 0.153390
0.611235 0.014130 0.146994
0.712857 0.006005 0.138939
0.812970 0.000000 0.128801
0.914817 0.000000 0.120308
0.016971 0.088196 0.164464
0.088868 0.086220 0.175804
0.204786 0.081510 0.176623
0.353744 0.076698 0.172273
0.497738 0.073482 0.165543
0.611667 0.072940 0.158045
0.709314 0.070585 0.151168
0.808477 0.068852 0.143564
0.910936 0.073393 0.138838
0.036411 0.219568 0.217990
0.097632 0.216313 0.213186
0.203283 0.209859 0.207614
0.351988 0.201009 0.204297
0.496951 0.189189 0.194215
0.611714 0.177991 0.180832
0.710313 0.166543 0.169978
0.806737 0.168818 0.164720
0.908901 0.177961 0.163290
0.067860 0.368199 0.265795
0.124111 0.370614 0.258358
0.220452 0.366537 0.252177
0.357350 0.363282 0.250210
0.493346 0.354516 0.240227
0.609014 0.343236 0.227498
0.710517 0.327531 0.215002
0.808119 0.312275 0.204259
0.910050 0.309712 0.201200
0.107818 0.506850 0.316544
0.163461 0.509837 0.310897
0.252340 0.509061 0.309730
0.375203 0.508045 0.306675
0.499651 0.507704 0.301511
0.609301 0.506633 0.292769
0.711094 0.496584 0.280544
0.811342 0.474214 0.266009
0.913582 0.458256 0.259050
0.147889 0.630075 0.377660
0.208352 0.628350 0.377032
0.290742 0.628745 0.379641
0.399779 0.628543 0.377884
0.511992 0.629011 0.374451
0.612918 0.629929 0.368333
0.711396 0.629370 0.361001
0.813108 0.618682 0.350354
0.917190 0.603302 0.339652
0.179613 0.749339 0.444687
0.244818 0.745026 0.448383
0.322517 0.742458 0.453390
0.418053 0.740600 0.455595
0.519899 0.738471 0.454974
0.616297 0.736357 0.451290
0.712467 0.737633 0.450116
0.815028 0.739920 0.447277
0.920885 0.735364 0.434852
0.202182 0.868500 0.510704
0.271389 0.863102 0.516434
0.347527 0.857868 0.522814
0.434629 0.853276 0.527862
0.528251 0.849140 0.530898
0.622622 0.846845 0.533098
0.718991 0.849349 0.536648
0.820777 0.855705 0.536511
0.927013 0.859439 0.525353
0.217387 0.988255 0.574710
0.289709 0.982643 0.581376
0.366261 0.976532 0.588549
0.449967 0.970931 0.595166
0.539749 0.966678 0.600847
0.633190 0.965344 0.606054
0.730047 0.968533 0.610349
0.831452 0.975363 0.610014
0.937548 0.982215 0.601459
0.000907 0.000000 0.179331
0.079300 0.000000 0.218250
0.195277 0.000000 0.248899
0.344039 0.000000 0.259956
0.489724 0.000000 0.258953
0.608499 0.003881 0.255092
0.709442 0.000000 0.249293
0.809626 0.000000 0.238258
0.911965 0.000000 0.227133
0.008530 0.052425 0.242901
0.072574 0.051715 0.268167
0.183691 0.054288 0.279961
0.340013 0.054811 0.279487
0.492367 0.052802 0.272179
0.607900 0.058111 0.265928
0.704961 0.061269 0.263084
0.805394 0.057617 0.255287
0.908748 0.059530 0.247056
0.024428 0.190426 0.315364
0.079322 0.186988 0.314918
0.184921 0.184004 0.311476
0.339784 0.178300 0.309357
0.490624 0.167601 0.299885
0.607588 0.159876 0.288335
0.706225 0.155306 0.282387
0.804845 0.156976 0.277460
0.907768 0.163256 0.270917
0.046230 0.349835 0.357752
0.099223 0.352166 0.354372
0.199612 0.350675 0.350829
0.346628 0.349709 0.351860
0.487410 0.338344 0.342544
0.605750 0.322613 0.327564
0.709397 0.308329 0.318997
0.808956 0.295087 0.309331
0.910219 0.293372 0.303148
0.080913 0.497540 0.398624
0.132964 0.499936 0.395291
0.226132 0.500441 0.395145
0.360561 0.501872 0.396019
0.492029 0.499481 0.392821
0.606021 0.492168 0.380307
0.711539 0.478337 0.370081
0.813220 0.455601 0.356562
0.913769 0.441578 0.350105
0.125126 0.627154 0.449915
0.181605 0.624922 0.448342
0.263874 0.623666 0.448377
0.380190 0.624679 0.448351
0.502165 0.624964 0.446026
0.610554 0.625210 0.440191
0.712339 0.621318 0.433662
0.812911 0.606899 0.424295
0.916142 0.590053 0.416676
0.160504 0.748518 0.508771
0.222656 0.743557 0.510203
0.298268 0.739595 0.512040
0.398483 0.738006 0.512740
0.509429 0.736333 0.511082
0.614317 0.735246 0.507813
0.714325 0.736523 0.508082
0.814623 0.735577 0.506901
0.918870 0.727982 0.500085
0.182461 0.867939 0.569111
0.249804 0.862483 0.572239
0.324972 0.856833 0.575667
0.415545 0.852069 0.577873
0.516208 0.847749 0.578358
0.617747 0.845606 0.579821
0.717684 0.847837 0.585028
0.818641 0.852948 0.589572
0.924433 0.855962 0.584932
0.195414 0.987581 0.629966
0.266694 0.982288 0.633975
0.343324 0.976161 0.638352
0.429999 0.970393 0.642195
0.525288 0.965851 0.645573
0.624520 0.964200 0.649957
0.725037 0.966942 0.655803
0.827718 0.973424 0.659733
0.934815 0.980092 0.656736
0.000000 0.000000 0.285154
0.060315 0.000000 0.323848
0.170698 0.000000 0.356411
0.320285 0.000000 0.371158
0.471976 0.000000 0.373031
0.600893 0.000000 0.370216
0.707143 0.000000 0.362035
0.807798 0.000000 0.350219
0.910190 0.000000 0.337036
0.000000 0.000000 0.353479
0.049387 0.000000 0.380062
0.155687 0.013570 0.393904
0.315164 0.028672 0.395685
0.473049 0.033153 0.387680
0.603392 0.034556 0.382777
0.705929 0.035740 0.378087
0.804978 0.037568 0.370133
0.908214 0.042012 0.359034
0.011212 0.146042 0.423173
0.058739 0.144546 0.427062
0.159000 0.147665 0.424954
0.312692 0.148367 0.420549
0.470381 0.140638 0.411992
0.601705 0.134531 0.405931
0.703986 0.133860 0.401435
0.803308 0.139387 0.394284
0.907662 0.146957 0.383008
0.028094 0.320815 0.455530
0.078658 0.319830 0.455724
0.175210 0.320227 0.454287
0.321105 0.320047 0.452540
0.472649 0.313031 0.446913
0.599272 0.299930 0.437623
0.705063 0.289160 0.431922
0.806791 0.280527 0.422315
0.910436 0.278599 0.411037
0.056403 0.482979 0.488065
0.108061 0.484311 0.486986
0.200686 0.485226 0.486967
0.340484 0.488632 0.488057
0.483300 0.487296 0.487286
0.602291 0.475536 0.477472
0.710349 0.460002 0.469236
0.812342 0.439119 0.456239
0.914745 0.426462 0.446652
0.099954 0.622875 0.530843
0.155845 0.622317 0.531024
0.235455 0.620232 0.529019
0.360134 0.621727 0.528022
0.492967 0.620903 0.526091
0.609411 0.618164 0.523043
0.715250 0.610703 0.516883
0.815317 0.592434 0.503099
0.918153 0.575216 0.494983
0.137597 0.747181 0.579556
0.198062 0.742967 0.579506
0.270890 0.739236 0.579290
0.377243 0.737118 0.577778
0.498319 0.734167 0.575223
0.613560 0.732910 0.573045
0.717568 0.732509 0.571484
0.816562 0.727044 0.565817
0.920611 0.717509 0.561171
0.155903 0.866742 0.632188
0.221640 0.862291 0.632849
0.296021 0.857089 0.633738
0.391523 0.852145 0.633294
0.501798 0.847338 0.631628
0.613396 0.844955 0.631651
0.718259 0.845500 0.634465
0.818812 0.848353 0.637460
0.925072 0.850348 0.637181
0.165705 0.986375 0.688954
0.235759 0.982196 0.690301
0.312756 0.976759 0.691975
0.403736 0.971274 0.693084
0.506980 0.966684 0.693873
0.614823 0.964611 0.696068
0.721109 0.966292 0.700684
0.826175 0.971671 0.705879
0.935045 0.977776 0.707617
0.000000 0.000000 0.410405
0.043519 0.000000 0.438888
0.145257 0.000000 0.462718
0.287370 0.000000 0.476306
0.441773 0.000000 0.482426
0.581073 0.000000 0.482508
0.697339 0.000000 0.474125
0.802815 0.000000 0.460829
0.907239 0.000000 0.445927
0.000000 0.000000 0.473462
0.030347 0.000000 0.491987
0.122494 0.000000 0.500770
0.274028 0.000000 0.502505
0.438430 0.001100 0.502134
0.584905 0.011213 0.501276
0.699267 0.008652 0.494046
0.802531 0.011535 0.482807
0.907298 0.020953 0.469501
0.002082 0.091905 0.527629
0.040446 0.093778 0.531233
0.127069 0.101012 0.529485
0.274303 0.105919 0.524870
0.438413 0.106966 0.521023
0.584008 0.104215 0.519349
0.697856 0.100540 0.513554
0.801532 0.111643 0.504461
0.907831 0.127467 0.492862
0.012065 0.284576 0.553470
0.061409 0.280536 0.552206
0.150205 0.282251 0.551516
0.290433 0.283658 0.549296
0.447273 0.279604 0.545608
0.585796 0.271043 0.541864
0.700229 0.262454 0.537847
0.804159 0.259629 0.529100
0.911045 0.263248 0.518185
0.027925 0.458635 0.577481
0.086649 0.458025 0.576496
0.175599 0.459971 0.577389
0.311015 0.463197 0.576754
0.463863 0.463257 0.575102
0.594056 0.455748 0.572103
0.706394 0.444535 0.568291
0.809807 0.427830 0.556988
0.916665 0.415355 0.546751
0.060144 0.610600 0.612744
0.125587 0.611020 0.611918
0.205915 0.609673 0.610537
0.332587 0.611205 0.610116
0.478095 0.611684 0.608817
0.604637 0.609219 0.608420
0.714500 0.599830 0.603901
0.817677 0.580622 0.588333
0.922891 0.564930 0.581171
0.099362 0.739779 0.652512
0.160846 0.738102 0.650557
0.234232 0.736342 0.650299
0.347500 0.733568 0.648332
0.482294 0.730756 0.645782
0.609220 0.729083 0.643479
0.718746 0.726866 0.639186
0.821135 0.718061 0.631891
0.926337 0.708373 0.630175
0.116845 0.861759 0.699157
0.180268 0.859527 0.697782
0.254737 0.856135 0.697444
0.356849 0.851945 0.695711
0.479993 0.847709 0.692744
0.604663 0.844837 0.689705
0.717936 0.843811 0.688591
0.821137 0.844558 0.690836
0.928925 0.844513 0.694345
0.125628 0.982652 0.752639
0.193492 0.980331 0.751793
0.270675 0.976504 0.751527
0.366768 0.972239 0.750680
0.480276 0.968400 0.749086
0.600264 0.966197 0.748047
0.716329 0.966839 0.749740
0.826712 0.970743 0.754996
0.938918 0.975851 0.760805
0.000000 0.000000 0.525270
0.035106 0.000000 0.547562
0.130936 0.000000 0.565559
0.261788 0.000000 0.577496
0.410807 0.000000 0.584666
0.554231 0.000000 0.586417
0.679746 0.000000 0.579883
0.792589 0.000000 0.566655
0.901412 0.000000 0.551211
0.000000 0.000000 0.578886
0.026203 0.000000 0.594221
0.112058 0.000000 0.602876
0.245789 0.000000 0.606252
0.405222 0.000000 0.608681
0.556821 0.000000 0.609670
0.683041 0.000000 0.603659
0.794939 0.000000 0.590916
0.904070 0.001569 0.576337
0.000000 0.049259 0.624355
0.034309 0.057433 0.629979
0.116387 0.070082 0.632266
0.249155 0.074072 0.630028
0.410162 0.079425 0.628076
0.561158 0.080831 0.627800
0.685103 0.078788 0.622371
0.796899 0.091180 0.612099
0.907150 0.110932 0.599665
0.000000 0.246413 0.652144
0.051161 0.247165 0.651955
0.134983 0.253633 0.652558
0.268934 0.256724 0.652017
0.426261 0.253303 0.649998
0.571059 0.246158 0.647111
0.692213 0.237757 0.642479
0.802159 0.238219 0.634241
0.912805 0.248753 0.623547
0.004920 0.426630 0.673283
0.064563 0.427848 0.672171
0.148298 0.431366 0.672718
0.280911 0.436279 0.672415
0.441951 0.438067 0.671636
0.585580 0.434531 0.670552
0.702574 0.423681 0.666763
0.811908 0.412228 0.659422
0.921335 0.404528 0.649223
0.014451 0.584529 0.696561
0.082517 0.586595 0.696259
0.165348 0.587407 0.696617
0.292558 0.590332 0.696939
0.450766 0.593892 0.697414
0.594725 0.594169 0.696008
0.712200 0.586600 0.691618
0.821619 0.571318 0.683782
0.929857 0.557358 0.677043
0.047935 0.722976 0.728608
0.105858 0.723426 0.727502
0.180192 0.723128 0.727736
0.299635 0.723145 0.727388
0.449716 0.723319 0.725642
0.594907 0.723977 0.722166
0.717790 0.720346 0.718261
0.826809 0.709880 0.712114
0.934507 0.701115 0.712106
0.065130 0.850612 0.772325
0.123217 0.850379 0.770066
0.196177 0.849090 0.769492
0.302439 0.847533 0.768105
0.439547 0.845885 0.764488
0.583280 0.844050 0.758754
0.713558 0.841534 0.753669
0.826233 0.839993 0.754144
0.937778 0.839371 0.761083
0.075997 0.974594 0.822829
0.140145 0.974228 0.820665
0.216145 0.972428 0.819406
0.315835 0.970303 0.817665
0.440148 0.968378 0.814439
0.576009 0.967099 0.810426
0.707874 0.967312 0.808513
0.829424 0.970086 0.812316
0.947864 0.975021 0.821444
0.000000 0.000000 0.629362
0.032485 0.000000 0.648477
0.128038 0.000000 0.663849
0.250179 0.000000 0.674674
0.389542 0.000000 0.681177
0.529586 0.000000 0.682558
0.659319 0.000000 0.677223
0.778751 0.000000 0.665899
0.892614 0.000000 0.651584
0.000000 0.000000 0.676515
0.027637 0.000000 0.691054
0.117091 0.000000 0.700711
0.240532 0.000000 0.706156
0.386384 0.000000 0.709052
0.532239 0.000000 0.708997
0.663951 0.000000 0.703397
0.783610 0.000000 0.692194
0.897873 0.000000 0.678318
0.000000 0.033375 0.716564
0.032073 0.040469 0.725628
0.118413 0.051823 0.730560
0.242929 0.060104 0.732171
0.391932 0.066025 0.731977
0.539445 0.069820 0.730302
0.670367 0.073387 0.724691
0.789424 0.084043 0.714816
0.904113 0.101515 0.702561
0.000000 0.214969 0.745826
0.039020 0.220574 0.750538
0.124817 0.228303 0.753108
0.251934 0.233417 0.754050
0.404346 0.233038 0.753106
0.552002 0.229526 0.750313
0.680780 0.225661 0.744765
0.798404 0.228248 0.736644
0.912850 0.239183 0.726261
0.000000 0.392406 0.768274
0.041011 0.397455 0.770452
0.123769 0.402718 0.772179
0.250863 0.407638 0.772861
0.411632 0.410662 0.772714
0.565108 0.408469 0.771378
0.693899 0.400449 0.766892
0.810751 0.393883 0.759770
0.923942 0.392785 0.750677
0.000000 0.552886 0.789526
0.040379 0.557099 0.790220
0.117179 0.559533 0.791977
0.240603 0.562441 0.792369
0.404522 0.567470 0.792940
0.568600 0.569614 0.792495
0.703510 0.563491 0.789387
0.821731 0.552969 0.782712
0.934245 0.546021 0.775648
0.000000 0.699934 0.817391
0.043533 0.700534 0.816043
0.112147 0.700634 0.817275
0.227725 0.701754 0.817232
0.386775 0.704427 0.816389
0.557203 0.707351 0.813623
0.703103 0.704824 0.808993
0.826181 0.697289 0.803927
0.941405 0.692356 0.802833
0.008205 0.833479 0.854930
0.060312 0.834284 0.852558
0.129127 0.834040 0.852090
0.230788 0.834239 0.851387
0.376415 0.835159 0.848089
0.542359 0.836115 0.842036
0.695464 0.835120 0.834788
0.827811 0.832593 0.830324
0.948937 0.834750 0.839742
0.023696 0.961534 0.900680
0.084672 0.962813 0.898172
0.159144 0.962750 0.896620
0.259798 0.962677 0.894766
0.391883 0.963120 0.891171
0.542763 0.964078 0.886068
0.692535 0.965627 0.881783
0.830947 0.969084 0.883180
0.960026 0.976011 0.894720
0.000000 0.000000 0.725975
0.030058 0.000000 0.743180
0.127524 0.000000 0.757101
0.244443 0.000000 0.767062
0.375474 0.000000 0.772781
0.510195 0.000000 0.773674
0.640339 0.000000 0.769126
0.763608 0.000000 0.759688
0.881566 0.000000 0.747199
0.000000 0.000000 0.768945
0.025837 0.000000 0.783102
0.119963 0.000000 0.793387
0.237945 0.000000 0.799922
0.373310 0.000000 0.803063
0.512530 0.000000 0.802472
0.645363 0.000000 0.797269
0.769895 0.000000 0.787683
0.888657 0.000000 0.775418
0.000000 0.022245 0.806052
0.025133 0.029136 0.816687
0.117037 0.039302 0.823605
0.236383 0.049187 0.827355
0.375551 0.057387 0.828387
0.518161 0.064146 0.826560
0.652582 0.071208 0.821113
0.777753 0.081826 0.812139
0.897079 0.096787 0.800961
0.000000 0.191643 0.835805
0.023662 0.198000 0.843175
0.113742 0.205494 0.847752
0.234930 0.211834 0.850076
0.378998 0.215534 0.850248
0.525899 0.217012 0.848033
0.662176 0.218307 0.842840
0.787902 0.223320 0.834886
0.907510 0.233625 0.825223
0.000000 0.361657 0.860116
0.017295 0.367609 0.864767
0.103335 0.373182 0.867860
0.224909 0.378186 0.869531
0.375615 0.381811 0.869894
0.530614 0.382489 0.868534
0.671685 0.380308 0.864320
0.799300 0.379314 0.857392
0.919405 0.382884 0.849307
0.000000 0.522324 0.883013
0.007640 0.527031 0.885328
0.086694 0.530408 0.887426
0.205161 0.533851 0.888558
0.360317 0.538066 0.889084
0.526047 0.540624 0.888456
0.676236 0.538610 0.885172
0.808648 0.534848 0.879362
0.930852 0.534665 0.873609
0.000000 0.671850 0.909602
0.003623 0.674789 0.909689
0.075719 0.676270 0.910695
0.186210 0.678024 0.911169
0.339107 0.681381 0.910714
0.512671 0.685177 0.908658
0.673565 0.685301 0.904539
0.814214 0.683083 0.900195
0.941324 0.683938 0.899558
0.000000 0.811252 0.943367
0.016013 0.813770 0.941955
0.087418 0.814860 0.941574
0.190625 0.816154 0.941024
0.334964 0.818707 0.938811
0.504818 0.822152 0.934506
0.670256 0.824374 0.929136
0.819496 0.826489 0.926615
0.953688 0.831717 0.933816
0.000000 0.944117 0.984626
0.041631 0.946996 0.982594
0.118608 0.948610 0.981199
0.221817 0.950313 0.979613
0.356787 0.952924 0.976804
0.513633 0.956563 0.972905
0.673930 0.961176 0.969886
0.826445 0.968206 0.972348
1.000000 1.000000 1.000000
