app/src/main/assets/luts/GR-Positive_V4.cube
TITLE "Ricoh Positive"
#Lut generated by JC from Ricoh GR3X HDF
LUT_3D_SIZE 33
DOMAIN_MIN 0.0 0.0 0.0
DOMAIN_MAX 1.0 1.0 1.0
0.000000 0.000000 0.000000
0.027822 0.006591 0.000000
0.052468 0.007559 0.001022
0.079522 0.008469 0.002090
0.108393 0.009284 0.002767
0.138669 0.010104 0.003251
0.170070 0.011077 0.003711
0.202345 0.012349 0.004215
0.235351 0.014019 0.004741
0.269090 0.016088 0.005171
0.303578 0.018433 0.005289
0.338697 0.020846 0.004837
0.374192 0.023005 0.003477
0.409652 0.024646 0.000963
0.444561 0.025748 0.000000
0.478339 0.026162 0.000000
0.510533 0.025911 0.000000
0.540938 0.025139 0.000000
0.569718 0.023906 0.000000
0.597261 0.022318 0.000000
0.623934 0.020565 0.000000
0.649989 0.018833 0.000000
0.675587 0.017253 0.000000
0.700843 0.015893 0.000000
0.725851 0.014777 0.000000
0.750694 0.013902 0.000000
0.775450 0.013256 0.000000
0.800185 0.012829 0.000000
0.824953 0.012608 0.000000
0.849795 0.012588 0.000000
0.874740 0.012761 0.000000
0.899808 0.013119 0.000000
0.925010 0.013654 0.000000
0.008379 0.032705 0.008367
0.029553 0.033103 0.010097
0.053562 0.033540 0.011288
0.080106 0.033812 0.011856
0.108499 0.033879 0.011951
0.138349 0.033901 0.011889
0.169416 0.034053 0.011877
0.201398 0.034508 0.011990
0.234143 0.035398 0.012211
0.267717 0.036776 0.012417
0.302183 0.038496 0.012349
0.337403 0.040303 0.011713
0.373108 0.041881 0.010158
0.408809 0.043024 0.007516
0.443917 0.043766 0.003897
0.477822 0.043969 0.000000
0.510104 0.043569 0.000000
0.540598 0.042655 0.000000
0.569472 0.041309 0.000000
0.597087 0.039683 0.000000
0.623791 0.038003 0.000000
0.649834 0.036468 0.000000
0.675386 0.035198 0.000000
0.700569 0.034230 0.000000
0.725488 0.033553 0.000000
0.750239 0.033135 0.000000
0.774909 0.032949 0.000000
0.799571 0.032973 0.000000
0.824285 0.033193 0.000000
0.849095 0.033599 0.000000
0.874028 0.034185 0.000000
0.899102 0.034941 0.000000
0.924326 0.035858 0.000000
0.012727 0.060429 0.019136
0.033227 0.060418 0.020477
0.056291 0.060325 0.021274
0.081815 0.059944 0.021345
0.109295 0.059303 0.020905
0.138393 0.058596 0.020349
0.168872 0.057990 0.019883
0.200417 0.057657 0.019591
0.232866 0.057746 0.019461
0.266294 0.058388 0.019361
0.300738 0.059496 0.019020
0.335990 0.060698 0.018143
0.371768 0.061746 0.016461
0.407527 0.062507 0.013895
0.442632 0.062938 0.010451
0.476521 0.062915 0.006184
0.508842 0.062321 0.001344
0.539494 0.061180 0.000000
0.568605 0.059627 0.000000
0.596440 0.057893 0.000000
0.623292 0.056252 0.000000
0.649405 0.054912 0.000000
0.674961 0.053967 0.000000
0.700102 0.053407 0.000000
0.724952 0.053175 0.000000
0.749624 0.053212 0.000000
0.774219 0.053470 0.000000
0.798821 0.053923 0.000000
0.823495 0.054556 0.000000
0.848285 0.055360 0.000000
0.873219 0.056329 0.000000
0.898314 0.057455 0.000000
0.923574 0.058726 0.000000
0.018571 0.088727 0.029836
0.038359 0.088316 0.030690
0.060326 0.087721 0.030993
0.084547 0.086796 0.030604
0.110809 0.085625 0.029757
0.138881 0.084378 0.028809
0.168535 0.083205 0.027948
0.199524 0.082279 0.027277
0.231682 0.081754 0.026796
0.264994 0.081794 0.026370
0.299413 0.082370 0.025763
0.334657 0.083103 0.024740
0.370362 0.083766 0.023102
0.405997 0.084218 0.020725
0.440958 0.084340 0.017547
0.474755 0.083996 0.013576
0.507116 0.083081 0.008928
0.537967 0.081608 0.003762
0.567372 0.079748 0.000000
0.595493 0.077806 0.000000
0.622554 0.076114 0.000000
0.648782 0.074892 0.000000
0.674372 0.074203 0.000000
0.699489 0.073985 0.000000
0.724280 0.074131 0.000000
0.748881 0.074550 0.000000
0.773409 0.075180 0.000000
0.797961 0.075990 0.000000
0.822607 0.076967 0.000000
0.847392 0.078106 0.000000
0.872343 0.079400 0.000000
0.897472 0.080840 0.000000
0.922781 0.082415 0.000000
0.025580 0.117535 0.040545
0.044603 0.116697 0.040834
0.065451 0.115661 0.040621
0.088321 0.114369 0.039853
0.113226 0.112892 0.038721
0.140087 0.111355 0.037490
0.168767 0.109897 0.036335
0.199093 0.108684 0.035362
0.230890 0.107873 0.034580
0.264021 0.107574 0.033888
0.298303 0.107733 0.033111
0.333413 0.108111 0.032052
0.368925 0.108484 0.030531
0.404319 0.108676 0.028394
0.439058 0.108512 0.025523
0.472735 0.107840 0.021865
0.505143 0.106568 0.017439
0.536216 0.104723 0.012315
0.565940 0.102503 0.006634
0.594366 0.100270 0.000661
0.621655 0.098408 0.000000
0.648022 0.097159 0.000000
0.673664 0.096568 0.000000
0.698766 0.096535 0.000000
0.723502 0.096909 0.000000
0.748036 0.097567 0.000000
0.772506 0.098434 0.000000
0.797019 0.099478 0.000000
0.821651 0.100688 0.000000
0.846446 0.102061 0.000000
0.871429 0.103591 0.000000
0.896607 0.105265 0.000000
0.921976 0.107072 0.000000
0.033575 0.146953 0.051437
0.051824 0.145725 0.051161
0.071592 0.144346 0.050467
0.093149 0.142828 0.049374
0.116672 0.141225 0.048022
0.142251 0.139625 0.046598
0.169879 0.138148 0.045257
0.199444 0.136935 0.044092
0.230749 0.136102 0.043118
0.263550 0.135700 0.042265
0.297554 0.135666 0.041404
0.332384 0.135841 0.040372
0.367590 0.136039 0.039005
0.402668 0.136061 0.037130
0.437128 0.135694 0.034584
0.470644 0.134764 0.031252
0.503069 0.133192 0.027075
0.534336 0.131021 0.022032
0.564367 0.128463 0.016225
0.593101 0.125899 0.009945
0.620636 0.123750 0.003626
0.647161 0.122295 0.000000
0.672866 0.121597 0.000000
0.697957 0.121537 0.000000
0.722641 0.121931 0.000000
0.747113 0.122628 0.000000
0.771534 0.123545 0.000000
0.796023 0.124653 0.000000
0.820657 0.125947 0.000000
0.845480 0.127423 0.000000
0.870511 0.129072 0.000000
0.895751 0.130879 0.000000
0.921193 0.132824 0.000000
0.042446 0.177153 0.062735
0.059938 0.175620 0.061953
0.078676 0.174009 0.060836
0.098988 0.172380 0.059452
0.121183 0.170783 0.057915
0.145500 0.169284 0.056363
0.172054 0.167978 0.054924
0.200786 0.166966 0.053671
0.231471 0.166308 0.052613
0.263789 0.166002 0.051693
0.297366 0.165978 0.050814
0.331783 0.166120 0.049845
0.366580 0.166278 0.048636
0.401265 0.166252 0.047014
0.435396 0.165805 0.044789
0.468699 0.164741 0.041797
0.501060 0.162984 0.037893
0.532427 0.160592 0.032955
0.562693 0.157776 0.027054
0.591725 0.154897 0.020529
0.619527 0.152387 0.013855
0.646225 0.150588 0.007489
0.671998 0.149602 0.001710
0.697076 0.149306 0.000000
0.721711 0.149491 0.000000
0.746132 0.149996 0.000000
0.770520 0.150744 0.000000
0.795004 0.151717 0.000000
0.819662 0.152918 0.000000
0.844531 0.154342 0.000000
0.869626 0.155976 0.000000
0.894941 0.157796 0.000000
0.920465 0.159773 0.000000
0.052112 0.208279 0.074644
0.068871 0.206547 0.073447
0.086628 0.204809 0.071980
0.105782 0.203171 0.070349
0.126749 0.201683 0.068661
0.149884 0.200389 0.067024
0.175388 0.199358 0.065539
0.203239 0.198650 0.064261
0.233198 0.198275 0.063182
0.264898 0.198190 0.062252
0.297915 0.198318 0.061389
0.331806 0.198565 0.060489
0.366103 0.198807 0.059421
0.400334 0.198858 0.058018
0.434096 0.198470 0.056084
0.467139 0.197426 0.053420
0.499345 0.195641 0.049811
0.530683 0.193180 0.045020
0.561070 0.190233 0.039091
0.590333 0.187109 0.032418
0.618379 0.184244 0.025481
0.645237 0.182047 0.018763
0.671064 0.180665 0.012569
0.696129 0.179963 0.006967
0.720727 0.179723 0.001910
0.745118 0.179801 0.000000
0.769499 0.180150 0.000000
0.794004 0.180779 0.000000
0.818708 0.181701 0.000000
0.843643 0.182911 0.000000
0.868816 0.184385 0.000000
0.894217 0.186087 0.000000
0.919829 0.187980 0.000000
0.062510 0.240407 0.087314
0.078568 0.238585 0.085813
0.095391 0.236818 0.084081
0.113470 0.235255 0.082258
0.133327 0.233947 0.080454
0.155391 0.232910 0.078760
0.179901 0.232183 0.077253
0.206852 0.231795 0.075965
0.236006 0.231727 0.074880
0.266979 0.231909 0.073949
0.299331 0.232258 0.073102
0.332601 0.232689 0.072251
0.366325 0.233095 0.071285
0.400053 0.233307 0.070049
0.433412 0.233094 0.068349
0.466154 0.232234 0.065957
0.498136 0.230614 0.062610
0.529315 0.228264 0.058030
0.559664 0.225346 0.052235
0.589033 0.222121 0.045574
0.617228 0.219015 0.038518
0.644186 0.216472 0.031548
0.670050 0.214658 0.024962
0.695116 0.213428 0.018835
0.719710 0.212579 0.013171
0.744109 0.212018 0.008017
0.768520 0.211758 0.003476
0.793076 0.211845 0.000000
0.817849 0.212311 0.000000
0.842867 0.213148 0.000000
0.868128 0.214318 0.000000
0.893619 0.215773 0.000000
0.919321 0.217463 0.000000
0.073577 0.273528 0.100821
0.088983 0.271713 0.099133
0.104913 0.270000 0.097217
0.121988 0.268579 0.095261
0.140841 0.267484 0.093379
0.161943 0.266704 0.091648
0.185532 0.266254 0.090126
0.211601 0.266151 0.088823
0.239916 0.266359 0.087713
0.270098 0.266793 0.086755
0.301704 0.267363 0.085891
0.334277 0.267989 0.085050
0.367362 0.268575 0.084138
0.400529 0.268979 0.083013
0.433424 0.269004 0.081478
0.465793 0.268440 0.079291
0.497462 0.267131 0.076168
0.528355 0.265062 0.071861
0.558515 0.262367 0.066364
0.587851 0.259278 0.059919
0.616067 0.256175 0.052942
0.643054 0.253444 0.045848
0.668954 0.251228 0.038895
0.694064 0.249401 0.032189
0.718709 0.247817 0.025818
0.743167 0.246463 0.019940
0.767647 0.245428 0.014755
0.792284 0.244814 0.010427
0.817146 0.244673 0.007032
0.842255 0.244996 0.004558
0.867608 0.245731 0.002935
0.893189 0.246817 0.002072
0.918976 0.248191 0.001869
0.085201 0.307532 0.115148
0.100017 0.305798 0.113384
0.115092 0.304201 0.111354
0.131229 0.302966 0.109322
0.149169 0.302089 0.107405
0.169407 0.301530 0.105670
0.192162 0.301297 0.104150
0.217409 0.301418 0.102827
0.244906 0.301852 0.101667
0.274279 0.302481 0.100636
0.305094 0.303214 0.099705
0.336909 0.303981 0.098828
0.369284 0.304706 0.097929
0.401814 0.305278 0.096868
0.434156 0.305540 0.095448
0.466049 0.305295 0.093424
0.497308 0.304358 0.090523
0.527844 0.302711 0.086549
0.557712 0.300457 0.081463
0.586849 0.297780 0.075408
0.614952 0.294966 0.068682
0.641913 0.292262 0.061572
0.667861 0.289750 0.054285
0.693059 0.287350 0.046976
0.717808 0.285006 0.039845
0.742375 0.282796 0.033176
0.766961 0.280896 0.027281
0.791699 0.279477 0.022392
0.816658 0.278620 0.018602
0.841860 0.278318 0.015877
0.867300 0.278511 0.014115
0.892961 0.279123 0.013194
0.918823 0.280082 0.012993
0.097138 0.342168 0.130139
0.111429 0.340548 0.128396
0.125705 0.339114 0.126336
0.141000 0.338094 0.124309
0.158139 0.337435 0.122433
0.177626 0.337080 0.120761
0.199664 0.337013 0.119293
0.224188 0.337296 0.117972
0.250930 0.337885 0.116742
0.279511 0.338611 0.115592
0.309519 0.339403 0.114540
0.340531 0.340210 0.113589
0.372134 0.340983 0.112675
0.403947 0.341650 0.111650
0.435646 0.342091 0.110316
0.466975 0.342133 0.108440
0.497759 0.341606 0.105780
0.527910 0.340481 0.102167
0.557420 0.338833 0.097543
0.586205 0.336783 0.091970
0.614074 0.334475 0.085587
0.640948 0.332003 0.078538
0.666926 0.329375 0.070974
0.692229 0.326552 0.063101
0.717114 0.323552 0.055227
0.741819 0.320538 0.047762
0.766531 0.317779 0.041136
0.791379 0.315523 0.035657
0.816433 0.313896 0.031436
0.841719 0.312901 0.028419
0.867234 0.312476 0.026477
0.892962 0.312537 0.025457
0.918882 0.313004 0.025217
0.108847 0.376872 0.145314
0.122788 0.375581 0.143841
0.136447 0.374325 0.141937
0.151078 0.373526 0.140056
0.167567 0.373121 0.138351
0.186447 0.372999 0.136851
0.207940 0.373139 0.135536
0.231873 0.373530 0.134269
0.257924 0.374118 0.132968
0.285746 0.374800 0.131666
0.314953 0.375524 0.130454
0.345138 0.376246 0.129400
0.375919 0.376951 0.128454
0.406952 0.377617 0.127444
0.437933 0.378166 0.126174
0.468622 0.378461 0.124441
0.498857 0.378362 0.122033
0.528551 0.377812 0.118780
0.557638 0.376839 0.114606
0.586024 0.375496 0.109508
0.613597 0.373802 0.103487
0.640324 0.371719 0.096551
0.666292 0.369189 0.088797
0.691681 0.366181 0.080464
0.716703 0.362747 0.071941
0.741554 0.359098 0.063744
0.766395 0.355587 0.056413
0.791349 0.352547 0.050334
0.816490 0.350162 0.045646
0.841848 0.348459 0.042291
0.867423 0.347382 0.040116
0.893200 0.346848 0.038948
0.919161 0.346776 0.038623
0.120181 0.411378 0.160639
0.133962 0.410479 0.159554
0.147213 0.409482 0.158038
0.161370 0.408937 0.156501
0.177359 0.408775 0.155103
0.195781 0.408875 0.153884
0.216937 0.409240 0.152862
0.240391 0.409668 0.151715
0.265791 0.410118 0.150356
0.292887 0.410625 0.148908
0.321312 0.411168 0.147510
0.350654 0.411682 0.146332
0.380579 0.412200 0.145337
0.410798 0.412784 0.144305
0.441017 0.413391 0.143060
0.471001 0.413914 0.141453
0.500604 0.414221 0.139289
0.529759 0.414216 0.136353
0.558376 0.413884 0.132562
0.586338 0.413225 0.127891
0.613581 0.412162 0.122228
0.640111 0.410562 0.115455
0.666018 0.408327 0.107630
0.691453 0.405405 0.099001
0.716587 0.401826 0.089986
0.741570 0.397803 0.081174
0.766532 0.393745 0.073197
0.791588 0.390064 0.066517
0.816812 0.387008 0.061324
0.842235 0.384641 0.057573
0.867858 0.382931 0.055109
0.893669 0.381803 0.053741
0.919653 0.381183 0.053282
0.130882 0.445384 0.176178
0.144721 0.444897 0.175539
0.157893 0.444262 0.174568
0.171814 0.443942 0.173536
0.187559 0.444013 0.172618
0.205786 0.444352 0.171868
0.226673 0.444836 0.171193
0.249677 0.445200 0.170215
0.274415 0.445418 0.168842
0.300784 0.445649 0.167307
0.328393 0.445897 0.165723
0.356872 0.446102 0.164395
0.385953 0.446368 0.163302
0.415379 0.446829 0.162176
0.444842 0.447460 0.160887
0.474097 0.448175 0.159355
0.502996 0.448837 0.157413
0.531558 0.449285 0.154723
0.559659 0.449487 0.151236
0.587154 0.449420 0.146955
0.614021 0.448945 0.141666
0.640302 0.447865 0.135144
0.666088 0.446073 0.127418
0.691512 0.443479 0.118701
0.716711 0.440047 0.109390
0.741800 0.435958 0.100101
0.766878 0.431635 0.091539
0.792041 0.427541 0.084256
0.817356 0.423977 0.078515
0.842846 0.421061 0.074315
0.868511 0.418793 0.071509
0.894344 0.417122 0.069890
0.920337 0.415983 0.069248
0.140532 0.478478 0.191819
0.154591 0.478313 0.191637
0.168054 0.478031 0.191269
0.182179 0.477977 0.190833
0.198040 0.478288 0.190530
0.216301 0.478839 0.190367
0.236941 0.479355 0.190091
0.259510 0.479623 0.189399
0.283702 0.479656 0.188235
0.309214 0.479512 0.186661
0.335862 0.479302 0.184963
0.363491 0.479162 0.183462
0.391821 0.479213 0.182163
0.420528 0.479553 0.180869
0.449297 0.480186 0.179470
0.477872 0.481031 0.177915
0.506101 0.481933 0.176062
0.534001 0.482724 0.173599
0.561480 0.483339 0.170441
0.588434 0.483731 0.166544
0.614868 0.483748 0.161670
0.640841 0.483195 0.155562
0.666445 0.481936 0.148164
0.691793 0.479837 0.139596
0.717003 0.476801 0.130185
0.742168 0.472954 0.120540
0.767359 0.468686 0.111437
0.792644 0.464462 0.103545
0.818064 0.460620 0.097226
0.843628 0.457329 0.092538
0.869336 0.454635 0.089348
0.895185 0.452518 0.087436
0.921178 0.450932 0.086565
0.149323 0.510701 0.207607
0.163724 0.510708 0.207793
0.177771 0.510671 0.207940
0.192411 0.510800 0.208095
0.208593 0.511222 0.208372
0.226904 0.511808 0.208714
0.247245 0.512246 0.208822
0.269314 0.512436 0.208538
0.292995 0.512355 0.207763
0.317694 0.511914 0.206328
0.343472 0.511335 0.204684
0.370363 0.510907 0.203122
0.398011 0.510740 0.201648
0.426070 0.510957 0.200189
0.454220 0.511569 0.198663
0.482174 0.512464 0.197017
0.509766 0.513483 0.195167
0.536955 0.514486 0.192933
0.563729 0.515382 0.190146
0.590076 0.516093 0.186661
0.616027 0.516492 0.182276
0.641646 0.516419 0.176752
0.667016 0.515714 0.169909
0.692237 0.514204 0.161715
0.717416 0.511750 0.152387
0.742633 0.508401 0.142489
0.767932 0.504484 0.132879
0.793345 0.500421 0.124378
0.818879 0.496558 0.117467
0.844526 0.493106 0.112266
0.870277 0.490156 0.108659
0.896142 0.487725 0.106412
0.922133 0.485796 0.105261
0.157597 0.542222 0.223623
0.172423 0.542270 0.224098
0.187117 0.542310 0.224634
0.202378 0.542472 0.225242
0.218923 0.542821 0.225939
0.237186 0.543245 0.226620
0.257177 0.543533 0.227068
0.278743 0.543576 0.227123
0.301719 0.543292 0.226644
0.325759 0.542700 0.225654
0.351023 0.542077 0.224439
0.377391 0.541532 0.223033
0.404403 0.541148 0.221524
0.431852 0.541235 0.220012
0.459418 0.541783 0.218415
0.486763 0.542636 0.216685
0.513684 0.543662 0.214876
0.540147 0.544740 0.212893
0.566208 0.545776 0.210461
0.591931 0.546675 0.207391
0.617379 0.547340 0.203559
0.642618 0.547653 0.198751
0.667730 0.547459 0.192649
0.692803 0.546573 0.185019
0.717933 0.544819 0.175954
0.743184 0.542162 0.165946
0.768575 0.538829 0.155902
0.794107 0.535175 0.146801
0.819754 0.531533 0.139274
0.845482 0.528136 0.133525
0.871280 0.525113 0.129460
0.897162 0.522518 0.126829
0.923156 0.520368 0.125342
0.165552 0.573185 0.239882
0.180821 0.573180 0.240600
0.196101 0.573168 0.241425
0.211911 0.573230 0.242344
0.228770 0.573394 0.243321
0.247019 0.573589 0.244250
0.266754 0.573678 0.244964
0.287913 0.573551 0.245309
0.310353 0.573150 0.245202
0.333929 0.572537 0.244706
0.358711 0.571912 0.243955
0.384498 0.571310 0.242886
0.410886 0.570810 0.241594
0.437711 0.570731 0.240224
0.464670 0.571083 0.238693
0.491378 0.571773 0.236967
0.517612 0.572696 0.235272
0.543353 0.573738 0.233605
0.568729 0.574806 0.231492
0.593855 0.575766 0.228754
0.618811 0.576566 0.225443
0.643668 0.577147 0.221431
0.668516 0.577383 0.216234
0.693449 0.577098 0.209314
0.718539 0.576109 0.200730
0.743809 0.574279 0.190854
0.769265 0.571692 0.180508
0.794898 0.568631 0.170811
0.820647 0.565404 0.162623
0.846449 0.562252 0.156280
0.872291 0.559328 0.151716
0.898197 0.556722 0.148654
0.924205 0.554482 0.146773
0.173250 0.603717 0.256353
0.188941 0.603604 0.257288
0.204723 0.603470 0.258340
0.220990 0.603370 0.259489
0.238130 0.603322 0.260678
0.256426 0.603281 0.261809
0.276006 0.603164 0.262749
0.296867 0.602885 0.263376
0.318935 0.602410 0.263634
0.342129 0.601792 0.263557
0.366391 0.601131 0.263196
0.391528 0.600480 0.262547
0.417257 0.599911 0.261636
0.443363 0.599590 0.260547
0.469615 0.599669 0.259344
0.495662 0.600119 0.257998
0.521274 0.600841 0.256594
0.546394 0.601790 0.255120
0.571157 0.602835 0.253267
0.595747 0.603736 0.250710
0.620252 0.604537 0.247775
0.644727 0.605238 0.244430
0.669294 0.605779 0.240208
0.694108 0.606038 0.234136
0.719187 0.605856 0.226373
0.744462 0.604912 0.216939
0.769957 0.603134 0.206449
0.795676 0.600772 0.196182
0.821515 0.598102 0.187309
0.847382 0.595352 0.180373
0.873267 0.592682 0.175308
0.899209 0.590209 0.171793
0.925249 0.588013 0.169472
0.180696 0.633930 0.272994
0.196773 0.633684 0.274127
0.212984 0.633404 0.275377
0.229636 0.633128 0.276714
0.247030 0.632873 0.278083
0.265405 0.632615 0.279394
0.284894 0.632303 0.280543
0.305531 0.631882 0.281436
0.327283 0.631330 0.282026
0.350079 0.630676 0.282320
0.373817 0.629973 0.282343
0.398321 0.629268 0.282105
0.423358 0.628614 0.281625
0.448707 0.628115 0.280963
0.474175 0.627936 0.280254
0.499521 0.628097 0.279482
0.524586 0.628572 0.278475
0.549184 0.629329 0.277151
0.573443 0.630225 0.275516
0.597572 0.631001 0.273259
0.621683 0.631706 0.270570
0.645794 0.632373 0.267440
0.670002 0.632998 0.263774
0.694774 0.633717 0.258819
0.719854 0.634275 0.252185
0.745091 0.634176 0.243484
0.770580 0.633207 0.233168
0.796382 0.631612 0.222480
0.822309 0.629615 0.213007
0.848236 0.627397 0.205572
0.874173 0.625115 0.200066
0.900173 0.622909 0.196106
0.926274 0.620884 0.193311
0.187876 0.663920 0.289756
0.204302 0.663536 0.291075
0.220881 0.663105 0.292503
0.237860 0.662662 0.294010
0.255480 0.662219 0.295543
0.273941 0.661769 0.297026
0.293371 0.661282 0.298376
0.313818 0.660726 0.299519
0.335269 0.660086 0.300414
0.357662 0.659375 0.301053
0.380886 0.658625 0.301451
0.404781 0.657869 0.301624
0.429152 0.657156 0.301600
0.453797 0.656567 0.301436
0.478533 0.656203 0.301196
0.503192 0.656119 0.300842
0.527631 0.656327 0.300231
0.551747 0.656793 0.299256
0.575599 0.657394 0.297898
0.599341 0.657980 0.296074
0.623102 0.658553 0.293793
0.646915 0.659162 0.290972
0.670918 0.659789 0.287292
0.695568 0.660692 0.283130
0.720511 0.661640 0.277474
0.745627 0.662170 0.269706
0.771088 0.662010 0.260002
0.796978 0.661239 0.249251
0.822992 0.660023 0.239469
0.848984 0.658433 0.231708
0.874999 0.656641 0.225833
0.901092 0.654817 0.221428
0.927288 0.653080 0.218120
0.194770 0.693760 0.306588
0.211509 0.693244 0.308083
0.228407 0.692673 0.309677
0.245664 0.692076 0.311343
0.263479 0.691469 0.313032
0.282020 0.690852 0.314682
0.301400 0.690210 0.316225
0.321673 0.689527 0.317604
0.342835 0.688793 0.318780
0.364832 0.688014 0.319742
0.387561 0.687209 0.320496
0.410882 0.686404 0.321061
0.434625 0.685639 0.321464
0.458615 0.684974 0.321742
0.482690 0.684477 0.321913
0.506713 0.684201 0.321935
0.530579 0.684166 0.321706
0.554237 0.684351 0.321139
0.577718 0.684683 0.320209
0.601121 0.685084 0.318883
0.624567 0.685551 0.317095
0.648166 0.686116 0.314656
0.672083 0.686791 0.311424
0.696472 0.687695 0.307625
0.721184 0.688735 0.302617
0.746203 0.689578 0.295646
0.771652 0.689997 0.286600
0.797549 0.689973 0.276335
0.823606 0.689524 0.266647
0.849662 0.688595 0.258664
0.875792 0.687361 0.252421
0.902017 0.686002 0.247537
0.928334 0.684643 0.243661
0.201363 0.723510 0.323443
0.218380 0.722872 0.325101
0.235553 0.722173 0.326851
0.253047 0.721441 0.328666
0.271027 0.720691 0.330505
0.289633 0.719930 0.332315
0.308965 0.719153 0.334043
0.329074 0.718352 0.335639
0.349962 0.717523 0.337073
0.371583 0.716668 0.338328
0.393849 0.715801 0.339409
0.416638 0.714942 0.340327
0.439806 0.714123 0.341102
0.463204 0.713387 0.341754
0.486693 0.712784 0.342282
0.510162 0.712356 0.342646
0.533537 0.712127 0.342775
0.556787 0.712091 0.342609
0.579933 0.712219 0.342122
0.603045 0.712478 0.341286
0.626239 0.712863 0.339989
0.649657 0.713383 0.338025
0.673415 0.714063 0.335333
0.697560 0.714940 0.331937
0.722075 0.715951 0.327449
0.747018 0.716948 0.321236
0.772460 0.717776 0.313046
0.798300 0.718296 0.303479
0.824333 0.718419 0.294162
0.850449 0.718107 0.286079
0.876697 0.717451 0.279474
0.903047 0.716598 0.274079
0.929479 0.715671 0.269610
0.207641 0.753213 0.340276
0.224906 0.752465 0.342085
0.242316 0.751654 0.343979
0.260012 0.750803 0.345934
0.278130 0.749930 0.347913
0.296787 0.749044 0.349874
0.316071 0.748148 0.351772
0.336027 0.747239 0.353567
0.356661 0.746318 0.355230
0.377937 0.745386 0.356745
0.399780 0.744453 0.358111
0.422089 0.743537 0.359334
0.444743 0.742661 0.360425
0.467619 0.741859 0.361389
0.490603 0.741168 0.362217
0.513604 0.740623 0.362877
0.536567 0.740249 0.363319
0.559470 0.740053 0.363498
0.582334 0.740030 0.363383
0.605218 0.740174 0.362930
0.628227 0.740481 0.362021
0.651481 0.740958 0.360496
0.675069 0.741618 0.358279
0.699025 0.742464 0.355318
0.723378 0.743455 0.351338
0.748225 0.744543 0.345751
0.773618 0.745633 0.338280
0.799390 0.746517 0.329715
0.825394 0.747075 0.321105
0.851554 0.747267 0.313233
0.877858 0.747136 0.306411
0.904280 0.746778 0.300577
0.930796 0.746293 0.295566
0.213598 0.782902 0.357050
0.231082 0.782058 0.358995
0.248700 0.781149 0.361020
0.266568 0.780196 0.363102
0.284801 0.779217 0.365211
0.303499 0.778224 0.367309
0.322736 0.777224 0.369360
0.342554 0.776218 0.371329
0.362960 0.775210 0.373192
0.383927 0.774202 0.374931
0.405394 0.773204 0.376540
0.427281 0.772229 0.378018
0.449487 0.771298 0.379369
0.471914 0.770436 0.380590
0.494468 0.769675 0.381668
0.517079 0.769043 0.382574
0.539700 0.768565 0.383272
0.562320 0.768257 0.383724
0.584959 0.768128 0.383891
0.607671 0.768184 0.383714
0.630541 0.768429 0.383093
0.653666 0.768870 0.381905
0.677120 0.769514 0.380057
0.700951 0.770358 0.377435
0.725207 0.771376 0.373795
0.749966 0.772539 0.368742
0.775238 0.773758 0.362179
0.800906 0.774866 0.354652
0.826853 0.775739 0.346878
0.853003 0.776324 0.339434
0.879319 0.776632 0.332632
0.905770 0.776717 0.326546
0.932332 0.776649 0.321135
0.219232 0.812602 0.373733
0.236913 0.811676 0.375799
0.254712 0.810683 0.377941
0.272729 0.809643 0.380137
0.291062 0.808574 0.382360
0.309794 0.807490 0.384580
0.328989 0.806400 0.386764
0.348686 0.805308 0.388883
0.368894 0.804221 0.390914
0.389592 0.803144 0.392839
0.410736 0.802084 0.394648
0.432259 0.801054 0.396336
0.454084 0.800073 0.397899
0.476130 0.799162 0.399328
0.498325 0.798346 0.400608
0.520611 0.797652 0.401714
0.542955 0.797105 0.402615
0.565348 0.796723 0.403273
0.587811 0.796525 0.403646
0.610392 0.796522 0.403672
0.633160 0.796725 0.403265
0.656192 0.797145 0.402322
0.679556 0.797787 0.400736
0.703306 0.798645 0.398372
0.727494 0.799703 0.395032
0.752162 0.800919 0.390510
