app/src/main/assets/luts/GR-RetroBlue_V4.cube
TITLE "Ricoh Retro Blue"
#Lut generated by JC from Ricoh GR3X HDF
LUT_3D_SIZE 5
DOMAIN_MIN 0.0 0.0 0.0
DOMAIN_MAX 1.0 1.0 1.0
0.000000 0.000000 0.000000
0.248988 0.093228 0.203234
0.433750 0.171840 0.205583
0.562348 0.240819 0.226691
0.679947 0.298217 0.252673
0.108721 0.261383 0.246955
0.285840 0.295565 0.261437
0.449818 0.329241 0.271994
0.564780 0.349629 0.264693
0.691589 0.401532 0.295556
0.249047 0.436239 0.319725
0.360002 0.461734 0.343068
0.473762 0.473658 0.348528
0.587637 0.491843 0.350602
0.707024 0.515298 0.357996
0.357175 0.591598 0.401227
0.467310 0.628072 0.446511
0.568324 0.652017 0.476443
0.655156 0.654814 0.478158
0.757076 0.663174 0.465193
0.455612 0.752832 0.490208
0.560993 0.791449 0.538293
0.650105 0.812406 0.568774
0.730358 0.815516 0.574232
0.829771 0.829825 0.575070
0.054591 0.058218 0.333755
0.298123 0.142684 0.350877
0.507572 0.269264 0.388879
0.643831 0.356484 0.414675
0.759417 0.403680 0.427354
0.202199 0.340025 0.406442
0.304451 0.310503 0.358301
0.514103 0.381541 0.406805
0.647949 0.437758 0.433811
0.773932 0.496311 0.462861
0.309479 0.498285 0.433910
0.405779 0.509852 0.440856
0.538079 0.533697 0.458273
0.678676 0.582471 0.497944
0.786179 0.596036 0.505937
0.417648 0.640113 0.498065
0.511901 0.671972 0.533577
0.601235 0.686696 0.548591
0.682826 0.683180 0.545555
0.801273 0.708486 0.566904
0.515220 0.797604 0.585301
0.607863 0.833173 0.626369
0.684737 0.847782 0.647863
0.760720 0.848122 0.652508
0.865058 0.867512 0.666320
0.085452 0.035382 0.438740
0.308308 0.137198 0.451750
0.487780 0.254995 0.464247
0.666703 0.398409 0.529521
0.804807 0.468398 0.565494
0.261446 0.339965 0.509574
0.406860 0.379376 0.524590
0.549508 0.419594 0.530368
0.688209 0.489810 0.559872
0.829758 0.565317 0.602461
0.363079 0.516761 0.531223
0.451026 0.535761 0.546818
0.491352 0.478203 0.479462
0.677759 0.573812 0.563619
0.843020 0.652801 0.629000
0.469370 0.666834 0.587560
0.549655 0.699327 0.620931
0.603504 0.682385 0.599638
0.704380 0.697650 0.611787
0.845071 0.746331 0.656794
0.561666 0.822557 0.668434
0.640352 0.854408 0.700560
0.707948 0.865637 0.713530
0.793622 0.876884 0.725812
0.898447 0.899050 0.745466
0.181662 0.093888 0.567981
0.346598 0.167163 0.569201
0.499198 0.270004 0.575702
0.664365 0.397035 0.620479
0.820543 0.488514 0.670966
0.341973 0.363752 0.624381
0.449820 0.394208 0.620380
0.568418 0.447374 0.632591
0.695996 0.508985 0.651751
0.852235 0.595729 0.707264
0.429378 0.537493 0.645438
0.501934 0.546360 0.642937
0.588992 0.563268 0.645035
0.701195 0.596795 0.662049
0.872331 0.688042 0.733211
0.506483 0.668139 0.670728
0.557332 0.678783 0.677925
0.610380 0.672881 0.667083
0.642198 0.624395 0.606147
0.873058 0.769774 0.742461
0.589468 0.824923 0.747219
0.652662 0.847831 0.765997
0.707594 0.854741 0.768801
0.782460 0.857900 0.764819
0.917146 0.913355 0.817199
0.274654 0.171301 0.693582
0.412878 0.236691 0.698782
0.545559 0.318755 0.707982
0.686737 0.411498 0.734832
0.839048 0.501456 0.780235
0.411204 0.401551 0.753812
0.516380 0.439478 0.751623
0.610680 0.480259 0.750489
0.721981 0.532992 0.762528
0.871600 0.614199 0.812489
0.505073 0.576913 0.788543
0.582205 0.593800 0.784720
0.657187 0.614389 0.786649
0.745108 0.634571 0.784822
0.896375 0.713754 0.840499
0.556586 0.695269 0.802744
0.614955 0.707232 0.805715
0.681754 0.725968 0.815877
0.758707 0.729820 0.802408
0.918099 0.815503 0.870075
0.622482 0.841479 0.859030
0.685955 0.861480 0.871578
0.750352 0.880552 0.883236
0.834958 0.899266 0.890389
1.000000 1.000000 1.000000
