app/src/main/assets/luts/GR-RetroBlue_V4.cube
TITLE "Ricoh Retro Blue"
#Lut generated by JC from Ricoh GR3X HDF
LUT_3D_SIZE 9
DOMAIN_MIN 0.0 0.0 0.0
DOMAIN_MAX 1.0 1.0 1.0
0.000000 0.000000 0.000000
0.108438 0.049200 0.190387
0.248988 0.093228 0.203234
0.355804 0.137483 0.208697
0.433750 0.171840 0.205583
0.500525 0.206901 0.213620
0.562348 0.240819 0.226691
0.621194 0.270837 0.239450
0.679947 0.298217 0.252673
0.031545 0.143413 0.209794
0.145405 0.171867 0.222842
0.272422 0.198322 0.234251
0.374365 0.228702 0.242354
0.452518 0.254475 0.244193
0.513577 0.273661 0.242248
0.568873 0.296153 0.246532
0.627590 0.323766 0.259246
0.688284 0.351406 0.274377
0.108721 0.261383 0.246955
0.190237 0.279461 0.253449
0.285840 0.295565 0.261437
0.377722 0.315519 0.270449
0.449818 0.329241 0.271994
0.506671 0.334159 0.262161
0.564780 0.349629 0.264693
0.627241 0.374231 0.278351
0.691589 0.401532 0.295556
0.186455 0.358343 0.285373
0.241902 0.368002 0.288223
0.309421 0.376776 0.291583
0.383877 0.388748 0.297108
0.448917 0.397365 0.299534
0.507004 0.402899 0.296101
0.565985 0.412752 0.296016
0.627967 0.428891 0.303621
0.695721 0.454481 0.321530
0.249047 0.436239 0.319725
0.303826 0.452580 0.335063
0.360002 0.461734 0.343068
0.420240 0.469723 0.348405
0.473762 0.473658 0.348528
0.531115 0.483527 0.352023
0.587637 0.491843 0.350602
0.640280 0.494880 0.344249
0.707024 0.515298 0.357996
0.303387 0.511925 0.357683
0.359419 0.529655 0.378111
0.414171 0.543460 0.395273
0.470000 0.555169 0.408002
0.517676 0.559484 0.411788
0.569634 0.568941 0.418507
0.621684 0.575499 0.418153
0.661361 0.566242 0.396463
0.727080 0.584425 0.406235
0.357175 0.591598 0.401227
0.413370 0.610918 0.424562
0.467310 0.628072 0.446511
0.520048 0.642676 0.464665
0.568324 0.652017 0.476443
0.612693 0.656385 0.481666
0.655156 0.654814 0.478158
0.698110 0.650736 0.464159
0.757076 0.663174 0.465193
0.408394 0.672738 0.446324
0.464311 0.693529 0.471438
0.516561 0.711533 0.494747
0.565658 0.725765 0.513820
0.610488 0.734267 0.526223
0.651052 0.736219 0.530647
0.690623 0.733882 0.527725
0.736118 0.734911 0.522458
0.791506 0.745457 0.522343
0.455612 0.752832 0.490208
0.510518 0.773876 0.515445
0.560993 0.791449 0.538293
0.607472 0.804625 0.556659
0.650105 0.812406 0.568774
0.689930 0.815019 0.574059
0.730358 0.815516 0.574232
0.776265 0.819315 0.573381
0.829771 0.829825 0.575070
0.013289 0.042484 0.263324
0.146160 0.080001 0.277819
0.286891 0.128160 0.288724
0.398882 0.184466 0.301432
0.479059 0.228784 0.304549
0.543871 0.264544 0.310463
0.607621 0.301025 0.323535
0.665644 0.329343 0.332954
0.722804 0.353410 0.342190
0.077254 0.185567 0.301974
0.173965 0.200168 0.295951
0.301883 0.226877 0.307608
0.412496 0.264668 0.323773
0.494967 0.295734 0.330399
0.554737 0.318265 0.329820
0.611566 0.347450 0.337211
0.671858 0.377969 0.350261
0.731462 0.404028 0.362342
0.152799 0.308473 0.330582
0.223487 0.319125 0.327739
0.308944 0.322028 0.323942
0.410291 0.345988 0.338614
0.491255 0.365202 0.346651
0.547724 0.372952 0.340167
0.610572 0.398594 0.352206
0.674040 0.426263 0.367617
0.735219 0.450994 0.380918
0.222698 0.400092 0.354362
0.276491 0.409980 0.355663
0.341706 0.413243 0.354917
0.417700 0.423215 0.359494
0.494742 0.440951 0.371786
0.558943 0.453918 0.377821
0.619823 0.468121 0.384666
0.676334 0.479453 0.389460
0.739454 0.501126 0.403444
0.278472 0.467549 0.373252
0.324421 0.477792 0.379697
0.377595 0.482127 0.384824
0.443623 0.493908 0.394098
0.514029 0.513097 0.409665
0.582448 0.535285 0.426623
0.641046 0.546841 0.432135
0.690939 0.546513 0.427453
0.750428 0.559681 0.435906
0.331374 0.537220 0.405402
0.379182 0.548784 0.418437
0.428651 0.558836 0.431121
0.485613 0.572466 0.443532
0.544946 0.587469 0.457346
0.606786 0.607592 0.475318
0.661771 0.617033 0.481735
0.709474 0.614984 0.474424
0.764969 0.622575 0.476096
0.387635 0.616793 0.449701
0.440063 0.634752 0.470569
0.490136 0.650816 0.490191
0.542174 0.666524 0.507628
0.591951 0.677433 0.519876
0.635979 0.681347 0.525059
0.675093 0.676203 0.520353
0.722855 0.676578 0.516874
0.784066 0.690932 0.523197
0.439834 0.697792 0.495446
0.492929 0.718235 0.519213
0.541625 0.735440 0.540719
0.587858 0.748810 0.557867
0.630774 0.756186 0.568542
0.668527 0.755480 0.570681
0.704601 0.749628 0.566099
0.752125 0.752566 0.566265
0.811697 0.766973 0.572821
0.486888 0.777321 0.539619
0.539359 0.798172 0.563798
0.586716 0.815052 0.585219
0.630150 0.827136 0.601906
0.670239 0.833530 0.612431
0.707665 0.834298 0.616340
0.746292 0.833224 0.616314
0.792635 0.837460 0.617980
0.848113 0.849743 0.623457
0.054591 0.058218 0.333755
0.171680 0.094089 0.342064
0.298123 0.142684 0.350877
0.413996 0.206417 0.369289
0.507572 0.269264 0.388879
0.580165 0.318028 0.403095
0.643831 0.356484 0.414675
0.702384 0.382799 0.421319
0.759417 0.403680 0.427354
0.131643 0.210198 0.378400
0.213069 0.218943 0.367585
0.311998 0.234138 0.362997
0.428581 0.280254 0.386144
0.518566 0.322596 0.402221
0.580651 0.354971 0.408705
0.644494 0.394228 0.423365
0.708728 0.427285 0.436687
0.769159 0.452546 0.446678
0.202199 0.340025 0.406442
0.257123 0.338882 0.392919
0.304451 0.310503 0.358301
0.412741 0.341457 0.379716
0.514103 0.381541 0.406805
0.581696 0.406083 0.417343
0.647949 0.437758 0.433811
0.712559 0.470215 0.450521
0.773932 0.496311 0.462861
0.260232 0.432609 0.422892
0.310705 0.439856 0.422147
0.354217 0.421877 0.400785
0.420177 0.420290 0.394067
0.516488 0.456256 0.423797
0.599658 0.489841 0.450595
0.663657 0.510530 0.464620
0.719003 0.523814 0.471266
0.778442 0.542940 0.481317
0.309479 0.498285 0.433910
0.355513 0.508625 0.439922
0.405779 0.509852 0.440856
0.463541 0.511509 0.440445
0.538079 0.533697 0.458273
0.617057 0.566111 0.485331
0.678676 0.582471 0.497944
0.730485 0.586064 0.500173
0.786179 0.596036 0.505937
0.362100 0.563947 0.458240
0.412092 0.579768 0.473359
0.458136 0.588274 0.483489
0.509443 0.595620 0.489519
0.565820 0.607142 0.498811
0.624039 0.622242 0.511520
0.679172 0.633138 0.519730
0.733723 0.638876 0.525235
0.791165 0.648517 0.532189
0.417648 0.640113 0.498065
0.468382 0.659231 0.518633
0.511901 0.671972 0.533577
0.555210 0.680282 0.542215
0.601235 0.686696 0.548591
0.643484 0.687414 0.549591
0.682826 0.683180 0.545555
0.737336 0.691439 0.553545
0.801273 0.708486 0.566904
0.469117 0.719280 0.541879
0.519159 0.739501 0.564097
0.561862 0.753727 0.581352
0.601250 0.762080 0.592188
0.640643 0.766107 0.598403
0.677763 0.764464 0.598751
0.714948 0.760098 0.595812
0.765969 0.767076 0.602307
0.827983 0.783916 0.614512
0.515220 0.797604 0.585301
0.564792 0.817999 0.607779
0.607863 0.833173 0.626369
0.647043 0.842891 0.639656
0.684737 0.847782 0.647863
0.721639 0.848393 0.651237
0.760720 0.848122 0.652508
0.808123 0.853710 0.657128
0.865058 0.867512 0.666320
0.065860 0.043024 0.384325
0.183571 0.086405 0.392622
0.302203 0.141993 0.401270
0.410530 0.203844 0.414228
0.513992 0.279330 0.442874
0.600251 0.348694 0.470875
0.666567 0.394043 0.486287
0.727461 0.421496 0.494979
0.787001 0.443019 0.502358
0.152845 0.199487 0.430893
0.247996 0.224624 0.431957
0.343637 0.255528 0.435415
0.444396 0.294372 0.447342
0.535225 0.340668 0.464332
0.599483 0.381321 0.473851
0.665733 0.427879 0.492624
0.735175 0.465344 0.510094
0.798737 0.492177 0.521788
0.240693 0.348641 0.465345
0.299448 0.354260 0.460783
0.352669 0.344592 0.442636
0.433476 0.356144 0.442260
0.531157 0.397182 0.467534
0.605110 0.431903 0.484838
0.667802 0.464851 0.499004
0.738384 0.503646 0.520409
0.804830 0.534149 0.536326
0.296937 0.449623 0.482576
0.346886 0.459012 0.485812
0.386324 0.442943 0.466620
0.425576 0.419100 0.437159
0.512685 0.448674 0.459011
0.608837 0.496209 0.497910
0.677684 0.524060 0.517377
0.741597 0.547365 0.531921
0.808950 0.576145 0.549798
0.342189 0.518875 0.491944
0.393449 0.536910 0.506666
0.434832 0.533111 0.501640
0.469729 0.513626 0.479800
0.516323 0.508310 0.469660
0.601635 0.546658 0.502664
0.680558 0.580036 0.532208
0.747952 0.600132 0.549392
0.813166 0.622417 0.565503
0.390658 0.582784 0.509725
0.441089 0.603075 0.529186
0.477938 0.604613 0.531808
0.514793 0.598401 0.523819
0.553593 0.591851 0.514410
0.611462 0.606065 0.525617
0.681067 0.631177 0.547340
0.746538 0.648631 0.563397
0.812870 0.668415 0.580900
0.445459 0.657875 0.545090
0.494209 0.678648 0.566591
0.529604 0.686212 0.575690
0.557874 0.680913 0.569790
0.598321 0.681422 0.569782
0.646208 0.687313 0.574868
0.697376 0.695555 0.581685
0.755999 0.708037 0.593365
0.819513 0.724749 0.608153
0.496081 0.736010 0.586294
0.543227 0.756427 0.607507
0.579406 0.767236 0.620282
0.610724 0.769318 0.623708
0.647879 0.771360 0.626902
0.689330 0.773888 0.630305
0.733016 0.776501 0.633583
0.784986 0.784762 0.641865
0.845762 0.800567 0.654610
0.540477 0.813070 0.628196
0.587107 0.833030 0.648874
0.625791 0.846482 0.664522
0.660909 0.854038 0.674444
0.697557 0.858744 0.681333
0.736666 0.861870 0.686340
0.778390 0.864594 0.690333
0.826063 0.870900 0.696326
0.882648 0.884720 0.707137
0.085452 0.035382 0.438740
0.198311 0.080146 0.445637
0.308308 0.137198 0.451750
0.400980 0.191724 0.452775
0.487780 0.254995 0.464247
0.577256 0.329631 0.492450
0.666703 0.398409 0.529521
0.739388 0.440083 0.551420
0.804807 0.468398 0.565494
0.168520 0.182912 0.482239
0.271882 0.217689 0.486505
0.369567 0.263940 0.497611
0.450184 0.298363 0.496050
0.523801 0.333970 0.498073
0.599901 0.385224 0.514805
0.680051 0.444989 0.545763
0.753103 0.489572 0.570072
0.819967 0.520571 0.586296
0.261446 0.339965 0.509574
0.336992 0.359111 0.516940
0.406860 0.379376 0.524590
0.477059 0.397288 0.525584
0.549508 0.419594 0.530368
0.619125 0.449424 0.540487
0.688209 0.489810 0.559872
0.760920 0.532522 0.584120
0.829758 0.565317 0.602461
0.326261 0.450136 0.527199
0.380514 0.464130 0.536595
0.429049 0.467552 0.536985
0.472385 0.458417 0.521162
0.529067 0.462442 0.515722
0.611164 0.497710 0.540299
0.689598 0.537619 0.568629
0.765724 0.575543 0.595035
0.837155 0.608439 0.616250
0.363079 0.516761 0.531223
0.415370 0.537929 0.550168
0.451026 0.535761 0.546818
0.477327 0.513474 0.520510
0.491352 0.478203 0.479462
0.566311 0.506828 0.502068
0.677759 0.573812 0.563619
0.769078 0.620263 0.604411
0.843020 0.652801 0.629000
0.408285 0.583755 0.548157
0.463198 0.612099 0.576172
0.495836 0.614689 0.578589
0.521220 0.599267 0.559219
0.531741 0.565420 0.521341
0.580494 0.569971 0.523401
0.676944 0.621782 0.571585
0.768722 0.666361 0.613435
0.843768 0.696622 0.639765
0.469370 0.666834 0.587560
0.516850 0.690373 0.611178
0.549655 0.699327 0.620931
0.571219 0.688809 0.608175
0.603504 0.682385 0.599638
0.643697 0.679745 0.595689
0.704380 0.697650 0.611787
0.777054 0.724286 0.636630
0.845071 0.746331 0.656794
0.519453 0.746051 0.627681
0.563765 0.766817 0.647948
0.596017 0.777092 0.659224
0.623285 0.777097 0.659304
0.657916 0.777500 0.659227
0.701055 0.781306 0.662818
0.751992 0.790990 0.672397
0.805895 0.802175 0.682611
0.865799 0.817860 0.696249
0.561666 0.822557 0.668434
0.605310 0.841885 0.687072
0.640352 0.854408 0.700560
0.672366 0.860906 0.708090
0.707948 0.865637 0.713530
0.748941 0.870956 0.719475
0.793622 0.876884 0.725812
0.841494 0.884066 0.732444
0.898447 0.899050 0.745466
0.128913 0.056631 0.503447
0.226949 0.094491 0.507039
0.321566 0.142902 0.508056
0.402192 0.190416 0.503339
0.477937 0.245373 0.505084
0.568570 0.322918 0.532034
0.663158 0.396340 0.571231
0.742953 0.445994 0.599388
0.814633 0.481882 0.619944
0.203554 0.190838 0.541097
0.298528 0.223877 0.544645
0.382154 0.263228 0.548988
0.452841 0.296556 0.543184
0.523025 0.337611 0.545936
0.601003 0.393766 0.562218
0.684869 0.454144 0.592844
0.760939 0.500916 0.619650
0.832397 0.537244 0.641232
0.281434 0.337173 0.554483
0.366756 0.362017 0.566629
0.428671 0.384538 0.573913
0.491714 0.407822 0.576803
0.555435 0.430460 0.579428
0.621875 0.458847 0.586428
0.696950 0.502483 0.608643
0.772839 0.548185 0.635640
0.845557 0.585805 0.658910
0.353801 0.451298 0.572528
0.410233 0.463840 0.579381
0.453170 0.471956 0.583247
0.499861 0.477874 0.580847
0.552276 0.484105 0.577285
0.620996 0.508508 0.590446
0.700403 0.549791 0.617732
0.780401 0.594335 0.648222
0.856503 0.632435 0.674501
0.383724 0.511407 0.571146
0.433737 0.528640 0.585592
0.460856 0.526468 0.580940
0.495769 0.521932 0.570150
0.536764 0.517685 0.559062
0.594185 0.531002 0.565562
0.686952 0.582413 0.608452
0.783472 0.637386 0.654800
0.865575 0.678122 0.687567
0.412363 0.570707 0.577304
0.468592 0.598391 0.602834
0.497520 0.602672 0.605536
0.530009 0.599238 0.597274
0.552351 0.579460 0.573071
0.565593 0.549554 0.539144
0.645406 0.585913 0.570295
0.771222 0.665469 0.646346
0.868274 0.719904 0.695467
0.487068 0.667345 0.626005
0.527108 0.685895 0.642584
0.556842 0.695821 0.652586
0.580970 0.690212 0.644660
0.601440 0.673074 0.624189
0.610759 0.639488 0.588285
0.664674 0.651587 0.596917
0.777496 0.718966 0.661689
0.868934 0.766906 0.706635
0.536890 0.747866 0.665557
0.576813 0.766636 0.682348
0.605064 0.776287 0.692135
0.628945 0.775315 0.690342
0.655694 0.769332 0.682199
0.688527 0.763383 0.674252
0.740454 0.774139 0.683430
0.803118 0.794922 0.701794
0.875452 0.824781 0.729416
0.577565 0.825496 0.706733
0.617475 0.842831 0.722073
0.648736 0.854090 0.733141
0.677245 0.859365 0.738137
0.709481 0.862344 0.740119
0.748148 0.866104 0.742662
0.792875 0.872380 0.747782
0.843043 0.882477 0.756512
0.907162 0.905778 0.778490
0.181662 0.093888 0.567981
0.265923 0.126639 0.569977
0.346598 0.167163 0.569201
0.423109 0.214176 0.569226
0.499198 0.270004 0.575702
0.580238 0.334780 0.593736
0.664365 0.397035 0.620479
0.744589 0.447473 0.646993
0.820543 0.488514 0.670966
0.260340 0.225189 0.603275
0.336076 0.250775 0.603251
0.402963 0.280198 0.601213
0.472121 0.318081 0.604120
0.541912 0.363071 0.611370
0.611408 0.411137 0.621562
0.684760 0.458834 0.639653
0.762287 0.504724 0.665177
0.838617 0.545511 0.690809
0.341973 0.363752 0.624381
0.404071 0.380079 0.623864
0.449820 0.394208 0.620380
0.507776 0.419824 0.626609
0.568418 0.447374 0.632591
0.628066 0.473686 0.637003
0.695996 0.508985 0.651751
0.774048 0.553630 0.679033
0.852235 0.595729 0.707264
0.403122 0.477304 0.645278
0.450892 0.480955 0.639112
0.485582 0.486100 0.636783
0.529947 0.497818 0.638737
0.581474 0.511332 0.641968
0.640616 0.531112 0.649776
0.703139 0.556748 0.661686
0.781038 0.598637 0.689358
0.863265 0.642857 0.721519
0.429378 0.537493 0.645438
0.472619 0.543444 0.644639
0.501934 0.546360 0.642937
0.538203 0.551056 0.640621
0.588992 0.563268 0.645035
0.642815 0.576752 0.650921
0.701195 0.596795 0.662049
0.782826 0.638979 0.693638
0.872331 0.688042 0.733211
0.441317 0.583140 0.636486
0.490030 0.597100 0.645777
0.507404 0.591071 0.637506
0.542752 0.597680 0.640192
0.595797 0.613417 0.651199
0.615242 0.592833 0.623593
0.658510 0.596130 0.620036
0.765879 0.659967 0.677398
0.875348 0.728485 0.738751
0.506483 0.668139 0.670728
0.539506 0.678202 0.678016
0.557332 0.678783 0.677925
0.580100 0.676714 0.674298
0.610380 0.672881 0.667083
0.622227 0.645717 0.633740
0.642198 0.624395 0.606147
0.751378 0.688785 0.666100
0.873058 0.769774 0.742461
0.549171 0.744340 0.704712
0.583481 0.757681 0.715208
0.605549 0.763570 0.720396
0.624957 0.761709 0.717088
0.649202 0.756269 0.708096
0.675671 0.745969 0.692912
0.705101 0.734277 0.676169
0.774210 0.760710 0.698488
0.880092 0.826466 0.762211
0.589468 0.824923 0.747219
0.625115 0.838595 0.757952
0.652662 0.847831 0.765997
0.678111 0.852376 0.769110
0.707594 0.854741 0.768801
0.742523 0.856094 0.766589
0.782460 0.857900 0.764819
0.837741 0.873345 0.777780
0.917146 0.913355 0.817199
0.231698 0.134456 0.630869
0.307326 0.165599 0.633109
0.379281 0.202003 0.633315
0.450028 0.245281 0.635606
0.521557 0.295136 0.642577
0.595406 0.348844 0.655720
0.672055 0.401666 0.675092
0.750041 0.450165 0.698545
0.827515 0.493701 0.723386
0.307692 0.259633 0.664382
0.375250 0.284341 0.664464
0.435178 0.310850 0.662537
0.495919 0.344015 0.664197
0.558433 0.382419 0.669133
0.622498 0.422853 0.677002
0.691529 0.464857 0.691562
0.766987 0.508598 0.714423
0.845133 0.551552 0.741377
0.382355 0.385711 0.691141
0.440057 0.403198 0.689260
0.485434 0.417926 0.685185
0.533719 0.438300 0.685403
0.586192 0.462328 0.687882
0.640639 0.487101 0.690742
0.702428 0.517295 0.700951
0.777061 0.557787 0.724762
0.858030 0.602415 0.755684
0.439858 0.491721 0.712867
0.489149 0.501959 0.709055
0.524858 0.508224 0.704075
0.562257 0.517521 0.701414
0.606671 0.530374 0.701571
0.655370 0.545056 0.702681
0.707538 0.562548 0.706139
0.781419 0.600155 0.730423
0.867985 0.649117 0.767644
0.474823 0.564171 0.722123
0.517493 0.569727 0.717809
0.546540 0.572147 0.713602
0.580303 0.579278 0.713277
0.624713 0.591205 0.716336
0.669488 0.599674 0.716016
0.714066 0.607488 0.713736
0.784195 0.640086 0.734659
0.877341 0.694763 0.779023
0.502764 0.621022 0.725444
0.535680 0.622010 0.719556
0.552581 0.616800 0.711370
0.587547 0.628046 0.718616
0.638118 0.647073 0.731856
0.667519 0.638768 0.716581
0.703582 0.635629 0.704764
0.783779 0.676692 0.735229
0.884687 0.739499 0.788462
0.529266 0.677025 0.731904
0.559915 0.681910 0.732543
0.578215 0.682735 0.731889
0.600556 0.684374 0.731257
0.638087 0.692715 0.735436
0.665766 0.682713 0.718642
0.684121 0.659087 0.686322
0.770916 0.705116 0.723193
0.884658 0.781347 0.792482
0.563200 0.747121 0.756703
0.593759 0.755191 0.761271
0.615352 0.760386 0.764810
0.636517 0.762811 0.765095
0.664461 0.764146 0.762030
0.695472 0.760061 0.751042
0.717521 0.741229 0.723841
0.767181 0.748496 0.723895
0.893764 0.838003 0.811721
0.602792 0.828485 0.797000
0.635842 0.839052 0.803942
0.662669 0.847612 0.810419
0.688797 0.854029 0.814497
0.719182 0.859031 0.815685
0.754488 0.862210 0.813563
0.793219 0.863595 0.809269
0.850539 0.881882 0.823952
0.939579 0.933708 0.875875
0.274654 0.171301 0.693582
0.345639 0.202490 0.697069
0.412878 0.236691 0.698782
0.478822 0.275507 0.701749
0.545559 0.318755 0.707982
0.614526 0.364756 0.718734
0.686737 0.411498 0.734832
0.762060 0.457433 0.755917
0.839048 0.501456 0.780235
0.344646 0.287902 0.726110
0.409176 0.313862 0.727830
0.466999 0.339947 0.727280
0.523265 0.369361 0.727977
0.580882 0.402357 0.731225
0.641428 0.437908 0.738030
0.707389 0.476238 0.750978
0.780078 0.517761 0.771614
0.857345 0.560862 0.797848
0.411204 0.401551 0.753812
0.468643 0.422088 0.754117
0.516380 0.439478 0.751623
0.562375 0.458593 0.750150
0.610680 0.480259 0.750489
0.662648 0.504127 0.753201
0.721981 0.532992 0.762528
0.792615 0.570489 0.783096
0.871600 0.614199 0.812489
0.465724 0.500098 0.775433
0.516478 0.515435 0.774905
0.556094 0.525938 0.771577
0.594159 0.537283 0.769167
0.635651 0.550457 0.768005
0.680843 0.564803 0.767629
0.733368 0.584422 0.772571
0.801929 0.618244 0.792527
0.883772 0.664028 0.825928
0.505073 0.576913 0.788543
0.548972 0.587397 0.787395
0.582205 0.593800 0.784720
0.617200 0.603328 0.785335
0.657187 0.614389 0.786649
0.698078 0.622451 0.784263
0.745108 0.634571 0.784822
0.811935 0.665557 0.803590
0.896375 0.713754 0.840499
0.533288 0.637934 0.795115
0.570016 0.644626 0.793762
0.597480 0.648753 0.792413
0.631230 0.659277 0.797481
0.672064 0.671685 0.803191
0.709530 0.674968 0.798254
0.753600 0.682026 0.795168
0.822551 0.714021 0.815760
0.909067 0.764691 0.856017
0.556586 0.695269 0.802744
0.589299 0.701712 0.803635
0.614955 0.707232 0.805715
0.644410 0.715742 0.810739
0.681754 0.725968 0.815877
0.718742 0.728576 0.810857
0.758707 0.729820 0.802408
0.826432 0.759226 0.821718
0.918099 0.815503 0.870075
0.585533 0.762670 0.823593
0.617527 0.770582 0.826942
0.644193 0.778283 0.831723
0.672117 0.786395 0.836783
0.705473 0.794125 0.839759
0.742572 0.798393 0.836843
0.781695 0.799445 0.829245
0.841407 0.820506 0.842816
0.936329 0.880299 0.899134
0.622482 0.841479 0.859030
0.656253 0.851619 0.864759
0.685955 0.861480 0.871578
0.716126 0.871198 0.878183
0.750352 0.880552 0.883236
0.789642 0.889177 0.886191
0.834958 0.899266 0.890389
0.896572 0.924522 0.912078
1.000000 1.000000 1.000000
