app/src/main/assets/luts/GR-RetroBlue_V4.cube
TITLE "Ricoh Retro Blue"
#Lut generated by JC from Ricoh GR3X HDF
LUT_3D_SIZE 33
DOMAIN_MIN 0.0 0.0 0.0
DOMAIN_MAX 1.0 1.0 1.0
0.000000 0.000000 0.000000
0.000383 0.016118 0.169396
0.033851 0.027180 0.179130
0.070615 0.038375 0.185769
0.108438 0.049200 0.190387
0.145911 0.059863 0.194058
0.182175 0.070667 0.197350
0.216650 0.081800 0.200438
0.248988 0.093228 0.203234
0.278982 0.104720 0.205524
0.306643 0.116076 0.207211
0.332218 0.127118 0.208308
0.355804 0.137483 0.208697
0.377391 0.146872 0.208281
0.397414 0.155606 0.207384
0.416083 0.163811 0.206254
0.433750 0.171840 0.205583
0.450841 0.180139 0.206058
0.467638 0.188862 0.207804
0.484220 0.197867 0.210475
0.500525 0.206901 0.213620
0.516488 0.215784 0.216930
0.532085 0.224414 0.220241
0.547348 0.232756 0.223493
0.562348 0.240819 0.226691
0.577170 0.248634 0.229864
0.591886 0.256228 0.233038
0.606549 0.263623 0.236231
0.621194 0.270837 0.239450
0.635842 0.277885 0.242700
0.650509 0.284785 0.245983
0.665207 0.291555 0.249305
0.679947 0.298217 0.252673
0.000000 0.040327 0.173846
0.011096 0.049881 0.184069
0.044202 0.060439 0.192238
0.080752 0.070593 0.197303
0.118325 0.080100 0.200699
0.155536 0.089426 0.203583
0.191533 0.098957 0.206425
0.225677 0.108941 0.209300
0.257630 0.119347 0.212025
0.287169 0.129873 0.214248
0.314270 0.140285 0.215832
0.339307 0.150426 0.216833
0.362517 0.159968 0.217201
0.383843 0.168632 0.216867
0.403763 0.176834 0.216214
0.422480 0.184698 0.215436
0.440139 0.192319 0.214945
0.457048 0.199988 0.215268
0.473529 0.207921 0.216607
0.489697 0.216064 0.218731
0.505512 0.224231 0.221265
0.520948 0.232300 0.223966
0.536035 0.240216 0.226731
0.550851 0.247969 0.229540
0.565496 0.255577 0.232417
0.580063 0.263059 0.235385
0.594617 0.270422 0.238453
0.609191 0.277665 0.241611
0.623804 0.284784 0.244847
0.638464 0.291780 0.248148
0.653174 0.298659 0.251506
0.667938 0.305433 0.254920
0.682761 0.312120 0.258390
0.000000 0.075457 0.188044
0.024574 0.084901 0.196270
0.056176 0.094432 0.202544
0.091101 0.103134 0.206375
0.127444 0.111189 0.209033
0.163763 0.119173 0.211525
0.199075 0.127441 0.214191
0.232635 0.136219 0.217042
0.264038 0.145456 0.219792
0.293121 0.154948 0.222100
0.319857 0.164431 0.223797
0.344525 0.173635 0.224865
0.367511 0.182408 0.225436
0.388892 0.190618 0.225554
0.408921 0.198434 0.225398
0.427765 0.205927 0.225106
0.445506 0.213090 0.224887
0.462354 0.220074 0.225069
0.478577 0.227083 0.225862
0.494297 0.234151 0.227182
0.509539 0.241222 0.228826
0.524372 0.248289 0.230690
0.538910 0.255371 0.232761
0.553288 0.262486 0.235064
0.567627 0.269638 0.237619
0.582010 0.276814 0.240416
0.596477 0.283983 0.243423
0.611038 0.291111 0.246594
0.625688 0.298169 0.249890
0.640419 0.305142 0.253280
0.655224 0.312027 0.256745
0.670100 0.318829 0.260277
0.685048 0.325562 0.263875
0.013758 0.110107 0.199682
0.039790 0.119084 0.205909
0.069263 0.127548 0.210569
0.101793 0.135025 0.213639
0.136157 0.141912 0.216035
0.170989 0.148799 0.218484
0.205177 0.156005 0.221212
0.237917 0.163697 0.224181
0.268712 0.171835 0.227067
0.297389 0.180317 0.229577
0.323935 0.188904 0.231553
0.348513 0.197306 0.232948
0.371442 0.205411 0.233908
0.392907 0.213143 0.234518
0.413036 0.220475 0.234820
0.431937 0.227398 0.234878
0.449717 0.233921 0.234820
0.466526 0.240122 0.234823
0.482497 0.246101 0.235000
0.497716 0.251931 0.235359
0.512322 0.257735 0.235931
0.526529 0.263679 0.236829
0.540557 0.269879 0.238164
0.554584 0.276364 0.239991
0.568728 0.283102 0.242291
0.583040 0.290023 0.244996
0.597524 0.297043 0.248013
0.612158 0.304092 0.251256
0.626916 0.311115 0.254655
0.641777 0.318084 0.258166
0.656726 0.324989 0.261764
0.671756 0.331833 0.265437
0.686866 0.338627 0.269182
0.031545 0.143413 0.209794
0.056202 0.151692 0.214475
0.083527 0.159201 0.217989
0.113491 0.165794 0.220560
0.145405 0.171867 0.222842
0.178187 0.177930 0.225327
0.210783 0.184287 0.228152
0.242378 0.191086 0.231220
0.272422 0.198322 0.234251
0.300634 0.205891 0.236968
0.326941 0.213599 0.239217
0.351449 0.221244 0.240983
0.374365 0.228702 0.242354
0.395842 0.235845 0.243367
0.415958 0.242541 0.243991
0.434805 0.248740 0.244239
0.452518 0.254475 0.244193
0.469210 0.259782 0.243925
0.484887 0.264654 0.243435
0.499585 0.269176 0.242781
0.513577 0.273661 0.242248
0.527250 0.278476 0.242204
0.540913 0.283834 0.242890
0.554760 0.289758 0.244362
0.568873 0.296153 0.246532
0.583255 0.302874 0.249247
0.597867 0.309783 0.252350
0.612660 0.316771 0.255713
0.627590 0.323766 0.259246
0.642630 0.330733 0.262900
0.657762 0.337659 0.266645
0.672981 0.344547 0.270472
0.688284 0.351406 0.274377
0.050279 0.175190 0.219262
0.073581 0.182758 0.222898
0.098913 0.189468 0.225681
0.126379 0.195366 0.227906
0.155652 0.200806 0.230060
0.186017 0.206211 0.232490
0.216620 0.211858 0.235275
0.246701 0.217892 0.238300
0.275692 0.224335 0.241339
0.303232 0.231098 0.244160
0.329164 0.238030 0.246623
0.353502 0.244984 0.248707
0.376337 0.251812 0.250432
0.397710 0.258303 0.251743
0.417641 0.264242 0.252535
0.436236 0.269582 0.252797
0.453679 0.274393 0.252589
0.470085 0.278691 0.251918
0.485403 0.282422 0.250722
0.499651 0.285699 0.249130
0.513206 0.288993 0.247651
0.526568 0.292818 0.246858
0.540101 0.297461 0.247093
0.553985 0.302928 0.248388
0.568246 0.309050 0.250564
0.582834 0.315609 0.253378
0.597670 0.322414 0.256614
0.612686 0.329329 0.260117
0.627833 0.336278 0.263791
0.643084 0.343222 0.267586
0.658428 0.350153 0.271480
0.673860 0.357074 0.275464
0.689380 0.363992 0.279534
0.069576 0.205431 0.228517
0.091539 0.212345 0.231459
0.114992 0.218377 0.233765
0.140102 0.223664 0.235730
0.166779 0.228539 0.237723
0.194621 0.233360 0.239994
0.222998 0.238366 0.242581
0.251263 0.243692 0.245387
0.278888 0.249397 0.248259
0.305494 0.255436 0.251038
0.330845 0.261688 0.253603
0.354849 0.268020 0.255903
0.377456 0.274239 0.257876
0.398568 0.280047 0.259360
0.418133 0.285180 0.260189
0.436287 0.289616 0.260344
0.453253 0.293444 0.259857
0.469191 0.296679 0.258683
0.484114 0.299313 0.256806
0.498084 0.301552 0.254489
0.511475 0.303915 0.252359
0.524805 0.306980 0.251108
0.538459 0.311082 0.251138
0.552582 0.316199 0.252430
0.567135 0.322092 0.254708
0.582018 0.328480 0.257653
0.597129 0.335143 0.261015
0.612394 0.341937 0.264632
0.627774 0.348790 0.268419
0.643251 0.355673 0.272334
0.658821 0.362580 0.276362
0.674483 0.369515 0.280495
0.690237 0.376481 0.284728
0.089115 0.234142 0.237721
0.109707 0.240418 0.240162
0.131321 0.245800 0.242096
0.154197 0.250490 0.243811
0.178412 0.254812 0.245594
0.203780 0.259076 0.247618
0.229869 0.263481 0.249898
0.256166 0.268155 0.252368
0.282223 0.273185 0.254953
0.307668 0.278565 0.257560
0.332211 0.284195 0.260088
0.355655 0.289927 0.262450
0.377825 0.295530 0.264514
0.398509 0.300660 0.266048
0.417609 0.305050 0.266859
0.435270 0.308692 0.266913
0.451718 0.311660 0.266189
0.467175 0.313968 0.264601
0.481767 0.315694 0.262217
0.495607 0.317134 0.259438
0.509033 0.318817 0.256953
0.522538 0.321347 0.255519
0.536493 0.325069 0.255548
0.550973 0.329906 0.256937
0.565875 0.335554 0.259318
0.581065 0.341704 0.262336
0.596440 0.348138 0.265744
0.611939 0.354727 0.269402
0.627540 0.361416 0.273242
0.643239 0.368187 0.277239
0.659040 0.375037 0.281378
0.674943 0.381964 0.285650
0.690942 0.388965 0.290042
0.108721 0.261383 0.246955
0.127899 0.266999 0.248986
0.147670 0.271692 0.250560
0.168378 0.275734 0.251967
0.190237 0.279461 0.253449
0.213221 0.283153 0.255137
0.237065 0.286989 0.257049
0.261400 0.291098 0.259160
0.285840 0.295565 0.261437
0.310003 0.300373 0.263811
0.333551 0.305420 0.266186
0.356209 0.310550 0.268455
0.377722 0.315519 0.270449
0.397845 0.320014 0.271940
0.416478 0.323810 0.272748
0.433737 0.326876 0.272796
0.449818 0.329241 0.271994
0.464947 0.330926 0.270245
0.479318 0.332046 0.267667
0.493110 0.332932 0.264721
0.506671 0.334159 0.262161
0.520455 0.336343 0.260767
0.534763 0.339781 0.260890
0.549588 0.344321 0.262334
0.564780 0.349629 0.264693
0.580202 0.355415 0.267631
0.595769 0.361494 0.270944
0.611449 0.367777 0.274530
0.627241 0.374231 0.278351
0.643152 0.380845 0.282386
0.659185 0.387609 0.286615
0.675334 0.394511 0.291013
0.691589 0.401532 0.295556
0.128371 0.287302 0.256308
0.146158 0.292264 0.257996
0.164097 0.296234 0.259195
0.182668 0.299564 0.260218
0.202242 0.302634 0.261310
0.222921 0.305715 0.262587
0.244599 0.308991 0.264096
0.267067 0.312630 0.265883
0.289969 0.316676 0.267914
0.312844 0.321028 0.270069
0.335294 0.325548 0.272237
0.357007 0.330091 0.274314
0.377710 0.334445 0.276144
0.397186 0.338375 0.277545
0.415354 0.341713 0.278367
0.432294 0.344394 0.278484
0.448160 0.346406 0.277762
0.463132 0.347776 0.276118
0.477417 0.348612 0.273683
0.491269 0.349241 0.270916
0.505049 0.350280 0.268591
0.519136 0.352280 0.267396
0.533723 0.355443 0.267570
0.548756 0.359583 0.268893
0.564084 0.364396 0.271007
0.579595 0.369655 0.273650
0.595246 0.375246 0.276693
0.611037 0.381128 0.280090
0.626983 0.387289 0.283822
0.643094 0.393715 0.287860
0.659361 0.400378 0.292160
0.675763 0.407242 0.296676
0.692278 0.414273 0.301362
0.148070 0.312085 0.265872
0.164595 0.316464 0.267314
0.180777 0.319753 0.268166
0.197282 0.322367 0.268778
0.214677 0.324775 0.269462
0.233165 0.327235 0.270320
0.252757 0.329926 0.271405
0.273473 0.333147 0.272903
0.294977 0.336906 0.274776
0.316623 0.340909 0.276760
0.337941 0.344962 0.278711
0.358624 0.348950 0.280560
0.378435 0.352736 0.282202
0.397208 0.356171 0.283508
0.414878 0.359129 0.284339
0.431494 0.361529 0.284544
0.447189 0.363340 0.283993
0.462107 0.364607 0.282641
0.476441 0.365434 0.280619
0.490468 0.366124 0.278346
0.504518 0.367235 0.276489
0.518863 0.369175 0.275553
0.533601 0.372040 0.275671
0.548663 0.375665 0.276669
0.563939 0.379833 0.278304
0.579378 0.384422 0.280440
0.594993 0.389413 0.283052
0.610823 0.394825 0.286159
0.626893 0.400661 0.289747
0.643193 0.406885 0.293762
0.659692 0.413437 0.298120
0.676347 0.420254 0.302741
0.693118 0.427281 0.307555
0.167627 0.335834 0.275653
0.183092 0.339762 0.276995
0.197692 0.342526 0.277618
0.212351 0.344543 0.277904
0.227841 0.346426 0.278319
0.244391 0.348356 0.278875
0.262036 0.350454 0.279557
0.281109 0.353255 0.280771
0.301323 0.356776 0.282516
0.321746 0.360431 0.284303
0.341901 0.364026 0.286011
0.361505 0.367482 0.287618
0.380387 0.370751 0.289091
0.398439 0.373761 0.290336
0.415591 0.376401 0.291195
0.431852 0.378569 0.291497
0.447336 0.380244 0.291141
0.462194 0.381498 0.290136
0.476615 0.382479 0.288641
0.490848 0.383461 0.287013
0.505153 0.384823 0.285712
0.519692 0.386803 0.285045
0.534476 0.389401 0.285049
0.549426 0.392475 0.285599
0.564493 0.395920 0.286599
0.579715 0.399753 0.288074
0.595186 0.404076 0.290137
0.610988 0.408978 0.292875
0.627143 0.414467 0.296275
0.643613 0.420475 0.300237
0.660329 0.426902 0.304628
0.677219 0.433653 0.309327
0.694227 0.440653 0.314243
0.186455 0.358343 0.285373
0.201127 0.362155 0.286925
0.214514 0.364612 0.287497
0.227849 0.366397 0.287803
0.241902 0.368002 0.288223
0.256968 0.369626 0.288732
0.273187 0.371436 0.289321
0.290752 0.373813 0.290258
0.309421 0.376776 0.291583
0.328467 0.379898 0.292988
0.347384 0.382953 0.294358
0.365892 0.385897 0.295725
0.383877 0.388748 0.297108
0.401246 0.391446 0.298378
0.417885 0.393846 0.299318
0.433739 0.395814 0.299722
0.448917 0.397365 0.299534
0.463638 0.398657 0.298856
0.478104 0.399872 0.297878
0.492498 0.401213 0.296865
0.507004 0.402899 0.296101
0.521696 0.405015 0.295715
0.536478 0.407438 0.295623
0.551235 0.410018 0.295710
0.565985 0.412752 0.296016
0.580876 0.415811 0.296752
0.596101 0.419434 0.298183
0.611791 0.423788 0.300477
0.627967 0.428891 0.303621
0.644552 0.434643 0.307469
0.661437 0.440903 0.311836
0.678518 0.447547 0.316562
0.695721 0.454481 0.321530
0.204172 0.379484 0.294718
0.218288 0.383294 0.296616
0.230936 0.385797 0.297515
0.243563 0.387780 0.298294
0.256790 0.389535 0.299170
0.270889 0.391165 0.299968
0.286151 0.392941 0.300733
0.302347 0.394894 0.301407
0.319353 0.397114 0.302144
0.336944 0.399558 0.303044
0.354552 0.401968 0.303960
0.372010 0.404467 0.305142
0.389216 0.407081 0.306593
0.405976 0.409611 0.307988
0.422108 0.411854 0.309042
0.437442 0.413606 0.309492
0.452146 0.414975 0.309369
0.466638 0.416317 0.308960
0.481111 0.417814 0.308459
0.495605 0.419515 0.307985
0.510259 0.421547 0.307709
0.525105 0.423902 0.307648
0.539893 0.426290 0.307549
0.554427 0.428491 0.307238
0.568789 0.430585 0.306867
0.583246 0.432886 0.306824
0.598096 0.435770 0.307535
0.613540 0.439500 0.309264
0.629611 0.444127 0.312024
0.646206 0.449537 0.315641
0.663172 0.455556 0.319886
0.680369 0.462028 0.324557
0.697702 0.468840 0.329509
0.220416 0.399222 0.303395
0.234273 0.403114 0.305768
0.246793 0.406002 0.307417
0.259335 0.408620 0.309177
0.272407 0.410989 0.311000
0.286131 0.412989 0.312489
0.300632 0.414777 0.313516
0.315663 0.416404 0.314046
0.331174 0.417991 0.314329
0.347544 0.419934 0.314958
0.363944 0.421779 0.315526
0.380463 0.423963 0.316632
0.396934 0.426420 0.318166
0.413071 0.428815 0.319625
0.428622 0.430894 0.320702
0.443258 0.432340 0.321038
0.457243 0.433373 0.320787
0.471435 0.434765 0.320589
0.485917 0.436595 0.320559
0.500486 0.438674 0.320600
0.515268 0.441081 0.320811
0.530288 0.443772 0.321154
0.545098 0.446253 0.321159
0.559399 0.448201 0.320557
0.573309 0.449731 0.319551
0.587190 0.451260 0.318665
0.601467 0.453308 0.318497
0.616459 0.456274 0.319460
0.632246 0.460285 0.321644
0.648704 0.465232 0.324870
0.665633 0.470914 0.328866
0.682852 0.477140 0.333384
0.700237 0.483770 0.338240
0.235092 0.417830 0.311445
0.248954 0.421907 0.314414
0.261895 0.425459 0.317165
0.274877 0.428913 0.320169
0.288259 0.432072 0.323156
0.302080 0.434692 0.325608
0.316156 0.436681 0.327129
0.330526 0.438363 0.327955
0.345193 0.439836 0.328402
0.360467 0.441445 0.329013
0.376107 0.443236 0.329848
0.391855 0.445263 0.330995
0.407489 0.447426 0.332332
0.422840 0.449536 0.333589
0.437550 0.451246 0.334378
0.451330 0.452282 0.334401
0.464616 0.453041 0.333997
0.478355 0.454382 0.333900
0.492690 0.456437 0.334257
0.507365 0.458953 0.334882
0.522347 0.461838 0.335697
0.537493 0.464876 0.336477
0.552279 0.467492 0.336656
0.566331 0.469277 0.335866
0.579703 0.470277 0.334244
0.592806 0.470948 0.332378
0.606252 0.471996 0.331092
0.620552 0.474031 0.331048
0.635866 0.477289 0.332457
0.652045 0.481671 0.335141
0.668828 0.486940 0.338776
0.685984 0.492864 0.343052
0.703351 0.499269 0.347742
0.249047 0.436239 0.319725
0.263087 0.440585 0.323352
0.276583 0.444743 0.327125
0.290083 0.448823 0.331141
0.303826 0.452580 0.335063
0.317781 0.455708 0.338343
0.331742 0.458080 0.340580
0.345941 0.460202 0.342176
0.360002 0.461734 0.343068
0.374616 0.463369 0.344128
0.389891 0.465454 0.345606
0.405224 0.467651 0.347103
0.420240 0.469723 0.348405
0.434691 0.471442 0.349284
0.448307 0.472559 0.349493
0.461133 0.473119 0.349076
0.473762 0.473658 0.348528
0.486975 0.474896 0.348494
0.501075 0.477109 0.349213
0.515888 0.480102 0.350502
0.531115 0.483527 0.352023
0.546368 0.486927 0.353307
0.561103 0.489700 0.353735
0.574887 0.491373 0.352841
0.587637 0.491843 0.350602
0.599763 0.491546 0.347602
0.612146 0.491451 0.344983
0.625568 0.492442 0.343746
0.640280 0.494880 0.344249
0.656094 0.498665 0.346307
0.672672 0.503510 0.349523
0.689717 0.509127 0.353515
0.707024 0.515298 0.357996
0.262754 0.454829 0.328546
0.276987 0.459396 0.332734
0.290872 0.463891 0.337186
0.304731 0.468304 0.341840
0.318658 0.472359 0.346316
0.332565 0.475745 0.350116
0.346479 0.478520 0.353088
0.360455 0.480907 0.355395
0.374286 0.482754 0.357067
0.388704 0.484820 0.358971
0.404123 0.487611 0.361515
0.419142 0.490044 0.363407
0.433716 0.492191 0.364862
0.447338 0.493568 0.365429
0.459921 0.494147 0.365130
0.471836 0.494280 0.364343
0.483715 0.494507 0.363599
0.496424 0.495645 0.363662
0.510383 0.498092 0.364836
0.525353 0.501573 0.366823
0.540774 0.505481 0.369038
0.556115 0.509226 0.370879
0.570794 0.512165 0.371631
0.584265 0.513707 0.370658
0.596349 0.513648 0.367816
0.607447 0.512398 0.363678
0.618686 0.511154 0.359673
0.631140 0.511090 0.357168
0.645199 0.512729 0.356722
0.660641 0.515976 0.358155
0.677029 0.520468 0.360975
0.693975 0.525838 0.364698
0.711219 0.531814 0.368968
0.276340 0.473621 0.337844
0.290678 0.478291 0.342421
0.304733 0.482884 0.347242
0.318691 0.487346 0.352186
0.332588 0.491450 0.356920
0.346392 0.494991 0.361094
0.360149 0.498002 0.364601
0.373924 0.500621 0.367541
0.387847 0.503037 0.370173
0.402357 0.505721 0.373017
0.417504 0.508802 0.376107
0.432136 0.511369 0.378345
0.446328 0.513587 0.380033
0.459607 0.515037 0.380824
0.471760 0.515635 0.380708
0.483049 0.515603 0.379904
0.494153 0.515458 0.378957
0.506324 0.516429 0.379102
0.520187 0.519138 0.380766
0.535285 0.523051 0.383387
0.550661 0.527176 0.386068
0.565902 0.531052 0.388330
0.580502 0.534118 0.389449
0.593600 0.535460 0.388378
0.605087 0.534962 0.385057
0.615310 0.532968 0.380010
0.625455 0.530692 0.374725
0.636926 0.529626 0.370958
0.650353 0.530558 0.369598
0.665508 0.533418 0.370503
0.681802 0.537713 0.373034
0.698715 0.542951 0.376558
0.715924 0.548799 0.380641
0.289868 0.492639 0.347564
0.304233 0.497335 0.352401
0.318317 0.501908 0.357416
0.332239 0.506309 0.362489
0.346041 0.510395 0.367379
0.359737 0.514049 0.371852
0.373387 0.517291 0.375830
0.387096 0.520251 0.379398
0.401025 0.523125 0.382758
0.415346 0.526121 0.386118
0.429907 0.529167 0.389341
0.444224 0.531902 0.392001
0.458068 0.534180 0.394003
0.471189 0.535834 0.395277
0.483427 0.536871 0.395898
0.494674 0.537147 0.395701
0.505389 0.536938 0.394959
0.516974 0.537693 0.395096
0.530659 0.540595 0.397168
0.545578 0.544603 0.400067
0.560303 0.548288 0.402585
0.574851 0.551636 0.404665
0.589278 0.554693 0.406093
0.602198 0.556013 0.405161
0.613568 0.555584 0.401941
0.623105 0.553083 0.396288
0.632164 0.549837 0.389816
0.642700 0.547866 0.384869
0.655630 0.548275 0.382743
0.670686 0.550992 0.383329
0.687037 0.555297 0.385735
0.703990 0.560527 0.389137
0.721179 0.566302 0.393041
0.303387 0.511925 0.357683
0.317750 0.516637 0.362725
0.331821 0.521188 0.367885
0.345692 0.525552 0.373068
0.359419 0.529655 0.378111
0.373048 0.533443 0.382866
0.386648 0.536938 0.387272
0.400319 0.540235 0.391374
0.414171 0.543460 0.395273
0.428249 0.546690 0.399028
0.442425 0.549848 0.402532
0.456425 0.552735 0.405570
0.470000 0.555169 0.408002
0.482959 0.557046 0.409801
0.495277 0.558457 0.411113
0.506823 0.559263 0.411797
0.517676 0.559484 0.411788
0.529317 0.560601 0.412473
0.542353 0.563172 0.414437
0.556153 0.566338 0.416783
0.569634 0.568941 0.418507
0.582752 0.570911 0.419503
0.596135 0.572981 0.420262
0.609853 0.575266 0.420545
0.621684 0.575499 0.418153
0.630728 0.572726 0.412232
0.638978 0.568840 0.405021
0.648779 0.566181 0.399171
0.661361 0.566242 0.396463
0.676492 0.569039 0.396932
0.692988 0.573495 0.399318
0.709968 0.578748 0.402582
0.727080 0.584425 0.406235
0.316912 0.531499 0.368173
0.331278 0.536257 0.373411
0.345346 0.540837 0.378728
0.359197 0.545233 0.384052
0.372892 0.549415 0.389277
0.386493 0.553367 0.394305
0.400070 0.557113 0.399087
0.413703 0.560713 0.403630
0.427458 0.564236 0.407970
0.441344 0.567706 0.412110
0.455261 0.571058 0.415972
0.469021 0.574151 0.419422
0.482424 0.576838 0.422352
0.495332 0.579054 0.424751
0.507694 0.580817 0.426674
0.519448 0.582090 0.428069
0.530785 0.583057 0.429041
0.542422 0.584417 0.430215
0.554710 0.586442 0.431878
0.567313 0.588640 0.433577
0.579609 0.590226 0.434595
0.591589 0.591112 0.434774
0.604146 0.592352 0.434864
0.617703 0.594548 0.435456
0.629426 0.594818 0.433467
0.638665 0.592439 0.428151
0.647139 0.588975 0.421410
0.656233 0.585665 0.414838
0.668336 0.585293 0.411528
0.683540 0.588213 0.411914
0.700044 0.592726 0.414139
0.716844 0.597827 0.417041
0.733711 0.603265 0.420254
0.330417 0.551339 0.378978
0.344801 0.556182 0.384417
0.358888 0.560843 0.389910
0.372748 0.565330 0.395405
0.386444 0.569638 0.400831
0.400039 0.573771 0.406117
0.413599 0.577748 0.411220
0.427185 0.581609 0.416127
0.440842 0.585386 0.420838
0.454565 0.589080 0.425333
0.468277 0.592633 0.429550
0.481840 0.595937 0.433395
0.495102 0.598879 0.436787
0.507954 0.601404 0.439705
0.520350 0.603514 0.442175
0.532293 0.605245 0.444209
0.543903 0.606720 0.445878
0.555458 0.608193 0.447389
0.567190 0.609824 0.448901
0.579036 0.611429 0.450261
0.590724 0.612570 0.451062
0.602263 0.613157 0.451149
0.614156 0.613813 0.450985
0.626428 0.614756 0.450721
0.637727 0.614658 0.448791
0.647612 0.612982 0.444560
0.656670 0.610174 0.438686
0.665517 0.606776 0.432120
0.677355 0.606270 0.428608
0.692347 0.609082 0.428691
0.708370 0.613192 0.430270
0.724628 0.617796 0.432427
0.741045 0.622799 0.434975
0.343856 0.571394 0.390023
0.358267 0.576348 0.395661
0.372383 0.581123 0.401339
0.386265 0.585734 0.407017
0.399973 0.590190 0.412640
0.413566 0.594498 0.418157
0.427101 0.598678 0.423528
0.440627 0.602749 0.428727
0.454175 0.606727 0.433736
0.467735 0.610597 0.438526
0.481249 0.614309 0.443041
0.494615 0.617776 0.447209
0.507716 0.620913 0.450967
0.520469 0.623669 0.454288
0.532836 0.626043 0.457181
0.544822 0.628067 0.459658
0.556475 0.629791 0.461737
0.567913 0.631307 0.463480
0.579301 0.632722 0.464983
0.590705 0.634002 0.466229
0.602026 0.634914 0.466999
0.613172 0.635276 0.467091
0.624338 0.635348 0.466671
0.635579 0.635328 0.465799
0.646408 0.634780 0.463853
0.656469 0.633297 0.460258
0.665932 0.630959 0.455175
0.675820 0.628780 0.449950
0.687861 0.628667 0.446836
0.702232 0.630999 0.446319
0.717432 0.634372 0.446959
0.733009 0.638343 0.448256
0.748906 0.642848 0.450080
0.357175 0.591598 0.401227
0.371609 0.596673 0.407053
0.385752 0.601575 0.412908
0.399654 0.606319 0.418759
0.413370 0.610918 0.424562
0.426951 0.615382 0.430274
0.440444 0.619724 0.435856
0.453890 0.623954 0.441278
0.467310 0.628072 0.446511
0.480695 0.632059 0.451519
0.493998 0.635867 0.456253
0.507144 0.639429 0.460653
0.520048 0.642676 0.464665
0.532640 0.645561 0.468257
0.544885 0.648073 0.471420
0.556773 0.650219 0.474150
0.568324 0.652017 0.476443
0.579603 0.653509 0.478321
0.590725 0.654759 0.479837
0.601768 0.655763 0.480995
0.612693 0.656385 0.481666
0.623428 0.656486 0.481699
0.634058 0.656178 0.481135
0.644675 0.655645 0.480031
0.655156 0.654814 0.478158
0.665293 0.653460 0.475067
0.675249 0.651711 0.470854
0.685906 0.650483 0.466808
0.698110 0.650736 0.464159
0.711880 0.652622 0.463171
0.726506 0.655518 0.463227
0.741604 0.659066 0.463942
0.757076 0.663174 0.465193
0.370321 0.611886 0.412516
0.384769 0.617079 0.418509
0.398927 0.622102 0.424521
0.412838 0.626970 0.430522
0.426547 0.631695 0.436475
0.440097 0.636285 0.442340
0.453529 0.640747 0.448080
0.466874 0.645083 0.453660
0.480147 0.649285 0.459047
0.493340 0.653330 0.464201
0.506419 0.657175 0.469075
0.519325 0.660765 0.473618
0.531997 0.664042 0.477781
0.544376 0.666963 0.481527
0.556427 0.669505 0.484835
0.568135 0.671659 0.487688
0.579506 0.673430 0.490074
0.590587 0.674836 0.492002
0.601449 0.675910 0.493493
0.612151 0.676644 0.494541
0.622691 0.676972 0.495075
0.633061 0.676837 0.495020
0.643322 0.676313 0.494384
0.653566 0.675542 0.493200
0.663808 0.674578 0.491377
0.674027 0.673406 0.488726
0.684429 0.672240 0.485442
0.695553 0.671660 0.482339
0.707831 0.672178 0.480139
0.721260 0.673881 0.479037
0.735500 0.676501 0.478798
0.750265 0.679786 0.479173
0.765427 0.683624 0.480046
0.383256 0.632201 0.423825
0.397704 0.637498 0.429959
0.411861 0.642628 0.436102
0.425762 0.647601 0.442224
0.439445 0.652426 0.448292
0.452946 0.657109 0.454268
0.466298 0.661650 0.460115
0.479524 0.666046 0.465797
0.492637 0.670284 0.471276
0.505629 0.674339 0.476513
0.518475 0.678173 0.481462
0.531132 0.681739 0.486076
0.543552 0.684986 0.490309
0.555690 0.687876 0.494124
0.567512 0.690378 0.497491
0.579002 0.692477 0.500387
0.590163 0.694167 0.502797
0.601026 0.695457 0.504720
0.611638 0.696359 0.506159
0.622045 0.696872 0.507105
0.632274 0.696975 0.507527
0.642357 0.696672 0.507398
0.652363 0.696036 0.506727
0.662387 0.695186 0.505542
0.672509 0.694235 0.503834
0.682823 0.693295 0.501611
