app/src/main/assets/luts/GR-一键森山大道_V4.cube
TITLE "Ricoh Hi-Contrast B&W"
#Lut generated by JC from Ricoh GR3X HDF
LUT_3D_SIZE 33
DOMAIN_MIN 0.0 0.0 0.0
DOMAIN_MAX 1.0 1.0 1.0
0.000000 0.000000 0.000000
0.000000 0.000000 0.000000
0.000000 0.000000 0.000000
0.000000 0.000000 0.000000
0.000000 0.000000 0.000000
0.000000 0.000000 0.000000
0.000000 0.000000 0.000000
0.000000 0.000000 0.000000
0.000000 0.000000 0.000000
0.000000 0.000000 0.000000
0.000000 0.000000 0.000000
0.002573 0.002573 0.002573
0.016267 0.016267 0.016267
0.036552 0.036552 0.036552
0.062518 0.062518 0.062518
0.092501 0.092501 0.092501
0.124708 0.124708 0.124708
0.157735 0.157735 0.157735
0.191017 0.191017 0.191017
0.224318 0.224318 0.224318
0.257412 0.257412 0.257412
0.290076 0.290076 0.290076
0.322148 0.322148 0.322148
0.353551 0.353551 0.353551
0.384265 0.384265 0.384265
0.414298 0.414298 0.414298
0.443664 0.443664 0.443664
0.472376 0.472376 0.472376
0.500447 0.500447 0.500447
0.527886 0.527886 0.527886
0.554704 0.554704 0.554704
0.580912 0.580912 0.580912
0.606519 0.606519 0.606519
0.000000 0.000000 0.000000
0.000000 0.000000 0.000000
0.000000 0.000000 0.000000
0.000000 0.000000 0.000000
0.000000 0.000000 0.000000
0.000000 0.000000 0.000000
0.000000 0.000000 0.000000
0.000000 0.000000 0.000000
0.000000 0.000000 0.000000
0.000000 0.000000 0.000000
0.000000 0.000000 0.000000
0.002196 0.002196 0.002196
0.016183 0.016183 0.016183
0.037159 0.037159 0.037159
0.064140 0.064140 0.064140
0.095148 0.095148 0.095148
0.128208 0.128208 0.128208
0.161918 0.161918 0.161918
0.195748 0.195748 0.195748
0.229474 0.229474 0.229474
0.262890 0.262890 0.262890
0.295798 0.295798 0.295798
0.328069 0.328069 0.328069
0.359656 0.359656 0.359656
0.390559 0.390559 0.390559
0.420794 0.420794 0.420794
0.450373 0.450373 0.450373
0.479304 0.479304 0.479304
0.507594 0.507594 0.507594
0.535249 0.535249 0.535249
0.562276 0.562276 0.562276
0.588682 0.588682 0.588682
0.614475 0.614475 0.614475
0.000000 0.000000 0.000000
0.000000 0.000000 0.000000
0.000000 0.000000 0.000000
0.000000 0.000000 0.000000
0.000000 0.000000 0.000000
0.000000 0.000000 0.000000
0.000000 0.000000 0.000000
0.000000 0.000000 0.000000
0.000000 0.000000 0.000000
0.000000 0.000000 0.000000
0.000000 0.000000 0.000000
0.004207 0.004207 0.004207
0.019094 0.019094 0.019094
0.040729 0.040729 0.040729
0.068247 0.068247 0.068247
0.099722 0.099722 0.099722
0.133210 0.133210 0.133210
0.167362 0.167362 0.167362
0.201552 0.201552 0.201552
0.235511 0.235511 0.235511
0.269051 0.269051 0.269051
0.302025 0.302025 0.302025
0.334358 0.334358 0.334358
0.366038 0.366038 0.366038
0.397077 0.397077 0.397077
0.427483 0.427483 0.427483
0.457258 0.457258 0.457258
0.486397 0.486397 0.486397
0.514900 0.514900 0.514900
0.542766 0.542766 0.542766
0.569997 0.569997 0.569997
0.596599 0.596599 0.596599
0.622577 0.622577 0.622577
0.000000 0.000000 0.000000
0.000000 0.000000 0.000000
0.000000 0.000000 0.000000
0.000000 0.000000 0.000000
0.000000 0.000000 0.000000
0.000000 0.000000 0.000000
0.000000 0.000000 0.000000
0.000000 0.000000 0.000000
0.000000 0.000000 0.000000
0.000000 0.000000 0.000000
0.000000 0.000000 0.000000
0.007963 0.007963 0.007963
0.024038 0.024038 0.024038
0.046421 0.046421 0.046421
0.074272 0.074272 0.074272
0.105923 0.105923 0.105923
0.139592 0.139592 0.139592
0.173962 0.173962 0.173962
0.208305 0.208305 0.208305
0.242290 0.242290 0.242290
0.275756 0.275756 0.275756
0.308637 0.308637 0.308637
0.340929 0.340929 0.340929
0.372646 0.372646 0.372646
0.403793 0.403793 0.403793
0.434358 0.434358 0.434358
0.464322 0.464322 0.464322
0.493665 0.493665 0.493665
0.522375 0.522375 0.522375
0.550449 0.550449 0.550449
0.577883 0.577883 0.577883
0.604680 0.604680 0.604680
0.630841 0.630841 0.630841
0.000000 0.000000 0.000000
0.000000 0.000000 0.000000
0.000000 0.000000 0.000000
0.000000 0.000000 0.000000
0.000000 0.000000 0.000000
0.000000 0.000000 0.000000
0.000000 0.000000 0.000000
0.000000 0.000000 0.000000
0.000000 0.000000 0.000000
0.000000 0.000000 0.000000
0.001208 0.001208 0.001208
0.012904 0.012904 0.012904
0.030286 0.030286 0.030286
0.053478 0.053478 0.053478
0.081717 0.081717 0.081717
0.113530 0.113530 0.113530
0.147281 0.147281 0.147281
0.181679 0.181679 0.181679
0.215949 0.215949 0.215949
0.249732 0.249732 0.249732
0.282931 0.282931 0.282931
0.315587 0.315587 0.315587
0.347765 0.347765 0.347765
0.379488 0.379488 0.379488
0.410730 0.410730 0.410730
0.441446 0.441446 0.441446
0.471591 0.471591 0.471591
0.501131 0.501131 0.501131
0.530045 0.530045 0.530045
0.558321 0.558321 0.558321
0.585955 0.585955 0.585955
0.612944 0.612944 0.612944
0.639286 0.639286 0.639286
0.000000 0.000000 0.000000
0.000000 0.000000 0.000000
0.000000 0.000000 0.000000
0.000000 0.000000 0.000000
0.000000 0.000000 0.000000
0.000000 0.000000 0.000000
0.000000 0.000000 0.000000
0.000000 0.000000 0.000000
0.000000 0.000000 0.000000
0.000000 0.000000 0.000000
0.005528 0.005528 0.005528
0.018953 0.018953 0.018953
0.037712 0.037712 0.037712
0.061795 0.061795 0.061795
0.090512 0.090512 0.090512
0.122528 0.122528 0.122528
0.156299 0.156299 0.156299
0.190560 0.190560 0.190560
0.224532 0.224532 0.224532
0.257892 0.257892 0.257892
0.290648 0.290648 0.290648
0.322964 0.322964 0.322964
0.354962 0.354962 0.354962
0.386650 0.386650 0.386650
0.417959 0.417959 0.417959
0.448805 0.448805 0.448805
0.479114 0.479114 0.479114
0.508836 0.508836 0.508836
0.537942 0.537942 0.537942
0.566414 0.566414 0.566414
0.594242 0.594242 0.594242
0.621418 0.621418 0.621418
0.647937 0.647937 0.647937
0.000000 0.000000 0.000000
0.000000 0.000000 0.000000
0.000000 0.000000 0.000000
0.000000 0.000000 0.000000
0.000000 0.000000 0.000000
0.000000 0.000000 0.000000
0.000000 0.000000 0.000000
0.000000 0.000000 0.000000
0.000000 0.000000 0.000000
0.000581 0.000581 0.000581
0.011091 0.011091 0.011091
0.026303 0.026303 0.026303
0.046505 0.046505 0.046505
0.071555 0.071555 0.071555
0.100785 0.100785 0.100785
0.132978 0.132978 0.132978
0.166677 0.166677 0.166677
0.200633 0.200633 0.200633
0.234101 0.234101 0.234101
0.266864 0.266864 0.266864
0.299056 0.299056 0.299056
0.330939 0.330939 0.330939
0.362678 0.362678 0.362678
0.394264 0.394264 0.394264
0.425583 0.425583 0.425583
0.456511 0.456511 0.456511
0.486948 0.486948 0.486948
0.516825 0.516825 0.516825
0.546105 0.546105 0.546105
0.574760 0.574760 0.574760
0.602775 0.602775 0.602775
0.630134 0.630134 0.630134
0.656824 0.656824 0.656824
0.000000 0.000000 0.000000
0.000000 0.000000 0.000000
0.000000 0.000000 0.000000
0.000000 0.000000 0.000000
0.000000 0.000000 0.000000
0.000000 0.000000 0.000000
0.000000 0.000000 0.000000
0.000000 0.000000 0.000000
0.000000 0.000000 0.000000
0.005679 0.005679 0.005679
0.018131 0.018131 0.018131
0.035143 0.035143 0.035143
0.056794 0.056794 0.056794
0.082816 0.082816 0.082816
0.112523 0.112523 0.112523
0.144803 0.144803 0.144803
0.178300 0.178300 0.178300
0.211783 0.211783 0.211783
0.244593 0.244593 0.244593
0.276678 0.276678 0.276678
0.308257 0.308257 0.308257
0.339648 0.339648 0.339648
0.371053 0.371053 0.371053
0.402450 0.402450 0.402450
0.433697 0.433697 0.433697
0.464636 0.464636 0.464636
0.495147 0.495147 0.495147
0.525144 0.525144 0.525144
0.554573 0.554573 0.554573
0.583398 0.583398 0.583398
0.611590 0.611590 0.611590
0.639124 0.639124 0.639124
0.665979 0.665979 0.665979
0.000000 0.000000 0.000000
0.000000 0.000000 0.000000
0.000000 0.000000 0.000000
0.000000 0.000000 0.000000
0.000000 0.000000 0.000000
0.000000 0.000000 0.000000
0.000000 0.000000 0.000000
0.000000 0.000000 0.000000
0.002200 0.002200 0.002200
0.012466 0.012466 0.012466
0.026854 0.026854 0.026854
0.045592 0.045592 0.045592
0.068599 0.068599 0.068599
0.095489 0.095489 0.095489
0.125559 0.125559 0.125559
0.157762 0.157762 0.157762
0.190845 0.190845 0.190845
0.223699 0.223699 0.223699
0.255820 0.255820 0.255820
0.287255 0.287255 0.287255
0.318252 0.318252 0.318252
0.349145 0.349145 0.349145
0.380157 0.380157 0.380157
0.411276 0.411276 0.411276
0.442354 0.442354 0.442354
0.473226 0.473226 0.473226
0.503751 0.503751 0.503751
0.533828 0.533828 0.533828
0.563383 0.563383 0.563383
0.592364 0.592364 0.592364
0.620724 0.620724 0.620724
0.648426 0.648426 0.648426
0.675437 0.675437 0.675437
0.000000 0.000000 0.000000
0.000000 0.000000 0.000000
0.000000 0.000000 0.000000
0.000000 0.000000 0.000000
0.000000 0.000000 0.000000
0.000000 0.000000 0.000000
0.000000 0.000000 0.000000
0.000357 0.000357 0.000357
0.008981 0.008981 0.008981
0.021250 0.021250 0.021250
0.037488 0.037488 0.037488
0.057785 0.057785 0.057785
0.081938 0.081938 0.081938
0.109478 0.109478 0.109478
0.139693 0.139693 0.139693
0.171588 0.171588 0.171588
0.204024 0.204024 0.204024
0.236126 0.236126 0.236126
0.267576 0.267576 0.267576
0.298433 0.298433 0.298433
0.328927 0.328927 0.328927
0.359361 0.359361 0.359361
0.389955 0.389955 0.389955
0.420726 0.420726 0.420726
0.451558 0.451558 0.451558
0.482293 0.482293 0.482293
0.512783 0.512783 0.512783
0.542907 0.542907 0.542907
0.572570 0.572570 0.572570
0.601696 0.601696 0.601696
0.630217 0.630217 0.630217
0.658077 0.658077 0.658077
0.685232 0.685232 0.685232
0.000000 0.000000 0.000000
0.000000 0.000000 0.000000
0.000000 0.000000 0.000000
0.000000 0.000000 0.000000
0.000000 0.000000 0.000000
0.000000 0.000000 0.000000
0.000090 0.000090 0.000090
0.007494 0.007494 0.007494
0.018202 0.018202 0.018202
0.032434 0.032434 0.032434
0.050345 0.050345 0.050345
0.071928 0.071928 0.071928
0.096903 0.096903 0.096903
0.124754 0.124754 0.124754
0.154785 0.154785 0.154785
0.186086 0.186086 0.186086
0.217671 0.217671 0.217671
0.248943 0.248943 0.248943
0.279724 0.279724 0.279724
0.310052 0.310052 0.310052
0.340116 0.340116 0.340116
0.370149 0.370149 0.370149
0.400336 0.400336 0.400336
0.430732 0.430732 0.430732
0.461271 0.461271 0.461271
0.491826 0.491826 0.491826
0.522251 0.522251 0.522251
0.552405 0.552405 0.552405
0.582169 0.582169 0.582169
0.611434 0.611434 0.611434
0.640110 0.640110 0.640110
0.668120 0.668120 0.668120
0.695405 0.695405 0.695405
0.000000 0.000000 0.000000
0.000000 0.000000 0.000000
0.000000 0.000000 0.000000
0.000000 0.000000 0.000000
0.000000 0.000000 0.000000
0.001670 0.001670 0.001670
0.008117 0.008117 0.008117
0.017600 0.017600 0.017600
0.030415 0.030415 0.030415
0.046445 0.046445 0.046445
0.065738 0.065738 0.065738
0.088243 0.088243 0.088243
0.113639 0.113639 0.113639
0.141381 0.141381 0.141381
0.170818 0.170818 0.170818
0.201200 0.201200 0.201200
0.231786 0.231786 0.231786
0.262187 0.262187 0.262187
0.292297 0.292297 0.292297
0.322130 0.322130 0.322130
0.351793 0.351793 0.351793
0.381442 0.381442 0.381442
0.411227 0.411227 0.411227
0.441233 0.441233 0.441233
0.471456 0.471456 0.471456
0.501814 0.501814 0.501814
0.532166 0.532166 0.532166
0.562354 0.562354 0.562354
0.592221 0.592221 0.592221
0.621627 0.621627 0.621627
0.650452 0.650452 0.650452
0.678597 0.678597 0.678597
0.705993 0.705993 0.705993
0.000000 0.000000 0.000000
0.000000 0.000000 0.000000
0.000000 0.000000 0.000000
0.000825 0.000825 0.000825
0.005017 0.005017 0.005017
0.011112 0.011112 0.011112
0.019779 0.019779 0.019779
0.031425 0.031425 0.031425
0.046088 0.046088 0.046088
0.063571 0.063571 0.063571
0.083844 0.083844 0.083844
0.106860 0.106860 0.106860
0.132276 0.132276 0.132276
0.159506 0.159506 0.159506
0.187975 0.187975 0.187975
0.217164 0.217164 0.217164
0.246629 0.246629 0.246629
0.276115 0.276115 0.276115
0.305530 0.305530 0.305530
0.334844 0.334844 0.334844
0.364078 0.364078 0.364078
0.393306 0.393306 0.393306
0.422656 0.422656 0.422656
0.452246 0.452246 0.452246
0.482135 0.482135 0.482135
0.512289 0.512289 0.512289
0.542577 0.542577 0.542577
0.572809 0.572809 0.572809
0.602788 0.602788 0.602788
0.632333 0.632333 0.632333
0.661295 0.661295 0.661295
0.689557 0.689557 0.689557
0.717035 0.717035 0.717035
0.000340 0.000340 0.000340
0.002686 0.002686 0.002686
0.005887 0.005887 0.005887
0.010275 0.010275 0.010275
0.016218 0.016218 0.016218
0.024356 0.024356 0.024356
0.035380 0.035380 0.035380
0.049096 0.049096 0.049096
0.065299 0.065299 0.065299
0.083835 0.083835 0.083835
0.104624 0.104624 0.104624
0.127743 0.127743 0.127743
0.152849 0.152849 0.152849
0.179247 0.179247 0.179247
0.206481 0.206481 0.206481
0.234307 0.234307 0.234307
0.262531 0.262531 0.262531
0.291012 0.291012 0.291012
0.319655 0.319655 0.319655
0.348380 0.348380 0.348380
0.377117 0.377117 0.377117
0.405859 0.405859 0.405859
0.434730 0.434730 0.434730
0.463886 0.463886 0.463886
0.493433 0.493433 0.493433
0.523381 0.523381 0.523381
0.553602 0.553602 0.553602
0.583875 0.583875 0.583875
0.613955 0.613955 0.613955
0.643624 0.643624 0.643624
0.672700 0.672700 0.672700
0.701046 0.701046 0.701046
0.728567 0.728567 0.728567
0.010536 0.010536 0.010536
0.013636 0.013636 0.013636
0.018126 0.018126 0.018126
0.024096 0.024096 0.024096
0.031800 0.031800 0.031800
0.041871 0.041871 0.041871
0.054859 0.054859 0.054859
0.070292 0.070292 0.070292
0.087715 0.087715 0.087715
0.106974 0.106974 0.106974
0.127851 0.127851 0.127851
0.150675 0.150675 0.150675
0.175146 0.175146 0.175146
0.200459 0.200459 0.200459
0.226316 0.226316 0.226316
0.252723 0.252723 0.252723
0.279645 0.279645 0.279645
0.307035 0.307035 0.307035
0.334795 0.334795 0.334795
0.362815 0.362815 0.362815
0.390968 0.390968 0.390968
0.419174 0.419174 0.419174
0.447575 0.447575 0.447575
0.476336 0.476336 0.476336
0.505569 0.505569 0.505569
0.535304 0.535304 0.535304
0.565422 0.565422 0.565422
0.595688 0.595688 0.595688
0.625827 0.625827 0.625827
0.655580 0.655580 0.655580
0.684728 0.684728 0.684728
0.713110 0.713110 0.713110
0.740620 0.740620 0.740620
0.024736 0.024736 0.024736
0.028930 0.028930 0.028930
0.034701 0.034701 0.034701
0.042201 0.042201 0.042201
0.051534 0.051534 0.051534
0.063157 0.063157 0.063157
0.077579 0.077579 0.077579
0.094270 0.094270 0.094270
0.112644 0.112644 0.112644
0.132259 0.132259 0.132259
0.152971 0.152971 0.152971
0.175105 0.175105 0.175105
0.198527 0.198527 0.198527
0.222625 0.222625 0.222625
0.247173 0.247173 0.247173
0.272270 0.272270 0.272270
0.297948 0.297948 0.297948
0.324198 0.324198 0.324198
0.350946 0.350946 0.350946
0.378098 0.378098 0.378098
0.405552 0.405552 0.405552
0.433241 0.433241 0.433241
0.461267 0.461267 0.461267
0.489747 0.489747 0.489747
0.518740 0.518740 0.518740
0.548251 0.548251 0.548251
0.578196 0.578196 0.578196
0.608376 0.608376 0.608376
0.638506 0.638506 0.638506
0.668280 0.668280 0.668280
0.697436 0.697436 0.697436
0.725785 0.725785 0.725785
0.753211 0.753211 0.753211
0.042215 0.042215 0.042215
0.047630 0.047630 0.047630
0.054665 0.054665 0.054665
0.063471 0.063471 0.063471
0.074111 0.074111 0.074111
0.086899 0.086899 0.086899
0.102279 0.102279 0.102279
0.119646 0.119646 0.119646
0.138486 0.138486 0.138486
0.158141 0.158141 0.158141
0.178441 0.178441 0.178441
0.199879 0.199879 0.199879
0.222266 0.222266 0.222266
0.245241 0.245241 0.245241
0.268687 0.268687 0.268687
0.292669 0.292669 0.292669
0.317228 0.317228 0.317228
0.342352 0.342352 0.342352
0.368007 0.368007 0.368007
0.394175 0.394175 0.394175
0.420849 0.420849 0.420849
0.448045 0.448045 0.448045
0.475805 0.475805 0.475805
0.504140 0.504140 0.504140
0.532989 0.532989 0.532989
0.562285 0.562285 0.562285
0.592002 0.592002 0.592002
0.622023 0.622023 0.622023
0.652069 0.652069 0.652069
0.681784 0.681784 0.681784
0.710861 0.710861 0.710861
0.739084 0.739084 0.739084
0.766334 0.766334 0.766334
0.062025 0.062025 0.062025
0.068610 0.068610 0.068610
0.076765 0.076765 0.076765
0.086605 0.086605 0.086605
0.098238 0.098238 0.098238
0.111907 0.111907 0.111907
0.127696 0.127696 0.127696
0.145162 0.145162 0.145162
0.163763 0.163763 0.163763
0.183043 0.183043 0.183043
0.203184 0.203184 0.203184
0.224364 0.224364 0.224364
0.245988 0.245988 0.245988
0.268046 0.268046 0.268046
0.290562 0.290562 0.290562
0.313601 0.313601 0.313601
0.337174 0.337174 0.337174
0.361245 0.361245 0.361245
0.385812 0.385812 0.385812
0.410952 0.410952 0.410952
0.436813 0.436813 0.436813
0.463517 0.463517 0.463517
0.491077 0.491077 0.491077
0.519377 0.519377 0.519377
0.548201 0.548201 0.548201
0.577361 0.577361 0.577361
0.606864 0.606864 0.606864
0.636681 0.636681 0.636681
0.666563 0.666563 0.666563
0.696120 0.696120 0.696120
0.725005 0.725005 0.725005
0.752987 0.752987 0.752987
0.779949 0.779949 0.779949
0.083360 0.083360 0.083360
0.090982 0.090982 0.090982
0.100086 0.100086 0.100086
0.110774 0.110774 0.110774
0.123150 0.123150 0.123150
0.137313 0.137313 0.137313
0.153197 0.153197 0.153197
0.170474 0.170474 0.170474
0.188734 0.188734 0.188734
0.207718 0.207718 0.207718
0.227648 0.227648 0.227648
0.248458 0.248458 0.248458
0.269488 0.269488 0.269488
0.290787 0.290787 0.290787
0.312482 0.312482 0.312482
0.334726 0.334726 0.334726
0.357460 0.357460 0.357460
0.380591 0.380591 0.380591
0.404127 0.404127 0.404127
0.428229 0.428229 0.428229
0.453248 0.453248 0.453248
0.479456 0.479456 0.479456
0.506877 0.506877 0.506877
0.535248 0.535248 0.535248
0.564220 0.564220 0.564220
0.593421 0.593421 0.593421
0.622775 0.622775 0.622775
0.652348 0.652348 0.652348
0.681968 0.681968 0.681968
0.711244 0.711244 0.711244
0.739804 0.739804 0.739804
0.767412 0.767412 0.767412
0.793964 0.793964 0.793964
0.105602 0.105602 0.105602
0.114110 0.114110 0.114110
0.123997 0.123997 0.123997
0.135349 0.135349 0.135349
0.148228 0.148228 0.148228
0.162646 0.162646 0.162646
0.178494 0.178494 0.178494
0.195536 0.195536 0.195536
0.213509 0.213509 0.213509
0.232278 0.232278 0.232278
0.251854 0.251854 0.251854
0.272050 0.272050 0.272050
0.292489 0.292489 0.292489
0.313107 0.313107 0.313107
0.334145 0.334145 0.334145
0.355731 0.355731 0.355731
0.377695 0.377695 0.377695
0.400025 0.400025 0.400025
0.422656 0.422656 0.422656
0.445773 0.445773 0.445773
0.469936 0.469936 0.469936
0.495569 0.495569 0.495569
0.522877 0.522877 0.522877
0.551497 0.551497 0.551497
0.580925 0.580925 0.580925
0.610357 0.610357 0.610357
0.639602 0.639602 0.639602
0.668872 0.668872 0.668872
0.698126 0.698126 0.698126
0.726998 0.726998 0.726998
0.755098 0.755098 0.755098
0.782201 0.782201 0.782201
0.808231 0.808231 0.808231
0.128313 0.128313 0.128313
0.137555 0.137555 0.137555
0.148067 0.148067 0.148067
0.159912 0.159912 0.159912
0.173114 0.173114 0.173114
0.187644 0.187644 0.187644
0.203396 0.203396 0.203396
0.220199 0.220199 0.220199
0.237881 0.237881 0.237881
0.256328 0.256328 0.256328
0.275447 0.275447 0.275447
0.295053 0.295053 0.295053
0.314917 0.314917 0.314917
0.334992 0.334992 0.334992
0.355481 0.355481 0.355481
0.376442 0.376442 0.376442
0.397650 0.397650 0.397650
0.419164 0.419164 0.419164
0.441087 0.441087 0.441087
0.463506 0.463506 0.463506
0.486894 0.486894 0.486894
0.511773 0.511773 0.511773
0.538661 0.538661 0.538661
0.567797 0.567797 0.567797
0.597966 0.597966 0.597966
0.627738 0.627738 0.627738
0.656921 0.656921 0.656921
0.685862 0.685862 0.685862
0.714686 0.714686 0.714686
0.743079 0.743079 0.743079
0.770620 0.770620 0.770620
0.797118 0.797118 0.797118
0.822543 0.822543 0.822543
0.151184 0.151184 0.151184
0.161021 0.161021 0.161021
0.172017 0.172017 0.172017
0.184213 0.184213 0.184213
0.197609 0.197609 0.197609
0.212163 0.212163 0.212163
0.227782 0.227782 0.227782
0.244339 0.244339 0.244339
0.261706 0.261706 0.261706
0.279773 0.279773 0.279773
0.298423 0.298423 0.298423
0.317503 0.317503 0.317503
0.336864 0.336864 0.336864
0.356471 0.356471 0.356471
0.376407 0.376407 0.376407
0.396697 0.396697 0.396697
0.417287 0.417287 0.417287
0.438227 0.438227 0.438227
0.459635 0.459635 0.459635
0.481633 0.481633 0.481633
0.504513 0.504513 0.504513
0.528772 0.528772 0.528772
0.555005 0.555005 0.555005
0.584118 0.584118 0.584118
0.614703 0.614703 0.614703
0.644732 0.644732 0.644732
0.673985 0.673985 0.673985
0.702659 0.702659 0.702659
0.731139 0.731139 0.731139
0.759076 0.759076 0.759076
0.786025 0.786025 0.786025
0.811870 0.811870 0.811870
0.836657 0.836657 0.836657
0.173999 0.173999 0.173999
0.184310 0.184310 0.184310
0.195672 0.195672 0.195672
0.208110 0.208110 0.208110
0.221611 0.221611 0.221611
0.236132 0.236132 0.236132
0.251592 0.251592 0.251592
0.267895 0.267895 0.267895
0.284937 0.284937 0.284937
0.302617 0.302617 0.302617
0.320824 0.320824 0.320824
0.339434 0.339434 0.339434
0.358343 0.358343 0.358343
0.377509 0.377509 0.377509
0.396959 0.396959 0.396959
0.416729 0.416729 0.416729
0.436859 0.436859 0.436859
0.457437 0.457437 0.457437
0.478580 0.478580 0.478580
0.500423 0.500423 0.500423
0.523192 0.523192 0.523192
0.547263 0.547263 0.547263
0.573165 0.573165 0.573165
0.601464 0.601464 0.601464
0.631326 0.631326 0.631326
0.661169 0.661169 0.661169
0.690352 0.690352 0.690352
0.718867 0.718867 0.718867
0.747074 0.747074 0.747074
0.774587 0.774587 0.774587
0.800945 0.800945 0.800945
0.826155 0.826155 0.826155
0.850335 0.850335 0.850335
0.196612 0.196612 0.196612
0.207295 0.207295 0.207295
0.218929 0.218929 0.218929
0.231526 0.231526 0.231526
0.245070 0.245070 0.245070
0.259518 0.259518 0.259518
0.274806 0.274806 0.274806
0.290854 0.290854 0.290854
0.307576 0.307576 0.307576
0.324883 0.324883 0.324883
0.342682 0.342682 0.342682
0.360873 0.360873 0.360873
0.379378 0.379378 0.379378
0.398159 0.398159 0.398159
0.417229 0.417229 0.417229
0.436638 0.436638 0.436638
0.456465 0.456465 0.456465
0.476821 0.476821 0.476821
0.497837 0.497837 0.497837
0.519660 0.519660 0.519660
0.542464 0.542464 0.542464
0.566478 0.566478 0.566478
0.592080 0.592080 0.592080
0.619516 0.619516 0.619516
0.648291 0.648291 0.648291
0.677442 0.677442 0.677442
0.706264 0.706264 0.706264
0.734504 0.734504 0.734504
0.762266 0.762266 0.762266
0.789252 0.789252 0.789252
0.815056 0.815056 0.815056
0.839726 0.839726 0.839726
0.863389 0.863389 0.863389
0.218926 0.218926 0.218926
0.229896 0.229896 0.229896
0.241727 0.241727 0.241727
0.254423 0.254423 0.254423
0.267966 0.267966 0.267966
0.282319 0.282319 0.282319
0.297426 0.297426 0.297426
0.313224 0.313224 0.313224
0.329642 0.329642 0.329642
0.346603 0.346603 0.346603
0.364031 0.364031 0.364031
0.381851 0.381851 0.381851
0.400004 0.400004 0.400004
0.418463 0.418463 0.418463
0.437244 0.437244 0.437244
0.456401 0.456401 0.456401
0.476022 0.476022 0.476022
0.496225 0.496225 0.496225
0.517140 0.517140 0.517140
0.538903 0.538903 0.538903
0.561647 0.561647 0.561647
0.585526 0.585526 0.585526
0.610749 0.610749 0.610749
0.637405 0.637405 0.637405
0.665182 0.665182 0.665182
0.693435 0.693435 0.693435
0.721567 0.721567 0.721567
0.749310 0.749310 0.749310
0.776510 0.776510 0.776510
0.802905 0.802905 0.802905
0.828238 0.828238 0.828238
0.852487 0.852487 0.852487
0.875729 0.875729 0.875729
0.240877 0.240877 0.240877
0.252068 0.252068 0.252068
0.264039 0.264039 0.264039
0.276789 0.276789 0.276789
0.290301 0.290301 0.290301
0.304543 0.304543 0.304543
0.319470 0.319470 0.319470
0.335030 0.335030 0.335030
0.351163 0.351163 0.351163
0.367809 0.367809 0.367809
0.384906 0.384906 0.384906
0.402399 0.402399 0.402399
0.420247 0.420247 0.420247
0.438435 0.438435 0.438435
0.456984 0.456984 0.456984
0.475946 0.475946 0.475946
0.495407 0.495407 0.495407
0.515473 0.515473 0.515473
0.536261 0.536261 0.536261
0.557887 0.557887 0.557887
0.580460 0.580460 0.580460
0.604086 0.604086 0.604086
0.628866 0.628866 0.628866
0.654798 0.654798 0.654798
0.681648 0.681648 0.681648
0.708973 0.708973 0.708973
0.736326 0.736326 0.736326
0.763404 0.763404 0.763404
0.789966 0.789966 0.789966
0.815774 0.815774 0.815774
0.840637 0.840637 0.840637
0.864492 0.864492 0.864492
0.887362 0.887362 0.887362
0.262428 0.262428 0.262428
0.273785 0.273785 0.273785
0.285851 0.285851 0.285851
0.298623 0.298623 0.298623
0.312085 0.312085 0.312085
0.326210 0.326210 0.326210
0.340962 0.340962 0.340962
0.356297 0.356297 0.356297
0.372169 0.372169 0.372169
0.388530 0.388530 0.388530
0.405333 0.405333 0.405333
0.422538 0.422538 0.422538
0.440119 0.440119 0.440119
0.458072 0.458072 0.458072
0.476419 0.476419 0.476419
0.495209 0.495209 0.495209
0.514518 0.514518 0.514518
0.534438 0.534438 0.534438
0.555066 0.555066 0.555066
0.576499 0.576499 0.576499
0.598823 0.598823 0.598823
0.622108 0.622108 0.622108
0.646392 0.646392 0.646392
0.671627 0.671627 0.671627
0.697621 0.697621 0.697621
0.724060 0.724060 0.724060
