app/src/main/assets/luts/GR-一键森山大道_V4.cube
TITLE "Ricoh Hi-Contrast B&W"
#Lut generated by JC from Ricoh GR3X HDF
LUT_3D_SIZE 5
DOMAIN_MIN 0.0 0.0 0.0
DOMAIN_MAX 1.0 1.0 1.0
0.000000 0.000000 0.000000
0.000000 0.000000 0.000000
0.124708 0.124708 0.124708
0.384265 0.384265 0.384265
0.606519 0.606519 0.606519
0.000000 0.000000 0.000000
0.002200 0.002200 0.002200
0.190845 0.190845 0.190845
0.442354 0.442354 0.442354
0.675437 0.675437 0.675437
0.042215 0.042215 0.042215
0.138486 0.138486 0.138486
0.317228 0.317228 0.317228
0.532989 0.532989 0.532989
0.766334 0.766334 0.766334
0.218926 0.218926 0.218926
0.329642 0.329642 0.329642
0.476022 0.476022 0.476022
0.665182 0.665182 0.665182
0.875729 0.875729 0.875729
0.382678 0.382678 0.382678
0.488544 0.488544 0.488544
0.621103 0.621103 0.621103
0.783623 0.783623 0.783623
0.954135 0.954135 0.954135
0.000000 0.000000 0.000000
0.051775 0.051775 0.051775
0.269546 0.269546 0.269546
0.510293 0.510293 0.510293
0.711472 0.711472 0.711472
0.002443 0.002443 0.002443
0.071590 0.071590 0.071590
0.303731 0.303731 0.303731
0.533357 0.533357 0.533357
0.762291 0.762291 0.762291
0.142797 0.142797 0.142797
0.228087 0.228087 0.228087
0.390224 0.390224 0.390224
0.597036 0.597036 0.597036
0.834531 0.834531 0.834531
0.332515 0.332515 0.332515
0.419999 0.419999 0.419999
0.542749 0.542749 0.542749
0.713178 0.713178 0.713178
0.936269 0.936269 0.936269
0.494156 0.494156 0.494156
0.580211 0.580211 0.580211
0.691692 0.691692 0.691692
0.841971 0.841971 0.841971
1.000000 1.000000 1.000000
0.106595 0.106595 0.106595
0.255286 0.255286 0.255286
0.446236 0.446236 0.446236
0.638936 0.638936 0.638936
0.814709 0.814709 0.814709
0.206912 0.206912 0.206912
0.312120 0.312120 0.312120
0.468473 0.468473 0.468473
0.654329 0.654329 0.654329
0.851519 0.851519 0.851519
0.348436 0.348436 0.348436
0.417449 0.417449 0.417449
0.544181 0.544181 0.544181
0.702048 0.702048 0.702048
0.904216 0.904216 0.904216
0.502133 0.502133 0.502133
0.554397 0.554397 0.554397
0.650263 0.650263 0.650263
0.797567 0.797567 0.797567
0.986294 0.986294 0.986294
0.640670 0.640670 0.640670
0.700436 0.700436 0.700436
0.783999 0.783999 0.783999
0.906541 0.906541 0.906541
1.000000 1.000000 1.000000
0.368043 0.368043 0.368043
0.484925 0.484925 0.484925
0.621624 0.621624 0.621624
0.774499 0.774499 0.774499
0.919199 0.919199 0.919199
0.494240 0.494240 0.494240
0.572340 0.572340 0.572340
0.668378 0.668378 0.668378
0.805190 0.805190 0.805190
0.952841 0.952841 0.952841
0.603502 0.603502 0.603502
0.652066 0.652066 0.652066
0.734675 0.734675 0.734675
0.850572 0.850572 0.850572
0.990342 0.990342 0.990342
0.713508 0.713508 0.713508
0.750014 0.750014 0.750014
0.812749 0.812749 0.812749
0.927530 0.927530 0.927530
1.000000 1.000000 1.000000
0.816871 0.816871 0.816871
0.859786 0.859786 0.859786
0.911864 0.911864 0.911864
0.978730 0.978730 0.978730
1.000000 1.000000 1.000000
0.613064 0.613064 0.613064
0.710167 0.710167 0.710167
0.811296 0.811296 0.811296
0.919430 0.919430 0.919430
1.000000 1.000000 1.000000
0.733728 0.733728 0.733728
0.810671 0.810671 0.810671
0.883188 0.883188 0.883188
0.967850 0.967850 0.967850
1.000000 1.000000 1.000000
0.843414 0.843414 0.843414
0.900380 0.900380 0.900380
0.951883 0.951883 0.951883
1.000000 1.000000 1.000000
1.000000 1.000000 1.000000
0.931244 0.931244 0.931244
0.971650 0.971650 0.971650
1.000000 1.000000 1.000000
1.000000 1.000000 1.000000
1.000000 1.000000 1.000000
0.989647 0.989647 0.989647
1.000000 1.000000 1.000000
1.000000 1.000000 1.000000
1.000000 1.000000 1.000000
1.000000 1.000000 1.000000
