app/src/main/assets/luts/GR-一键森山大道_V4.cube
TITLE "Ricoh Hi-Contrast B&W"
#Lut generated by JC from Ricoh GR3X HDF
LUT_3D_SIZE 9
DOMAIN_MIN 0.0 0.0 0.0
DOMAIN_MAX 1.0 1.0 1.0
0.000000 0.000000 0.000000
0.000000 0.000000 0.000000
0.000000 0.000000 0.000000
0.016267 0.016267 0.016267
0.124708 0.124708 0.124708
0.257412 0.257412 0.257412
0.384265 0.384265 0.384265
0.500447 0.500447 0.500447
0.606519 0.606519 0.606519
0.000000 0.000000 0.000000
0.000000 0.000000 0.000000
0.000000 0.000000 0.000000
0.030286 0.030286 0.030286
0.147281 0.147281 0.147281
0.282931 0.282931 0.282931
0.410730 0.410730 0.410730
0.530045 0.530045 0.530045
0.639286 0.639286 0.639286
0.000000 0.000000 0.000000
0.000000 0.000000 0.000000
0.002200 0.002200 0.002200
0.068599 0.068599 0.068599
0.190845 0.190845 0.190845
0.318252 0.318252 0.318252
0.442354 0.442354 0.442354
0.563383 0.563383 0.563383
0.675437 0.675437 0.675437
0.000000 0.000000 0.000000
0.005017 0.005017 0.005017
0.046088 0.046088 0.046088
0.132276 0.132276 0.132276
0.246629 0.246629 0.246629
0.364078 0.364078 0.364078
0.482135 0.482135 0.482135
0.602788 0.602788 0.602788
0.717035 0.717035 0.717035
0.042215 0.042215 0.042215
0.074111 0.074111 0.074111
0.138486 0.138486 0.138486
0.222266 0.222266 0.222266
0.317228 0.317228 0.317228
0.420849 0.420849 0.420849
0.532989 0.532989 0.532989
0.652069 0.652069 0.652069
0.766334 0.766334 0.766334
0.128313 0.128313 0.128313
0.173114 0.173114 0.173114
0.237881 0.237881 0.237881
0.314917 0.314917 0.314917
0.397650 0.397650 0.397650
0.486894 0.486894 0.486894
0.597966 0.597966 0.597966
0.714686 0.714686 0.714686
0.822543 0.822543 0.822543
0.218926 0.218926 0.218926
0.267966 0.267966 0.267966
0.329642 0.329642 0.329642
0.400004 0.400004 0.400004
0.476022 0.476022 0.476022
0.561647 0.561647 0.561647
0.665182 0.665182 0.665182
0.776510 0.776510 0.776510
0.875729 0.875729 0.875729
0.304250 0.304250 0.304250
0.354071 0.354071 0.354071
0.412738 0.412738 0.412738
0.478753 0.478753 0.478753
0.551689 0.551689 0.551689
0.634093 0.634093 0.634093
0.728141 0.728141 0.728141
0.827184 0.827184 0.827184
0.918664 0.918664 0.918664
0.382678 0.382678 0.382678
0.432214 0.432214 0.432214
0.488544 0.488544 0.488544
0.551410 0.551410 0.551410
0.621103 0.621103 0.621103
0.698627 0.698627 0.698627
0.783623 0.783623 0.783623
0.871319 0.871319 0.871319
0.954135 0.954135 0.954135
0.000000 0.000000 0.000000
0.000000 0.000000 0.000000
0.006343 0.006343 0.006343
0.059738 0.059738 0.059738
0.184061 0.184061 0.184061
0.319489 0.319489 0.319489
0.443886 0.443886 0.443886
0.556181 0.556181 0.556181
0.658406 0.658406 0.658406
0.000000 0.000000 0.000000
0.000000 0.000000 0.000000
0.000000 0.000000 0.000000
0.061478 0.061478 0.061478
0.200031 0.200031 0.200031
0.335592 0.335592 0.335592
0.463095 0.463095 0.463095
0.580673 0.580673 0.580673
0.687370 0.687370 0.687370
0.000000 0.000000 0.000000
0.000000 0.000000 0.000000
0.010430 0.010430 0.010430
0.096512 0.096512 0.096512
0.230879 0.230879 0.230879
0.358641 0.358641 0.358641
0.484906 0.484906 0.484906
0.607293 0.607293 0.607293
0.718805 0.718805 0.718805
0.008212 0.008212 0.008212
0.017399 0.017399 0.017399
0.063865 0.063865 0.063865
0.158663 0.158663 0.158663
0.275633 0.275633 0.275633
0.394812 0.394812 0.394812
0.516531 0.516531 0.516531
0.640619 0.640619 0.640619
0.756009 0.756009 0.756009
0.076260 0.076260 0.076260
0.106043 0.106043 0.106043
0.168844 0.168844 0.168844
0.248932 0.248932 0.248932
0.340242 0.340242 0.340242
0.443070 0.443070 0.443070
0.558911 0.558911 0.558911
0.684295 0.684295 0.684295
0.801715 0.801715 0.801715
0.173233 0.173233 0.173233
0.216133 0.216133 0.216133
0.276395 0.276395 0.276395
0.346711 0.346711 0.346711
0.421991 0.421991 0.421991
0.509860 0.509860 0.509860
0.618941 0.618941 0.618941
0.742534 0.742534 0.742534
0.855890 0.855890 0.855890
0.268370 0.268370 0.268370
0.314406 0.314406 0.314406
0.370858 0.370858 0.370858
0.435282 0.435282 0.435282
0.505709 0.505709 0.505709
0.587207 0.587207 0.587207
0.688091 0.688091 0.688091
0.803931 0.803931 0.803931
0.908550 0.908550 0.908550
0.355345 0.355345 0.355345
0.401481 0.401481 0.401481
0.455116 0.455116 0.455116
0.515738 0.515738 0.515738
0.583661 0.583661 0.583661
0.661881 0.661881 0.661881
0.754398 0.754398 0.754398
0.856439 0.856439 0.856439
0.950835 0.950835 0.950835
0.434189 0.434189 0.434189
0.479942 0.479942 0.479942
0.531617 0.531617 0.531617
0.589615 0.589615 0.589615
0.654878 0.654878 0.654878
0.729082 0.729082 0.729082
0.812743 0.812743 0.812743
0.901042 0.901042 0.901042
0.984254 0.984254 0.984254
0.000000 0.000000 0.000000
0.011934 0.011934 0.011934
0.051775 0.051775 0.051775
0.143892 0.143892 0.143892
0.269546 0.269546 0.269546
0.395384 0.395384 0.395384
0.510293 0.510293 0.510293
0.615198 0.615198 0.615198
0.711472 0.711472 0.711472
0.000000 0.000000 0.000000
0.004455 0.004455 0.004455
0.044307 0.044307 0.044307
0.147737 0.147737 0.147737
0.279569 0.279569 0.279569
0.400756 0.400756 0.400756
0.521301 0.521301 0.521301
0.633641 0.633641 0.633641
0.736034 0.736034 0.736034
0.002443 0.002443 0.002443
0.015427 0.015427 0.015427
0.071590 0.071590 0.071590
0.181083 0.181083 0.181083
0.303731 0.303731 0.303731
0.415952 0.415952 0.415952
0.533357 0.533357 0.533357
0.652945 0.652945 0.652945
0.762291 0.762291 0.762291
0.054894 0.054894 0.054894
0.074373 0.074373 0.074373
0.134067 0.134067 0.134067
0.235131 0.235131 0.235131
0.339144 0.339144 0.339144
0.443843 0.443843 0.443843
0.560100 0.560100 0.560100
0.682048 0.682048 0.682048
0.794490 0.794490 0.794490
0.142797 0.142797 0.142797
0.175238 0.175238 0.175238
0.228087 0.228087 0.228087
0.303317 0.303317 0.303317
0.390224 0.390224 0.390224
0.483718 0.483718 0.483718
0.597036 0.597036 0.597036
0.719148 0.719148 0.719148
0.834531 0.834531 0.834531
0.239934 0.239934 0.239934
0.278973 0.278973 0.278973
0.328071 0.328071 0.328071
0.388816 0.388816 0.388816
0.461849 0.461849 0.461849
0.543800 0.543800 0.543800
0.648266 0.648266 0.648266
0.768705 0.768705 0.768705
0.883862 0.883862 0.883862
0.332515 0.332515 0.332515
0.372996 0.372996 0.372996
0.419999 0.419999 0.419999
0.476628 0.476628 0.476628
0.542749 0.542749 0.542749
0.617655 0.617655 0.617655
0.713178 0.713178 0.713178
0.828541 0.828541 0.828541
0.936269 0.936269 0.936269
0.417311 0.417311 0.417311
0.457787 0.457787 0.457787
0.503920 0.503920 0.503920
0.557600 0.557600 0.557600
0.619783 0.619783 0.619783
0.692975 0.692975 0.692975
0.782236 0.782236 0.782236
0.884023 0.884023 0.884023
0.978795 0.978795 0.978795
0.494156 0.494156 0.494156
0.534816 0.534816 0.534816
0.580211 0.580211 0.580211
0.631950 0.631950 0.631950
0.691692 0.691692 0.691692
0.761429 0.761429 0.761429
0.841971 0.841971 0.841971
0.928442 0.928442 0.928442
1.000000 1.000000 1.000000
0.015328 0.015328 0.015328
0.066693 0.066693 0.066693
0.145005 0.145005 0.145005
0.248324 0.248324 0.248324
0.361416 0.361416 0.361416
0.473231 0.473231 0.473231
0.577098 0.577098 0.577098
0.673398 0.673398 0.673398
0.763628 0.763628 0.763628
0.021343 0.021343 0.021343
0.072491 0.072491 0.072491
0.150785 0.150785 0.150785
0.256281 0.256281 0.256281
0.367202 0.367202 0.367202
0.471455 0.471455 0.471455
0.581605 0.581605 0.581605
0.687167 0.687167 0.687167
0.784285 0.784285 0.784285
0.070971 0.070971 0.070971
0.107730 0.107730 0.107730
0.184596 0.184596 0.184596
0.284638 0.284638 0.284638
0.385772 0.385772 0.385772
0.482453 0.482453 0.482453
0.589938 0.589938 0.589938
0.702044 0.702044 0.702044
0.806065 0.806065 0.806065
0.146796 0.146796 0.146796
0.178918 0.178918 0.178918
0.245543 0.245543 0.245543
0.334706 0.334706 0.334706
0.421507 0.421507 0.421507
0.510739 0.510739 0.510739
0.614086 0.614086 0.614086
0.726630 0.726630 0.726630
0.833256 0.833256 0.833256
0.234989 0.234989 0.234989
0.269123 0.269123 0.269123
0.317648 0.317648 0.317648
0.388507 0.388507 0.388507
0.467481 0.467481 0.467481
0.547381 0.547381 0.547381
0.646674 0.646674 0.646674
0.757939 0.757939 0.757939
0.867666 0.867666 0.867666
0.322870 0.322870 0.322870
0.354881 0.354881 0.354881
0.393719 0.393719 0.393719
0.451333 0.451333 0.451333
0.521071 0.521071 0.521071
0.595503 0.595503 0.595503
0.689695 0.689695 0.689695
0.800620 0.800620 0.800620
0.911303 0.911303 0.911303
0.410037 0.410037 0.410037
0.442391 0.442391 0.442391
0.479203 0.479203 0.479203
0.529367 0.529367 0.529367
0.590652 0.590652 0.590652
0.660734 0.660734 0.660734
0.751771 0.751771 0.751771
0.857901 0.857901 0.857901
0.961208 0.961208 0.961208
0.490326 0.490326 0.490326
0.523813 0.523813 0.523813
0.561185 0.561185 0.561185
0.607366 0.607366 0.607366
0.663759 0.663759 0.663759
0.732766 0.732766 0.732766
0.817838 0.817838 0.817838
0.913815 0.913815 0.913815
1.000000 1.000000 1.000000
0.562972 0.562972 0.562972
0.597755 0.597755 0.597755
0.635859 0.635859 0.635859
0.680487 0.680487 0.680487
0.734062 0.734062 0.734062
0.798387 0.798387 0.798387
0.873398 0.873398 0.873398
0.954054 0.954054 0.954054
1.000000 1.000000 1.000000
0.106595 0.106595 0.106595
0.170262 0.170262 0.170262
0.255286 0.255286 0.255286
0.348826 0.348826 0.348826
0.446236 0.446236 0.446236
0.544726 0.544726 0.544726
0.638936 0.638936 0.638936
0.729685 0.729685 0.729685
0.814709 0.814709 0.814709
0.140421 0.140421 0.140421
0.199184 0.199184 0.199184
0.275940 0.275940 0.275940
0.361263 0.361263 0.361263
0.452141 0.452141 0.452141
0.546587 0.546587 0.546587
0.643894 0.643894 0.643894
0.742075 0.742075 0.742075
0.832890 0.832890 0.832890
0.206912 0.206912 0.206912
0.250145 0.250145 0.250145
0.312120 0.312120 0.312120
0.386075 0.386075 0.386075
0.468473 0.468473 0.468473
0.558541 0.558541 0.558541
0.654329 0.654329 0.654329
0.755864 0.755864 0.755864
0.851519 0.851519 0.851519
0.277929 0.277929 0.277929
0.309748 0.309748 0.309748
0.361786 0.361786 0.361786
0.426003 0.426003 0.426003
0.497771 0.497771 0.497771
0.580891 0.580891 0.580891
0.673164 0.673164 0.673164
0.775271 0.775271 0.775271
0.874156 0.874156 0.874156
0.348436 0.348436 0.348436
0.376317 0.376317 0.376317
0.417449 0.417449 0.417449
0.475092 0.475092 0.475092
0.544181 0.544181 0.544181
0.614414 0.614414 0.614414
0.702048 0.702048 0.702048
0.803689 0.803689 0.803689
0.904216 0.904216 0.904216
0.423141 0.423141 0.423141
0.450629 0.450629 0.450629
0.481363 0.481363 0.481363
0.527780 0.527780 0.527780
0.590285 0.590285 0.590285
0.658285 0.658285 0.658285
0.742847 0.742847 0.742847
0.842997 0.842997 0.842997
0.942809 0.942809 0.942809
0.502133 0.502133 0.502133
0.527577 0.527577 0.527577
0.554397 0.554397 0.554397
0.594624 0.594624 0.594624
0.650263 0.650263 0.650263
0.716196 0.716196 0.716196
0.797567 0.797567 0.797567
0.894581 0.894581 0.894581
0.986294 0.986294 0.986294
0.574661 0.574661 0.574661
0.601368 0.601368 0.601368
0.629605 0.629605 0.629605
0.667310 0.667310 0.667310
0.717719 0.717719 0.717719
0.781265 0.781265 0.781265
0.857326 0.857326 0.857326
0.942915 0.942915 0.942915
1.000000 1.000000 1.000000
0.640670 0.640670 0.640670
0.669774 0.669774 0.669774
0.700436 0.700436 0.700436
0.737448 0.737448 0.737448
0.783999 0.783999 0.783999
0.840936 0.840936 0.840936
0.906541 0.906541 0.906541
0.975643 0.975643 0.975643
1.000000 1.000000 1.000000
0.234282 0.234282 0.234282
0.294594 0.294594 0.294594
0.367338 0.367338 0.367338
0.445123 0.445123 0.445123
0.529300 0.529300 0.529300
0.617047 0.617047 0.617047
0.704288 0.704288 0.704288
0.787679 0.787679 0.787679
0.866249 0.866249 0.866249
0.278784 0.278784 0.278784
0.335892 0.335892 0.335892
0.397872 0.397872 0.397872
0.462861 0.462861 0.462861
0.540565 0.540565 0.540565
0.627091 0.627091 0.627091
0.714653 0.714653 0.714653
0.801420 0.801420 0.801420
0.883433 0.883433 0.883433
0.348546 0.348546 0.348546
0.393725 0.393725 0.393725
0.437581 0.437581 0.437581
0.491803 0.491803 0.491803
0.559677 0.559677 0.559677
0.640345 0.640345 0.640345
0.726774 0.726774 0.726774
0.815458 0.815458 0.815458
0.900262 0.900262 0.900262
0.414450 0.414450 0.414450
0.443715 0.443715 0.443715
0.478388 0.478388 0.478388
0.525162 0.525162 0.525162
0.586591 0.586591 0.586591
0.658734 0.658734 0.658734
0.740319 0.740319 0.740319
0.830581 0.830581 0.830581
0.919200 0.919200 0.919200
0.471859 0.471859 0.471859
0.495016 0.495016 0.495016
0.522703 0.522703 0.522703
0.565338 0.565338 0.565338
0.626779 0.626779 0.626779
0.691954 0.691954 0.691954
0.767262 0.767262 0.767262
0.855033 0.855033 0.855033
0.944461 0.944461 0.944461
0.532023 0.532023 0.532023
0.556309 0.556309 0.556309
0.575554 0.575554 0.575554
0.615092 0.615092 0.615092
0.671549 0.671549 0.671549
0.733470 0.733470 0.733470
0.807520 0.807520 0.807520
0.893447 0.893447 0.893447
0.976766 0.976766 0.976766
0.603701 0.603701 0.603701
0.623334 0.623334 0.623334
0.640830 0.640830 0.640830
0.672372 0.672372 0.672372
0.721714 0.721714 0.721714
0.780662 0.780662 0.780662
0.853524 0.853524 0.853524
0.938645 0.938645 0.938645
1.000000 1.000000 1.000000
0.668477 0.668477 0.668477
0.690219 0.690219 0.690219
0.711092 0.711092 0.711092
0.740651 0.740651 0.740651
0.783665 0.783665 0.783665
0.839020 0.839020 0.839020
0.905601 0.905601 0.905601
0.972127 0.972127 0.972127
1.000000 1.000000 1.000000
0.726189 0.726189 0.726189
0.751002 0.751002 0.751002
0.775403 0.775403 0.775403
0.805017 0.805017 0.805017
0.843315 0.843315 0.843315
0.890396 0.890396 0.890396
0.942599 0.942599 0.942599
0.992680 0.992680 0.992680
1.000000 1.000000 1.000000
0.368043 0.368043 0.368043
0.423219 0.423219 0.423219
0.484925 0.484925 0.484925
0.550558 0.550558 0.550558
0.621624 0.621624 0.621624
0.697781 0.697781 0.697781
0.774499 0.774499 0.774499
0.848608 0.848608 0.848608
0.919199 0.919199 0.919199
0.422236 0.422236 0.422236
0.472972 0.472972 0.472972
0.525013 0.525013 0.525013
0.580007 0.580007 0.580007
0.642060 0.642060 0.642060
0.714527 0.714527 0.714527
0.789370 0.789370 0.789370
0.864638 0.864638 0.864638
0.936380 0.936380 0.936380
0.494240 0.494240 0.494240
0.534689 0.534689 0.534689
0.572340 0.572340 0.572340
0.615830 0.615830 0.615830
0.668378 0.668378 0.668378
0.733533 0.733533 0.733533
0.805190 0.805190 0.805190
0.880843 0.880843 0.880843
0.952841 0.952841 0.952841
0.554019 0.554019 0.554019
0.583990 0.583990 0.583990
0.614835 0.614835 0.614835
0.652119 0.652119 0.652119
0.700759 0.700759 0.700759
0.757576 0.757576 0.757576
0.824100 0.824100 0.824100
0.898896 0.898896 0.898896
0.970236 0.970236 0.970236
0.603502 0.603502 0.603502
0.628852 0.628852 0.628852
0.652066 0.652066 0.652066
0.685458 0.685458 0.685458
0.734675 0.734675 0.734675
0.790755 0.790755 0.790755
0.850572 0.850572 0.850572
0.923407 0.923407 0.923407
0.990342 0.990342 0.990342
0.648774 0.648774 0.648774
0.675900 0.675900 0.675900
0.695250 0.695250 0.695250
0.725758 0.725758 0.725758
0.770811 0.770811 0.770811
0.823902 0.823902 0.823902
0.884185 0.884185 0.884185
0.952746 0.952746 0.952746
1.000000 1.000000 1.000000
0.713508 0.713508 0.713508
0.733465 0.733465 0.733465
0.750014 0.750014 0.750014
0.776711 0.776711 0.776711
0.812749 0.812749 0.812749
0.863023 0.863023 0.863023
0.927530 0.927530 0.927530
0.982487 0.982487 0.982487
1.000000 1.000000 1.000000
0.769842 0.769842 0.769842
0.790341 0.790341 0.790341
0.808264 0.808264 0.808264
0.832560 0.832560 0.832560
0.865659 0.865659 0.865659
0.910866 0.910866 0.910866
0.963647 0.963647 0.963647
0.996570 0.996570 0.996570
1.000000 1.000000 1.000000
0.816871 0.816871 0.816871
0.839485 0.839485 0.839485
0.859786 0.859786 0.859786
0.883053 0.883053 0.883053
0.911864 0.911864 0.911864
0.945795 0.945795 0.945795
0.978730 0.978730 0.978730
1.000000 1.000000 1.000000
1.000000 1.000000 1.000000
0.496655 0.496655 0.496655
0.547814 0.547814 0.547814
0.601816 0.601816 0.601816
0.658261 0.658261 0.658261
0.718276 0.718276 0.718276
0.782049 0.782049 0.782049
0.847210 0.847210 0.847210
0.911354 0.911354 0.911354
0.973193 0.973193 0.973193
0.555699 0.555699 0.555699
0.602659 0.602659 0.602659
0.648652 0.648652 0.648652
0.696032 0.696032 0.696032
0.747888 0.747888 0.747888
0.806034 0.806034 0.806034
0.867783 0.867783 0.867783
0.930114 0.930114 0.930114
0.990585 0.990585 0.990585
0.622789 0.622789 0.622789
0.663437 0.663437 0.663437
0.699790 0.699790 0.699790
0.737992 0.737992 0.737992
0.781756 0.781756 0.781756
0.832921 0.832921 0.832921
0.889725 0.889725 0.889725
0.948923 0.948923 0.948923
1.000000 1.000000 1.000000
0.682179 0.682179 0.682179
0.716872 0.716872 0.716872
0.746647 0.746647 0.746647
0.779099 0.779099 0.779099
0.818385 0.818385 0.818385
0.863796 0.863796 0.863796
0.914369 0.914369 0.914369
0.968830 0.968830 0.968830
1.000000 1.000000 1.000000
0.732755 0.732755 0.732755
0.763246 0.763246 0.763246
0.786935 0.786935 0.786935
0.814392 0.814392 0.814392
0.852083 0.852083 0.852083
0.895390 0.895390 0.895390
0.941221 0.941221 0.941221
0.989491 0.989491 0.989491
1.000000 1.000000 1.000000
0.780895 0.780895 0.780895
0.806889 0.806889 0.806889
0.826218 0.826218 0.826218
0.849073 0.849073 0.849073
0.881989 0.881989 0.881989
0.922733 0.922733 0.922733
0.966769 0.966769 0.966769
1.000000 1.000000 1.000000
1.000000 1.000000 1.000000
0.831800 0.831800 0.831800
0.852142 0.852142 0.852142
0.868601 0.868601 0.868601
0.891006 0.891006 0.891006
0.918508 0.918508 0.918508
0.954957 0.954957 0.954957
0.992767 0.992767 0.992767
1.000000 1.000000 1.000000
1.000000 1.000000 1.000000
0.872640 0.872640 0.872640
0.893487 0.893487 0.893487
0.910300 0.910300 0.910300
0.930802 0.930802 0.930802
0.954674 0.954674 0.954674
0.982952 0.982952 0.982952
1.000000 1.000000 1.000000
1.000000 1.000000 1.000000
1.000000 1.000000 1.000000
0.907045 0.907045 0.907045
0.928755 0.928755 0.928755
0.946295 0.946295 0.946295
0.963856 0.963856 0.963856
0.982236 0.982236 0.982236
0.998993 0.998993 0.998993
1.000000 1.000000 1.000000
1.000000 1.000000 1.000000
1.000000 1.000000 1.000000
0.613064 0.613064 0.613064
0.661331 0.661331 0.661331
0.710167 0.710167 0.710167
0.759854 0.759854 0.759854
0.811296 0.811296 0.811296
0.864801 0.864801 0.864801
0.919430 0.919430 0.919430
0.973843 0.973843 0.973843
1.000000 1.000000 1.000000
0.671621 0.671621 0.671621
0.716566 0.716566 0.716566
0.759328 0.759328 0.759328
0.801791 0.801791 0.801791
0.846210 0.846210 0.846210
0.893710 0.893710 0.893710
0.943522 0.943522 0.943522
0.994075 0.994075 0.994075
1.000000 1.000000 1.000000
0.733728 0.733728 0.733728
0.774568 0.774568 0.774568
0.810671 0.810671 0.810671
0.845823 0.845823 0.845823
0.883188 0.883188 0.883188
0.924053 0.924053 0.924053
0.967850 0.967850 0.967850
1.000000 1.000000 1.000000
1.000000 1.000000 1.000000
0.791803 0.791803 0.791803
0.828345 0.828345 0.828345
0.858577 0.858577 0.858577
0.887778 0.887778 0.887778
0.919704 0.919704 0.919704
0.954708 0.954708 0.954708
0.991848 0.991848 0.991848
1.000000 1.000000 1.000000
1.000000 1.000000 1.000000
0.843414 0.843414 0.843414
0.875629 0.875629 0.875629
0.900380 0.900380 0.900380
0.924304 0.924304 0.924304
0.951883 0.951883 0.951883
0.982188 0.982188 0.982188
1.000000 1.000000 1.000000
1.000000 1.000000 1.000000
1.000000 1.000000 1.000000
0.890020 0.890020 0.890020
0.917596 0.917596 0.917596
0.937559 0.937559 0.937559
0.957019 0.957019 0.957019
0.979898 0.979898 0.979898
1.000000 1.000000 1.000000
1.000000 1.000000 1.000000
1.000000 1.000000 1.000000
1.000000 1.000000 1.000000
0.931244 0.931244 0.931244
0.954714 0.954714 0.954714
0.971650 0.971650 0.971650
0.988859 0.988859 0.988859
1.000000 1.000000 1.000000
1.000000 1.000000 1.000000
1.000000 1.000000 1.000000
1.000000 1.000000 1.000000
1.000000 1.000000 1.000000
0.963514 0.963514 0.963514
0.985438 0.985438 0.985438
1.000000 1.000000 1.000000
1.000000 1.000000 1.000000
1.000000 1.000000 1.000000
1.000000 1.000000 1.000000
1.000000 1.000000 1.000000
1.000000 1.000000 1.000000
1.000000 1.000000 1.000000
0.989647 0.989647 0.989647
1.000000 1.000000 1.000000
1.000000 1.000000 1.000000
1.000000 1.000000 1.000000
1.000000 1.000000 1.000000
1.000000 1.000000 1.000000
1.000000 1.000000 1.000000
1.000000 1.000000 1.000000
1.000000 1.000000 1.000000
