app/src/main/assets/luts/JC-Negative_V4.cube
TITLE "JC Negative"
#Lut generated by JC from Ricoh GR3X HDF
LUT_3D_SIZE 33
DOMAIN_MIN 0.0 0.0 0.0
DOMAIN_MAX 1.0 1.0 1.0
0.000000 0.000000 0.000000
0.065413 0.017652 0.006441
0.115285 0.024453 0.004892
0.169457 0.031535 0.003558
0.225717 0.038668 0.002123
0.282309 0.046019 0.000709
0.337839 0.053963 0.000000
0.391177 0.062899 0.000000
0.441729 0.073024 0.000000
0.489368 0.084268 0.000000
0.534060 0.096312 0.000000
0.575887 0.108745 0.000000
0.614886 0.120992 0.000000
0.650872 0.132531 0.000000
0.683864 0.143507 0.000000
0.713926 0.154063 0.000000
0.741436 0.164348 0.000000
0.767179 0.174402 0.000000
0.791903 0.184337 0.000000
0.815730 0.194380 0.000000
0.838586 0.204664 0.000000
0.860539 0.215214 0.000000
0.881747 0.225974 0.000000
0.902386 0.236848 0.000000
0.922609 0.247732 0.000000
0.942548 0.258538 0.000000
0.962309 0.269197 0.000000
0.981975 0.279661 0.000000
1.000000 0.289897 0.000000
1.000000 0.299886 0.000000
1.000000 0.309615 0.000000
1.000000 0.319081 0.000000
1.000000 0.328285 0.000000
0.006452 0.044328 0.019800
0.048827 0.050085 0.017394
0.098103 0.056557 0.015874
0.152486 0.062994 0.014433
0.209554 0.069254 0.012796
0.267351 0.075617 0.011185
0.324343 0.082568 0.009967
0.379106 0.090657 0.009539
0.430993 0.100139 0.009889
0.479979 0.110922 0.010529
0.525951 0.122571 0.010832
0.569044 0.134655 0.010070
0.609356 0.146623 0.007374
0.646560 0.157855 0.002250
0.680440 0.168417 0.000000
0.710999 0.178353 0.000000
0.738802 0.187727 0.000000
0.764826 0.196741 0.000000
0.789780 0.205733 0.000000
0.813711 0.215034 0.000000
0.836553 0.224807 0.000000
0.858414 0.235054 0.000000
0.879490 0.245662 0.000000
0.899976 0.256472 0.000000
0.920041 0.267336 0.000000
0.939823 0.278142 0.000000
0.959431 0.288808 0.000000
0.978950 0.299281 0.000000
0.998446 0.309526 0.000000
1.000000 0.319522 0.000000
1.000000 0.329257 0.000000
1.000000 0.338728 0.000000
1.000000 0.347934 0.000000
0.000000 0.078277 0.031696
0.033898 0.083911 0.029244
0.081083 0.089894 0.027500
0.134169 0.095587 0.025818
0.190949 0.101000 0.024013
0.249187 0.106458 0.022251
0.307120 0.112475 0.020908
0.363125 0.119700 0.020528
0.416467 0.128463 0.021135
0.467000 0.138663 0.022179
0.514521 0.149812 0.022935
0.559205 0.161460 0.022655
0.601132 0.173126 0.020566
0.639908 0.184159 0.016082
0.675091 0.194292 0.008968
0.706693 0.203442 0.000000
0.735365 0.211728 0.000000
0.762052 0.219594 0.000000
0.787363 0.227595 0.000000
0.811419 0.236140 0.000000
0.834264 0.245410 0.000000
0.856066 0.255366 0.000000
0.877049 0.265821 0.000000
0.897425 0.276550 0.000000
0.917372 0.287364 0.000000
0.937034 0.298132 0.000000
0.956521 0.308764 0.000000
0.975920 0.319205 0.000000
0.995298 0.329419 0.000000
1.000000 0.339386 0.000000
1.000000 0.349094 0.000000
1.000000 0.358540 0.000000
1.000000 0.367723 0.000000
0.000000 0.112725 0.044116
0.020427 0.118054 0.041461
0.064711 0.123492 0.039378
0.115331 0.128613 0.037543
0.170599 0.133438 0.035752
0.228215 0.138245 0.033989
0.286234 0.143542 0.032598
0.343051 0.150002 0.032177
0.397795 0.158032 0.032805
0.450024 0.167577 0.033986
0.499435 0.178192 0.034984
0.546112 0.189413 0.035095
0.589946 0.200663 0.033529
0.630498 0.211260 0.029513
0.667343 0.220743 0.022584
0.700510 0.228994 0.012792
0.730571 0.236264 0.000860
0.758298 0.243131 0.000000
0.784222 0.250253 0.000000
0.808572 0.258114 0.000000
0.831534 0.266913 0.000000
0.853364 0.276564 0.000000
0.874332 0.286813 0.000000
0.894667 0.297385 0.000000
0.914557 0.308068 0.000000
0.934149 0.318716 0.000000
0.953558 0.329238 0.000000
0.972871 0.339576 0.000000
0.992157 0.349698 0.000000
1.000000 0.359582 0.000000
1.000000 0.369218 0.000000
1.000000 0.378598 0.000000
1.000000 0.387721 0.000000
0.000000 0.147264 0.056961
0.009097 0.152122 0.054053
0.050329 0.156992 0.051676
0.097712 0.161653 0.049710
0.150220 0.166091 0.047954
0.205950 0.170498 0.046285
0.263047 0.175344 0.044962
0.319974 0.181264 0.044471
0.375674 0.188668 0.044932
0.429464 0.197559 0.045983
0.480903 0.207590 0.046991
0.529755 0.218234 0.047203
0.575706 0.228847 0.045778
0.618280 0.238757 0.041924
0.657088 0.247507 0.035170
0.692159 0.255000 0.025549
0.723960 0.261534 0.013677
0.753086 0.267704 0.000614
0.779975 0.274176 0.000000
0.804907 0.281479 0.000000
0.828190 0.289821 0.000000
0.850196 0.299085 0.000000
0.871262 0.308995 0.000000
0.891649 0.319267 0.000000
0.911557 0.329680 0.000000
0.931141 0.340085 0.000000
0.950519 0.350388 0.000000
0.969784 0.360530 0.000000
0.989008 0.370478 0.000000
1.000000 0.380210 0.000000
1.000000 0.389712 0.000000
1.000000 0.398976 0.000000
1.000000 0.407994 0.000000
0.000000 0.181883 0.070334
0.000102 0.186229 0.067209
0.038190 0.190534 0.064582
0.081909 0.194734 0.062434
0.130838 0.198838 0.060626
0.183712 0.203007 0.059048
0.239005 0.207643 0.057854
0.295278 0.213268 0.057347
0.351356 0.220232 0.057622
0.406344 0.228557 0.058415
0.459576 0.237948 0.059180
0.510527 0.247885 0.059185
0.558678 0.257738 0.057634
0.603466 0.266913 0.053838
0.644463 0.275011 0.047388
0.681658 0.281957 0.038254
0.715432 0.288036 0.026863
0.746243 0.293788 0.014034
0.774425 0.299829 0.000790
0.800253 0.306664 0.000000
0.824114 0.314493 0.000000
0.846485 0.323221 0.000000
0.867787 0.332606 0.000000
0.888332 0.342392 0.000000
0.908342 0.352368 0.000000
0.927982 0.362382 0.000000
0.947382 0.372336 0.000000
0.966640 0.382171 0.000000
0.985835 0.391851 0.000000
1.000000 0.401349 0.000000
1.000000 0.410649 0.000000
1.000000 0.419735 0.000000
1.000000 0.428597 0.000000
0.000000 0.216717 0.084384
0.000000 0.220621 0.081103
0.027913 0.224429 0.078269
0.067702 0.228192 0.075933
0.112661 0.231982 0.074035
0.162129 0.235969 0.072507
0.214986 0.240496 0.071420
0.269956 0.245966 0.070928
0.325828 0.252638 0.071055
0.381545 0.260505 0.071575
0.436217 0.269301 0.072014
0.489075 0.278558 0.071725
0.539393 0.287717 0.070028
0.586474 0.296265 0.066360
0.629796 0.303854 0.060354
0.669260 0.310413 0.051892
0.705152 0.316206 0.041211
0.737822 0.321712 0.028862
0.767526 0.327439 0.015672
0.794525 0.333802 0.002616
0.819231 0.340996 0.000000
0.842176 0.349012 0.000000
0.863867 0.357694 0.000000
0.884683 0.366825 0.000000
0.904883 0.376203 0.000000
0.924649 0.385677 0.000000
0.944124 0.395151 0.000000
0.963418 0.404563 0.000000
0.982618 0.413875 0.000000
1.000000 0.423056 0.000000
1.000000 0.432080 0.000000
1.000000 0.440925 0.000000
1.000000 0.449573 0.000000
0.000000 0.251893 0.099258
0.000000 0.255507 0.095933
0.019387 0.258957 0.092985
0.054999 0.262364 0.090516
0.095724 0.265857 0.088530
0.141440 0.269636 0.086994
0.191417 0.274022 0.085938
0.244580 0.279343 0.085427
0.299743 0.285773 0.085426
0.355745 0.293266 0.085712
0.411513 0.301571 0.085876
0.466061 0.310282 0.085380
0.518451 0.318918 0.083666
0.567821 0.327019 0.080254
0.613523 0.334247 0.074769
0.655321 0.340528 0.067024
0.693394 0.346119 0.057118
0.728001 0.351444 0.045341
0.759362 0.356879 0.032272
0.787744 0.362700 0.018813
0.813518 0.369131 0.005933
0.837229 0.376302 0.000000
0.859465 0.384160 0.000000
0.880674 0.392514 0.000000
0.901154 0.401165 0.000000
0.921115 0.409970 0.000000
0.940720 0.418840 0.000000
0.960093 0.427722 0.000000
0.979334 0.436574 0.000000
0.998525 0.445357 0.000000
1.000000 0.454034 0.000000
1.000000 0.462574 0.000000
1.000000 0.470951 0.000000
0.000000 0.287410 0.115054
0.000000 0.290927 0.111845
0.012682 0.294193 0.108918
0.043850 0.297345 0.106398
0.080079 0.300545 0.104329
0.121755 0.304043 0.102713
0.168510 0.308179 0.101577
0.219482 0.313254 0.100953
0.273545 0.319397 0.100779
0.329475 0.326533 0.100844
0.386052 0.334424 0.100793
0.442088 0.342715 0.100188
0.496425 0.350992 0.098579
0.548016 0.358812 0.095509
0.596067 0.365814 0.090555
0.640188 0.371925 0.083492
0.680422 0.377393 0.074332
0.716980 0.382573 0.063171
0.750095 0.387701 0.050326
0.780013 0.392940 0.036546
0.807017 0.398569 0.022972
0.831648 0.404859 0.010587
0.854570 0.411843 0.000000
0.876283 0.419344 0.000000
0.897128 0.427168 0.000000
0.917352 0.435196 0.000000
0.937141 0.443363 0.000000
0.956640 0.451625 0.000000
0.975963 0.459938 0.000000
0.995200 0.468252 0.000000
1.000000 0.476518 0.000000
1.000000 0.484692 0.000000
1.000000 0.492739 0.000000
0.000000 0.323093 0.131764
0.000000 0.326668 0.128844
0.007831 0.329892 0.126076
0.034292 0.332878 0.123586
0.065766 0.335781 0.121428
0.103139 0.338907 0.119643
0.146382 0.342660 0.118288
0.194869 0.347354 0.117403
0.247560 0.353104 0.116941
0.303174 0.359828 0.116713
0.360349 0.367301 0.116416
0.417699 0.375214 0.115702
0.473841 0.383212 0.114212
0.527534 0.390860 0.111493
0.577843 0.397764 0.107058
0.624234 0.403841 0.100657
0.666584 0.409291 0.092232
0.705057 0.414382 0.081778
0.739940 0.419243 0.069359
0.771471 0.423984 0.055530
0.799807 0.428943 0.041587
0.825478 0.434441 0.028544
0.849195 0.440559 0.016736
0.871503 0.447156 0.006062
0.892788 0.454077 0.000000
0.913336 0.461247 0.000000
0.933365 0.468635 0.000000
0.953039 0.476212 0.000000
0.972485 0.483928 0.000000
0.991806 0.491716 0.000000
1.000000 0.499514 0.000000
1.000000 0.507265 0.000000
1.000000 0.514929 0.000000
0.000000 0.358628 0.149245
0.000000 0.362333 0.146782
0.004690 0.365569 0.144276
0.026258 0.368435 0.141875
0.052786 0.371030 0.139614
0.085622 0.373719 0.137568
0.125078 0.376990 0.135851
0.170843 0.381189 0.134554
0.221993 0.386438 0.133654
0.277157 0.392643 0.132971
0.334798 0.399614 0.132287
0.393312 0.407105 0.131360
0.451100 0.414809 0.129903
0.506751 0.422316 0.127475
0.559206 0.429238 0.123568
0.607797 0.435437 0.117866
0.652242 0.440985 0.110202
0.692611 0.446084 0.100545
0.729204 0.450824 0.088833
0.762278 0.455300 0.075452
0.791969 0.459840 0.061600
0.818773 0.464717 0.048133
0.843372 0.470026 0.035396
0.866344 0.475710 0.023457
0.888129 0.481698 0.012383
0.909060 0.487974 0.002353
0.929383 0.494549 0.000000
0.949282 0.501405 0.000000
0.968895 0.508484 0.000000
0.988336 0.515702 0.000000
1.000000 0.522982 0.000000
1.000000 0.530261 0.000000
1.000000 0.537493 0.000000
0.000000 0.393654 0.167185
0.000000 0.397489 0.165325
0.002756 0.400679 0.163132
0.019505 0.403419 0.160889
0.041057 0.405710 0.158556
0.069154 0.407995 0.156261
0.104559 0.410780 0.154132
0.147393 0.414446 0.152332
0.196873 0.419113 0.150855
0.251493 0.424665 0.149502
0.309514 0.431014 0.148234
0.369064 0.438013 0.146976
0.428337 0.445389 0.145479
0.485796 0.452745 0.143279
0.540272 0.459717 0.139870
0.590982 0.466108 0.134872
0.637516 0.471872 0.128015
0.679831 0.477111 0.119201
0.718131 0.481924 0.108416
0.752660 0.486412 0.095970
0.783669 0.490779 0.082604
0.811626 0.495213 0.068950
0.837153 0.499830 0.055392
0.860843 0.504674 0.042208
0.883182 0.509776 0.029715
0.904549 0.515191 0.018299
0.925217 0.520968 0.008313
0.945385 0.527102 0.000000
0.965205 0.533523 0.000000
0.984798 0.540138 0.000000
1.000000 0.546860 0.000000
1.000000 0.553623 0.000000
1.000000 0.560379 0.000000
0.000000 0.427800 0.185079
0.000000 0.431710 0.183851
0.001159 0.434767 0.182128
0.013757 0.437281 0.180126
0.030374 0.439395 0.177923
0.053532 0.441475 0.175616
0.084761 0.443953 0.173299
0.124472 0.447133 0.171032
0.172022 0.451123 0.168806
0.225928 0.455904 0.166593
0.284226 0.461525 0.164575
0.344707 0.467984 0.162916
0.405352 0.475026 0.161371
0.464521 0.482211 0.159367
0.520934 0.489183 0.156383
0.573707 0.495740 0.152042
0.622321 0.501777 0.146042
0.666604 0.507284 0.138187
0.706648 0.512321 0.128455
0.742683 0.516972 0.117046
0.775024 0.521316 0.104318
0.804134 0.525448 0.090646
0.830610 0.529513 0.076426
0.855058 0.533659 0.062129
0.878003 0.538008 0.048310
0.899856 0.542671 0.035558
0.920913 0.547725 0.024359
0.941388 0.553169 0.014969
0.961442 0.558931 0.007422
0.981209 0.564920 0.001623
1.000000 0.571054 0.000000
1.000000 0.577270 0.000000
1.000000 0.583518 0.000000
0.000000 0.460709 0.202601
0.000000 0.464605 0.201986
0.000000 0.467596 0.200902
0.008208 0.470030 0.199402
0.020247 0.472079 0.197577
0.038484 0.474095 0.195524
0.065501 0.476457 0.193330
0.101840 0.479255 0.190747
0.147114 0.482586 0.187801
0.200006 0.486580 0.184725
0.258414 0.491410 0.181891
0.319713 0.497301 0.179818
0.381678 0.504006 0.178249
0.442571 0.510957 0.176369
0.500932 0.517831 0.173697
0.555775 0.524482 0.169951
0.606480 0.530763 0.164808
0.652745 0.536533 0.157920
0.694588 0.541810 0.149203
0.732234 0.546668 0.138765
0.765993 0.551063 0.126680
0.796305 0.554982 0.113076
0.823776 0.558635 0.098364
0.849038 0.562270 0.083157
0.872650 0.566063 0.068178
0.895043 0.570146 0.054190
0.916529 0.574599 0.041795
0.937333 0.579417 0.031326
0.957637 0.584543 0.022894
0.977584 0.589907 0.016461
0.997298 0.595442 0.011879
1.000000 0.601095 0.008926
1.000000 0.606820 0.007333
0.000000 0.492239 0.219622
0.000000 0.496127 0.219576
0.000000 0.499208 0.219208
0.002400 0.501710 0.218442
0.010665 0.503824 0.217285
0.024471 0.505912 0.215825
0.046985 0.508260 0.213980
0.079509 0.510784 0.211294
0.122025 0.513589 0.207901
0.173376 0.516935 0.204278
0.231481 0.521016 0.200794
0.293381 0.526307 0.198340
0.356711 0.532569 0.196629
0.419476 0.539131 0.194668
0.479895 0.545756 0.192121
0.536879 0.552379 0.188851
0.589726 0.558818 0.184530
0.638001 0.564725 0.178512
0.681703 0.570125 0.170678
0.721070 0.575132 0.161112
0.756375 0.579593 0.149657
0.788006 0.583377 0.136229
0.816588 0.586790 0.121258
0.842778 0.590145 0.105401
0.867148 0.593614 0.089453
0.890147 0.597316 0.074295
0.912098 0.601314 0.060666
0.933249 0.605603 0.049039
0.953802 0.610150 0.039662
0.973925 0.614921 0.032581
0.993758 0.619878 0.027652
1.000000 0.624978 0.024595
1.000000 0.630183 0.023061
0.000000 0.522457 0.236108
0.000000 0.526421 0.236563
0.000000 0.529673 0.236909
0.000000 0.532299 0.236834
0.001543 0.534540 0.236430
0.011706 0.536776 0.235755
0.029759 0.539191 0.234505
0.058095 0.541576 0.232078
0.097210 0.544075 0.228765
0.146277 0.547001 0.225130
0.203141 0.550600 0.221610
0.265271 0.555197 0.218765
0.330065 0.560704 0.216504
0.394854 0.566686 0.214207
0.457496 0.572934 0.211610
0.516701 0.579360 0.208633
0.571693 0.585723 0.204921
0.622025 0.591632 0.199744
0.667675 0.597046 0.192796
0.708856 0.602038 0.184008
0.745833 0.606476 0.173170
0.778982 0.610268 0.160160
0.808890 0.613685 0.145287
0.836193 0.617010 0.129099
0.861460 0.620390 0.112358
0.885150 0.623905 0.096024
0.907607 0.627598 0.081046
0.929117 0.631475 0.068167
0.949916 0.635538 0.057829
0.970200 0.639787 0.050143
0.990138 0.644213 0.044932
1.000000 0.648793 0.041829
1.000000 0.653498 0.040389
0.000000 0.551569 0.252265
0.000000 0.555568 0.253018
0.000000 0.558942 0.253783
0.000000 0.561733 0.254308
0.000000 0.564141 0.254561
0.000116 0.566488 0.254516
0.014602 0.568920 0.253857
0.038787 0.571317 0.252173
0.073905 0.573718 0.249510
0.119856 0.576427 0.246380
0.174572 0.579620 0.243121
0.236437 0.583552 0.240095
0.302347 0.588257 0.237373
0.368966 0.593596 0.234719
0.433761 0.599411 0.232009
0.495131 0.605503 0.229199
0.552201 0.611585 0.225985
0.604581 0.617350 0.221689
0.652229 0.622649 0.215658
0.695314 0.627468 0.207596
0.734103 0.631796 0.197419
0.768978 0.635671 0.185099
0.800455 0.639270 0.170709
0.829101 0.642770 0.154527
0.855447 0.646255 0.137171
0.879948 0.649754 0.119650
0.902974 0.653283 0.103216
0.924863 0.656870 0.089018
0.945903 0.660553 0.077726
0.966335 0.664364 0.069485
0.986366 0.668322 0.064047
1.000000 0.672426 0.060932
1.000000 0.676664 0.059583
0.000000 0.579739 0.268311
0.000000 0.583723 0.269237
0.000000 0.587163 0.270251
0.000000 0.590102 0.271179
0.000000 0.592681 0.271908
0.000000 0.595112 0.272318
0.001959 0.597526 0.272184
0.022862 0.599910 0.271242
0.054067 0.602281 0.269429
0.095522 0.604842 0.267089
0.147373 0.607790 0.264440
0.208649 0.611210 0.261557
0.274975 0.615230 0.258740
0.342682 0.619985 0.255937
0.409073 0.625350 0.253161
0.472261 0.631021 0.250515
0.531198 0.636740 0.247931
0.585495 0.642232 0.244651
0.635115 0.647253 0.239485
0.680182 0.651773 0.232041
0.720930 0.655926 0.222589
0.757713 0.659857 0.211224
0.790986 0.663692 0.197705
0.821226 0.667496 0.181889
0.848879 0.671242 0.164185
0.874355 0.674869 0.145627
0.898040 0.678353 0.127766
0.920340 0.681747 0.112204
0.941623 0.685128 0.099914
0.962199 0.688563 0.091096
0.982324 0.692103 0.085414
1.000000 0.695775 0.082248
1.000000 0.699583 0.080917
0.000000 0.607080 0.284357
0.000000 0.611028 0.285428
0.000000 0.614496 0.286621
0.000000 0.617528 0.287806
0.000000 0.620225 0.288849
0.000000 0.622721 0.289603
0.000000 0.625118 0.289888
0.010131 0.627463 0.289531
0.038201 0.629820 0.288508
0.076269 0.632332 0.286987
0.125094 0.635122 0.285043
0.184043 0.638231 0.282684
0.249107 0.641787 0.280180
0.316603 0.646016 0.277563
0.383684 0.650894 0.274927
0.448050 0.656061 0.272519
0.508444 0.661344 0.270705
0.564453 0.666518 0.268720
0.615993 0.671142 0.264270
0.663102 0.675226 0.257135
0.705941 0.679121 0.248416
0.744806 0.683059 0.238345
0.780097 0.687133 0.226185
0.812211 0.691325 0.211139
0.841441 0.695455 0.193506
0.868089 0.699327 0.174321
0.892552 0.702858 0.155248
0.915318 0.706111 0.138298
0.936867 0.709219 0.124895
0.957608 0.712305 0.115409
0.977858 0.715462 0.109398
0.997848 0.718743 0.106069
1.000000 0.722164 0.104612
0.000000 0.633671 0.300427
0.000000 0.637573 0.301643
0.000000 0.641043 0.302989
0.000000 0.644122 0.304359
0.000000 0.646882 0.305627
0.000000 0.649415 0.306651
0.000000 0.651806 0.307283
0.000000 0.654129 0.307409
0.025614 0.656469 0.307011
0.061354 0.658940 0.306157
0.107338 0.661634 0.304903
0.162776 0.664596 0.303297
0.225022 0.667890 0.301430
0.290902 0.671666 0.299387
0.357301 0.676025 0.297299
0.421882 0.680685 0.295506
0.483410 0.685478 0.294420
0.541040 0.690264 0.293355
0.594433 0.694423 0.289333
0.643636 0.697986 0.282287
0.688700 0.701585 0.274373
0.729827 0.705486 0.265843
0.767351 0.709767 0.255552
0.801626 0.714369 0.241661
0.832715 0.718940 0.224689
0.860753 0.723126 0.205510
0.886138 0.726751 0.185627
0.909466 0.729885 0.167345
0.931355 0.732724 0.152765
0.952335 0.735482 0.142578
0.972792 0.738296 0.136172
0.992977 0.741235 0.132545
1.000000 0.744321 0.130769
0.000000 0.659569 0.316510
0.000000 0.663420 0.317876
0.000000 0.666875 0.319369
0.000000 0.669969 0.320898
0.000000 0.672758 0.322352
0.000000 0.675311 0.323608
0.000000 0.677705 0.324547
0.000000 0.680020 0.325089
0.014953 0.682349 0.325214
0.048661 0.684790 0.324962
0.091757 0.687423 0.324384
0.143614 0.690288 0.323525
0.202376 0.693418 0.322437
0.265450 0.696884 0.321200
0.329976 0.700759 0.319948
0.393893 0.704899 0.318908
0.456134 0.709127 0.318134
0.514980 0.713274 0.316756
0.570085 0.716990 0.313264
0.621380 0.720238 0.307242
0.668816 0.723577 0.300276
0.712418 0.727381 0.292943
0.752348 0.731814 0.284570
0.789025 0.736687 0.272117
0.822225 0.741613 0.256474
0.851867 0.746087 0.238098
0.878347 0.749826 0.218214
0.902413 0.752880 0.198922
0.924789 0.755486 0.183304
0.946151 0.757966 0.172538
0.966952 0.760501 0.165726
0.987454 0.763166 0.161650
1.000000 0.765984 0.159328
0.000000 0.684822 0.332580
0.000000 0.688618 0.334102
0.000000 0.692046 0.335743
0.000000 0.695137 0.337427
0.000000 0.697936 0.339058
0.000000 0.700502 0.340534
0.000000 0.702904 0.341763
0.000000 0.705223 0.342684
0.005262 0.707548 0.343283
0.037177 0.709968 0.343589
0.077562 0.712551 0.343645
0.125991 0.715333 0.343492
0.181117 0.718334 0.343174
0.240903 0.721578 0.342749
0.303071 0.725072 0.342299
0.365747 0.728728 0.341871
0.427504 0.732400 0.341243
0.486966 0.735922 0.339743
0.543422 0.739141 0.336626
0.596556 0.742131 0.331774
0.646218 0.745294 0.325990
0.692313 0.749045 0.319781
0.734828 0.753405 0.311793
0.773918 0.758259 0.301054
0.809324 0.763277 0.287523
0.840791 0.767873 0.270908
0.868731 0.771766 0.251991
0.893823 0.774844 0.232449
0.916907 0.777358 0.216355
0.938865 0.779665 0.205222
0.960194 0.782008 0.197926
0.981164 0.784484 0.193182
1.000000 0.787108 0.190040
0.000000 0.709470 0.348611
0.000000 0.713207 0.350291
0.000000 0.716600 0.352085
0.000000 0.719677 0.353927
0.000000 0.722477 0.355737
0.000000 0.725051 0.357433
0.000000 0.727463 0.358943
0.000000 0.729790 0.360221
0.000000 0.732111 0.361258
0.026447 0.734506 0.362075
0.064449 0.737033 0.362707
0.109795 0.739722 0.363189
0.161515 0.742582 0.363552
0.218061 0.745610 0.363827
0.277615 0.748785 0.364026
0.338468 0.752032 0.364074
0.399186 0.755234 0.363687
0.458576 0.758268 0.362402
0.515736 0.761101 0.359864
0.570080 0.763869 0.356083
0.621360 0.766901 0.351432
0.669545 0.770505 0.345934
0.714533 0.774674 0.338749
0.755993 0.779284 0.329683
0.793586 0.784069 0.318239
0.827186 0.788563 0.303614
0.856981 0.792460 0.286091
0.883404 0.795653 0.267751
0.907538 0.798260 0.251994
0.930343 0.800534 0.240433
0.952410 0.802796 0.232375
0.974010 0.805173 0.226665
0.995281 0.807677 0.222422
0.000000 0.733547 0.364570
0.000000 0.737222 0.366412
0.000000 0.740575 0.368362
0.000000 0.743630 0.370365
0.000000 0.746422 0.372358
0.000000 0.748999 0.374273
0.000000 0.751418 0.376055
0.000000 0.753747 0.377669
0.000000 0.756057 0.379106
0.016252 0.758415 0.380381
0.052270 0.760869 0.381518
0.094978 0.763444 0.382541
0.143690 0.766142 0.383468
0.197234 0.768950 0.384299
0.254155 0.771833 0.384997
0.312967 0.774731 0.385440
0.372339 0.777558 0.385381
0.431133 0.780244 0.384521
0.488376 0.782817 0.382691
0.543352 0.785431 0.379926
0.595737 0.788330 0.376323
0.645525 0.791721 0.371723
0.692458 0.795621 0.365786
0.735970 0.799895 0.358286
0.775639 0.804299 0.348698
0.811257 0.808512 0.336186
0.842873 0.812276 0.320763
0.870948 0.815477 0.304094
0.896525 0.818189 0.289077
0.920499 0.820581 0.277121
0.943525 0.822891 0.268133
0.965906 0.825254 0.261254
0.987814 0.827706 0.255737
0.000000 0.757088 0.380430
0.000000 0.760698 0.382430
0.000000 0.764005 0.384537
0.000000 0.767031 0.386704
0.000000 0.769808 0.388878
0.000000 0.772378 0.391007
0.000000 0.774795 0.393047
0.000000 0.777115 0.394968
0.000000 0.779400 0.396763
0.006471 0.781705 0.398437
0.040898 0.784070 0.400004
0.081422 0.786514 0.401476
0.127563 0.789038 0.402854
0.178433 0.791624 0.404116
0.232873 0.794241 0.405201
0.289624 0.796842 0.405988
0.347480 0.799373 0.406288
0.405348 0.801811 0.405915
0.462269 0.804207 0.404773
0.517504 0.806694 0.402862
0.570646 0.809448 0.400161
0.621511 0.812609 0.396526
0.669737 0.816189 0.391764
0.714750 0.820077 0.385662
0.756085 0.824076 0.377776
0.793422 0.827953 0.367174
0.826749 0.831514 0.353648
0.856643 0.834669 0.339049
0.883902 0.837449 0.325280
0.909307 0.839970 0.313468
0.933471 0.842378 0.303794
0.956765 0.844781 0.295836
0.979423 0.847230 0.289088
0.000000 0.780124 0.396161
0.000000 0.783666 0.398316
0.000000 0.786921 0.400576
0.000000 0.789910 0.402903
0.000000 0.792663 0.405254
0.000000 0.795217 0.407585
0.000000 0.797618 0.409862
0.000000 0.799917 0.412059
0.000000 0.802163 0.414164
0.000000 0.804402 0.416179
0.030209 0.806666 0.418105
0.068960 0.808971 0.419942
0.112944 0.811319 0.421678
0.161488 0.813695 0.423279
0.213666 0.816074 0.424679
0.268423 0.818425 0.425771
0.324686 0.820722 0.426423
0.381436 0.822971 0.426510
0.437763 0.825226 0.425960
0.492933 0.827592 0.424737
0.546439 0.830193 0.422785
0.597906 0.833118 0.419985
0.646896 0.836375 0.416172
0.692884 0.839881 0.411112
0.735411 0.843492 0.404377
0.774167 0.847040 0.395323
0.809162 0.850387 0.383949
0.840837 0.853461 0.371464
0.869818 0.856269 0.359176
0.896750 0.858877 0.347934
0.922182 0.861374 0.338025
0.946516 0.863835 0.329333
0.970039 0.866309 0.321606
0.000000 0.802687 0.411736
0.000000 0.806157 0.414038
0.000000 0.809354 0.416445
0.000000 0.812299 0.418924
0.000000 0.815019 0.421441
0.000000 0.817546 0.423959
0.000000 0.819920 0.426448
0.000000 0.822183 0.428885
0.000000 0.824377 0.431257
0.000000 0.826540 0.433556
0.020087 0.828698 0.435777
0.057416 0.830866 0.437910
0.099608 0.833046 0.439933
0.146150 0.835229 0.441808
0.196300 0.837400 0.443471
0.249174 0.839543 0.444837
0.303831 0.841651 0.445807
0.359344 0.843743 0.446291
0.414859 0.845869 0.446224
0.469648 0.848109 0.445550
0.523125 0.850548 0.444198
0.574797 0.853244 0.442056
0.624176 0.856201 0.438958
0.670771 0.859362 0.434665
0.714162 0.862626 0.428831
0.754090 0.865877 0.421130
