app/src/main/assets/luts/JC-Negative_V4.cube
TITLE "JC Negative"
#Lut generated by JC from Ricoh GR3X HDF
LUT_3D_SIZE 9
DOMAIN_MIN 0.0 0.0 0.0
DOMAIN_MAX 1.0 1.0 1.0
0.000000 0.000000 0.000000
0.225717 0.038668 0.002123
0.441729 0.073024 0.000000
0.614886 0.120992 0.000000
0.741436 0.164348 0.000000
0.838586 0.204664 0.000000
0.922609 0.247732 0.000000
1.000000 0.289897 0.000000
1.000000 0.328285 0.000000
0.000000 0.147264 0.056961
0.150220 0.166091 0.047954
0.375674 0.188668 0.044932
0.575706 0.228847 0.045778
0.723960 0.261534 0.013677
0.828190 0.289821 0.000000
0.911557 0.329680 0.000000
0.989008 0.370478 0.000000
1.000000 0.407994 0.000000
0.000000 0.287410 0.115054
0.080079 0.300545 0.104329
0.273545 0.319397 0.100779
0.496425 0.350992 0.098579
0.680422 0.377393 0.074332
0.807017 0.398569 0.022972
0.897128 0.427168 0.000000
0.975963 0.459938 0.000000
1.000000 0.492739 0.000000
0.000000 0.427800 0.185079
0.030374 0.439395 0.177923
0.172022 0.451123 0.168806
0.405352 0.475026 0.161371
0.622321 0.501777 0.146042
0.775024 0.521316 0.104318
0.878003 0.538008 0.048310
0.961442 0.558931 0.007422
1.000000 0.583518 0.000000
0.000000 0.551569 0.252265
0.000000 0.564141 0.254561
0.073905 0.573718 0.249510
0.302347 0.588257 0.237373
0.552201 0.611585 0.225985
0.734103 0.631796 0.197419
0.855447 0.646255 0.137171
0.945903 0.660553 0.077726
1.000000 0.676664 0.059583
0.000000 0.659569 0.316510
0.000000 0.672758 0.322352
0.014953 0.682349 0.325214
0.202376 0.693418 0.322437
0.456134 0.709127 0.318134
0.668816 0.723577 0.300276
0.822225 0.741613 0.256474
0.924789 0.755486 0.183304
1.000000 0.765984 0.159328
0.000000 0.757088 0.380430
0.000000 0.769808 0.388878
0.000000 0.779400 0.396763
0.127563 0.789038 0.402854
0.347480 0.799373 0.406288
0.570646 0.809448 0.400161
0.756085 0.824076 0.377776
0.883902 0.837449 0.325280
0.979423 0.847230 0.289088
0.000000 0.846515 0.442326
0.000000 0.858363 0.453108
0.000000 0.867323 0.464362
0.075950 0.875072 0.474745
0.267098 0.882396 0.482373
0.479225 0.890196 0.483645
0.671390 0.900266 0.472893
0.821065 0.911209 0.444291
0.935924 0.921556 0.408920
0.000000 0.929808 0.500796
0.000000 0.940522 0.512978
0.000000 0.948487 0.525769
0.036387 0.954784 0.537785
0.207957 0.960389 0.547159
0.402499 0.966403 0.551110
0.589624 0.973901 0.545648
0.749194 0.982890 0.527485
0.879712 0.992785 0.498801
0.073048 0.036155 0.153596
0.266369 0.061955 0.149190
0.471669 0.098499 0.148248
0.636568 0.157593 0.159128
0.757664 0.206221 0.136291
0.845611 0.241701 0.098213
0.921380 0.283982 0.077685
0.995737 0.324779 0.060862
1.000000 0.361085 0.044211
0.008099 0.169062 0.189154
0.175662 0.184185 0.180783
0.402020 0.204078 0.177953
0.605071 0.255382 0.198682
0.745357 0.280714 0.162159
0.835848 0.305904 0.112728
0.909300 0.352202 0.095067
0.981304 0.395626 0.081143
1.000000 0.433852 0.067748
0.000000 0.306532 0.228172
0.080059 0.314559 0.215291
0.290242 0.331704 0.213580
0.525072 0.359976 0.211734
0.706188 0.382942 0.190059
0.818663 0.404853 0.151399
0.896597 0.439039 0.125681
0.968339 0.475799 0.107036
1.000000 0.511497 0.095538
0.000000 0.444172 0.276258
0.018225 0.452635 0.265978
0.172489 0.462265 0.261003
0.423528 0.481874 0.251523
0.644959 0.504907 0.237771
0.786921 0.525229 0.213087
0.878101 0.545881 0.176994
0.953801 0.569634 0.147236
1.000000 0.597199 0.135218
0.000000 0.567663 0.330431
0.000000 0.577447 0.325601
0.063533 0.583893 0.322957
0.298179 0.595613 0.312742
0.560693 0.615999 0.303666
0.742283 0.636414 0.286884
0.855905 0.654708 0.250477
0.938863 0.669886 0.207822
1.000000 0.687240 0.195470
0.000000 0.676197 0.392854
0.000000 0.686563 0.393821
0.000000 0.692393 0.394065
0.164235 0.702450 0.391213
0.440637 0.716390 0.387678
0.670714 0.730147 0.376112
0.824504 0.747999 0.353231
0.920970 0.762449 0.312816
0.999206 0.774101 0.294190
0.000000 0.773124 0.456325
0.000000 0.783381 0.461652
0.000000 0.790132 0.467312
0.073217 0.797866 0.472039
0.311359 0.806566 0.475611
0.562518 0.814731 0.474299
0.759575 0.827357 0.469032
0.886833 0.840574 0.451248
0.977386 0.852515 0.423078
0.000000 0.861195 0.517622
0.000000 0.870690 0.526218
0.000000 0.877133 0.535988
0.022981 0.882562 0.545690
0.225367 0.887669 0.554386
0.462026 0.893095 0.561139
0.672391 0.901255 0.564726
0.827493 0.912140 0.557327
0.939724 0.924024 0.531372
0.000000 0.942912 0.575275
0.000000 0.951357 0.585904
0.000000 0.956910 0.597811
0.000000 0.960798 0.609930
0.168876 0.964018 0.621253
0.381639 0.967764 0.630636
0.585599 0.973648 0.635336
0.753673 0.982349 0.629278
0.885387 0.993111 0.608072
0.144624 0.061767 0.307555
0.314804 0.089053 0.304476
0.494777 0.127938 0.302174
0.648911 0.182678 0.305359
0.766377 0.238881 0.299826
0.849237 0.285339 0.281209
0.919311 0.329170 0.262323
0.990245 0.365553 0.237241
1.000000 0.397218 0.210542
0.081823 0.194566 0.337862
0.237795 0.208949 0.330469
0.437775 0.229744 0.325685
0.621351 0.263918 0.324936
0.755994 0.300431 0.311463
0.840844 0.338476 0.291324
0.907241 0.385221 0.277998
0.974574 0.427094 0.256657
1.000000 0.463597 0.233973
0.006165 0.331223 0.363612
0.127120 0.340236 0.355545
0.341607 0.353318 0.352530
0.563237 0.373122 0.345161
0.728771 0.394156 0.328305
0.829105 0.418061 0.306720
0.898788 0.452558 0.289612
0.962794 0.495328 0.275148
1.000000 0.533516 0.258661
0.000000 0.463998 0.393730
0.030541 0.471919 0.385984
0.206784 0.478442 0.379642
0.459766 0.494220 0.369720
0.668321 0.510828 0.356531
0.799621 0.529158 0.341406
0.883970 0.554077 0.326085
0.951051 0.582735 0.308840
1.000000 0.612454 0.293624
0.000000 0.583949 0.431282
0.000000 0.592041 0.425423
0.082502 0.596631 0.420859
0.317181 0.607004 0.411913
0.574874 0.622377 0.402096
0.752373 0.640276 0.391248
0.861891 0.660168 0.378326
0.937342 0.678130 0.360836
1.000000 0.697535 0.348904
0.000000 0.690857 0.479516
0.000000 0.699690 0.477703
0.000000 0.703750 0.476818
0.154350 0.710514 0.471041
0.437183 0.720916 0.463725
0.677416 0.734277 0.456724
0.829831 0.751831 0.453172
0.919420 0.767127 0.448304
0.990047 0.781014 0.438373
0.000000 0.786571 0.535808
0.000000 0.794609 0.538329
0.000000 0.798807 0.541564
0.030864 0.803518 0.542350
0.283556 0.810333 0.541536
0.562596 0.817571 0.540560
0.768149 0.828732 0.549149
0.890108 0.843022 0.561082
0.972973 0.856692 0.548795
0.000000 0.873236 0.592861
0.000000 0.880295 0.598716
0.000000 0.884211 0.605799
0.000000 0.887260 0.612539
0.186590 0.890347 0.618639
0.449630 0.893792 0.626412
0.677468 0.900185 0.640291
0.835128 0.911275 0.651880
0.942564 0.924729 0.639597
0.000000 0.953491 0.647387
0.000000 0.959590 0.655563
0.000000 0.962748 0.665156
0.000000 0.964328 0.675269
0.131934 0.965334 0.685695
0.364245 0.966910 0.697272
0.585256 0.971111 0.709468
0.760456 0.979530 0.714898
0.891665 0.991368 0.703152
0.211368 0.075587 0.458081
0.376258 0.111002 0.458962
0.533050 0.158404 0.459111
0.674769 0.215424 0.461391
0.785283 0.274953 0.459683
0.861342 0.331426 0.451970
0.923230 0.375478 0.435032
0.989643 0.406329 0.404870
1.000000 0.433514 0.371269
0.159078 0.211060 0.487186
0.317699 0.231167 0.481930
0.482023 0.257678 0.476771
0.646853 0.291924 0.474644
0.773411 0.330712 0.467616
0.851292 0.376000 0.459435
0.911064 0.425547 0.452613
0.972842 0.463221 0.426518
1.000000 0.495926 0.396285
0.078393 0.352779 0.503876
0.207400 0.361791 0.499133
0.396048 0.375184 0.495947
0.597898 0.395725 0.493160
0.746666 0.416764 0.480913
0.839339 0.444536 0.468423
0.903353 0.482807 0.459528
0.961234 0.524170 0.443348
1.000000 0.559872 0.419699
0.000000 0.485273 0.523896
0.076133 0.493251 0.521380
0.264513 0.501695 0.518711
0.510332 0.516748 0.515240
0.693575 0.527781 0.501242
0.815332 0.546136 0.488429
0.892525 0.571566 0.480747
0.951668 0.600483 0.465892
1.000000 0.630954 0.448264
0.000000 0.602844 0.548494
0.002962 0.610734 0.547688
0.120394 0.615854 0.544063
0.371536 0.627128 0.540038
0.612129 0.637259 0.526410
0.773856 0.651294 0.515677
0.873601 0.668167 0.511842
0.939136 0.685729 0.500369
0.998421 0.708544 0.491981
0.000000 0.705744 0.579465
0.000000 0.711605 0.577336
0.013070 0.715869 0.577268
0.177811 0.722857 0.573941
0.465919 0.730289 0.564137
0.700003 0.741708 0.560603
0.841835 0.756963 0.563559
0.920175 0.771733 0.565330
0.983129 0.787341 0.561752
0.000000 0.799241 0.623031
0.000000 0.804614 0.623981
0.000000 0.807131 0.625947
0.007193 0.810421 0.625883
0.276995 0.816136 0.624121
0.575188 0.822115 0.623868
0.783114 0.832206 0.636077
0.895343 0.846191 0.651357
0.969843 0.860139 0.649370
0.000000 0.883880 0.670877
0.000000 0.888565 0.674466
0.000000 0.890406 0.679047
0.000000 0.891720 0.683198
0.161154 0.893490 0.686896
0.449167 0.895368 0.693827
0.691368 0.899882 0.710128
0.847373 0.910354 0.728572
0.946801 0.925041 0.726434
0.000000 0.962415 0.719037
0.000000 0.966311 0.724600
0.000000 0.967395 0.731417
0.000000 0.967093 0.738734
0.105796 0.966309 0.746790
0.357475 0.965972 0.757553
0.593393 0.968433 0.772005
0.772277 0.976335 0.783544
0.900297 0.989083 0.779649
0.285275 0.089256 0.591729
0.442735 0.129606 0.596520
0.580774 0.183452 0.599497
0.704025 0.244816 0.602307
0.801157 0.306652 0.599526
0.872309 0.364587 0.591492
0.931845 0.408064 0.575277
0.995071 0.440376 0.549012
1.000000 0.466755 0.515713
0.239604 0.218072 0.617682
0.403079 0.248841 0.617660
0.538909 0.284963 0.614843
0.676367 0.326847 0.613446
0.787163 0.367227 0.606860
0.862757 0.410571 0.598707
0.919121 0.456990 0.590505
0.976864 0.496727 0.571533
1.000000 0.527891 0.541603
0.168378 0.377168 0.634419
0.313813 0.388294 0.632022
0.465197 0.404441 0.628635
0.626680 0.425948 0.624124
0.759421 0.448597 0.616807
0.850773 0.477721 0.610437
0.911645 0.517491 0.605970
0.964191 0.556544 0.591027
1.000000 0.588881 0.564572
0.063676 0.510334 0.647256
0.171818 0.514990 0.645802
0.343248 0.524219 0.645060
0.551198 0.538056 0.642739
0.719462 0.553051 0.635460
0.830715 0.571871 0.625974
0.900763 0.597541 0.622313
0.953771 0.625898 0.609313
1.000000 0.654355 0.588510
0.000000 0.623383 0.663162
0.045281 0.627536 0.662742
0.186313 0.634758 0.663203
0.431129 0.647329 0.662571
0.657725 0.659651 0.655240
0.797635 0.669026 0.642516
0.885017 0.683789 0.640139
0.941343 0.702081 0.632119
0.995401 0.724684 0.620423
0.000000 0.723872 0.684288
0.000000 0.727956 0.684644
0.029333 0.731957 0.684545
0.226236 0.738847 0.681352
0.519014 0.746047 0.672858
0.735283 0.755364 0.671709
0.858331 0.767163 0.672830
0.923761 0.780647 0.671988
0.980753 0.796619 0.667728
0.000000 0.813247 0.714106
0.000000 0.816426 0.714588
0.000000 0.818209 0.715391
0.018630 0.820853 0.714154
0.304465 0.826618 0.713350
0.611913 0.831108 0.712542
0.807974 0.838955 0.719825
0.903571 0.851528 0.730362
0.969966 0.865334 0.731307
0.000000 0.894241 0.749798
0.000000 0.897063 0.751669
0.000000 0.897786 0.754266
0.000000 0.898388 0.756453
0.165444 0.899370 0.758217
0.471985 0.899815 0.762196
0.718336 0.902383 0.773796
0.863102 0.912198 0.789793
0.953140 0.926962 0.792456
0.000000 0.970549 0.789821
0.000000 0.972653 0.792908
0.000000 0.972257 0.797053
0.000000 0.970636 0.801465
0.100091 0.968359 0.806325
0.368328 0.966291 0.813813
0.613203 0.967300 0.825829
0.789935 0.974685 0.837752
0.912167 0.987799 0.838497
0.366435 0.120921 0.706998
0.509728 0.159392 0.712706
0.628857 0.210906 0.715541
0.731622 0.269436 0.716819
0.815568 0.331798 0.714943
0.882342 0.392974 0.709410
0.943134 0.437569 0.695131
1.000000 0.470612 0.672013
1.000000 0.496876 0.641372
0.328610 0.244425 0.728884
0.481968 0.275873 0.730526
0.593560 0.312103 0.727919
0.702963 0.354789 0.725819
0.796234 0.400974 0.723099
0.869265 0.451373 0.720441
0.927765 0.493921 0.711746
0.985929 0.529949 0.693884
1.000000 0.558987 0.666204
0.258135 0.409214 0.742576
0.423694 0.421136 0.740690
0.539975 0.438594 0.737947
0.662033 0.461441 0.734333
0.772818 0.486944 0.730915
0.858472 0.518409 0.729401
0.918996 0.553268 0.725073
0.970885 0.589066 0.711020
1.000000 0.619260 0.686950
0.161326 0.540532 0.750766
0.309850 0.546237 0.749821
0.452572 0.555465 0.749943
0.608496 0.569169 0.748602
0.746121 0.585147 0.745706
0.843772 0.604337 0.741419
0.908316 0.627487 0.735736
0.957316 0.654915 0.725014
1.000000 0.681849 0.706435
0.045246 0.645346 0.763218
0.156435 0.649384 0.762793
0.308927 0.657164 0.764037
0.510281 0.668059 0.762920
0.697944 0.682520 0.761741
0.819637 0.695319 0.755843
0.893186 0.708893 0.748296
0.942580 0.726757 0.741523
0.996005 0.747098 0.729232
0.000000 0.741715 0.777766
0.028481 0.745892 0.777605
0.106183 0.748800 0.776626
0.316372 0.757009 0.778082
0.580368 0.766941 0.776076
0.771580 0.776134 0.772119
0.870400 0.782608 0.763920
0.926781 0.795098 0.761643
0.982932 0.811689 0.759422
0.000000 0.826820 0.797988
0.000000 0.829287 0.797412
0.000000 0.831682 0.798140
0.085335 0.836103 0.799172
0.375722 0.840732 0.796965
0.666203 0.841310 0.791102
0.835105 0.847524 0.792533
0.913976 0.860276 0.799480
0.975725 0.874114 0.801845
0.000000 0.904406 0.824426
0.000000 0.906240 0.824733
0.000000 0.906898 0.826270
0.000000 0.907515 0.827100
0.204855 0.906967 0.825625
0.518183 0.904513 0.824702
0.754324 0.907204 0.832324
0.882330 0.917572 0.844101
0.963839 0.931140 0.846820
0.000000 0.978506 0.857918
0.000000 0.979321 0.858541
0.000000 0.977954 0.860270
0.000000 0.975249 0.861695
0.117347 0.971289 0.862419
0.397178 0.967472 0.865186
0.643666 0.967854 0.873123
0.813419 0.975125 0.882724
0.928543 0.988214 0.885388
0.445661 0.172404 0.807737
0.575805 0.208520 0.813014
0.680052 0.254631 0.815399
0.766532 0.307214 0.815765
0.839854 0.364955 0.814344
0.903066 0.422011 0.809987
0.962922 0.466869 0.798350
1.000000 0.499452 0.777805
1.000000 0.524717 0.750120
0.425929 0.298605 0.824821
0.560978 0.328053 0.826969
0.658312 0.362432 0.826422
0.743378 0.400032 0.824759
0.819508 0.444548 0.822644
0.885404 0.494583 0.821749
0.943527 0.534776 0.815044
1.000000 0.564880 0.797619
1.000000 0.589673 0.772290
0.383018 0.449383 0.834516
0.526915 0.468215 0.834068
0.624222 0.489498 0.833317
0.715955 0.510982 0.832091
0.801195 0.537132 0.829070
0.872919 0.570121 0.828675
0.929395 0.600160 0.824367
0.982483 0.627531 0.810753
1.000000 0.651456 0.789242
0.275789 0.577121 0.840986
0.443983 0.587453 0.839544
0.565977 0.598854 0.839266
0.680451 0.613718 0.839488
0.782051 0.629527 0.837283
0.859619 0.649403 0.834010
0.914798 0.670041 0.827992
0.963518 0.692089 0.819037
1.000000 0.712867 0.803188
0.136233 0.672099 0.847974
0.304278 0.682102 0.848282
0.458241 0.690845 0.849509
0.610283 0.701458 0.848336
0.748698 0.715425 0.846397
0.842486 0.728736 0.840533
0.899229 0.742113 0.833279
0.945102 0.757847 0.827536
1.000000 0.774028 0.817874
0.022408 0.760434 0.856196
0.132249 0.767513 0.855741
0.255020 0.772203 0.857051
0.443291 0.779043 0.857325
0.659304 0.788344 0.853866
0.810664 0.797491 0.848051
0.883782 0.807210 0.841221
0.931500 0.818903 0.838738
0.991232 0.832625 0.836989
0.000000 0.840615 0.869754
0.000000 0.843723 0.868441
0.023188 0.846561 0.870073
0.177842 0.850136 0.870130
0.466806 0.851839 0.860580
0.727613 0.854244 0.854977
0.861957 0.862947 0.858457
0.927162 0.875128 0.862398
0.988498 0.887470 0.863727
0.000000 0.914999 0.892414
0.000000 0.916320 0.890646
0.000000 0.916699 0.891390
0.000000 0.916197 0.890130
0.259138 0.912945 0.882502
0.573079 0.909370 0.876914
0.793654 0.913600 0.882276
0.906593 0.924648 0.890590
0.981772 0.937861 0.893794
0.000000 0.986966 0.922886
0.000000 0.986826 0.920724
0.000000 0.984534 0.920022
0.000000 0.980507 0.918270
0.152445 0.974821 0.914230
0.436833 0.969906 0.911625
0.679885 0.970220 0.914702
0.841558 0.977474 0.921112
0.949882 0.990712 0.925061
0.508958 0.229990 0.898528
0.631722 0.265403 0.903008
0.729606 0.307370 0.905047
0.808618 0.354259 0.905008
0.875488 0.404477 0.902967
0.935251 0.453455 0.897954
0.993238 0.494466 0.887304
1.000000 0.525719 0.869332
1.000000 0.549851 0.845057
0.491965 0.354743 0.912149
0.621305 0.384689 0.914345
0.717577 0.417573 0.914629
0.794185 0.453334 0.913530
0.859680 0.493088 0.911378
0.917616 0.534334 0.908226
0.972127 0.569541 0.900643
1.000000 0.596471 0.885433
1.000000 0.617899 0.863599
0.449281 0.488646 0.919680
0.591566 0.512158 0.919786
0.694564 0.534875 0.919139
0.776215 0.558847 0.917735
0.845306 0.585751 0.915146
0.903307 0.615406 0.912130
0.953849 0.642006 0.906218
1.000000 0.663618 0.894298
1.000000 0.681926 0.876300
0.354948 0.607158 0.923662
0.520180 0.624613 0.922571
0.647503 0.639516 0.921531
0.747932 0.656086 0.919995
0.828807 0.674216 0.916783
0.889422 0.693832 0.911937
0.935799 0.712405 0.905702
0.983747 0.728353 0.897505
1.000000 0.743057 0.884923
0.221119 0.702688 0.925944
0.402189 0.715939 0.925103
0.553624 0.725618 0.924751
0.687216 0.737386 0.922733
0.798460 0.751443 0.917774
0.872884 0.764361 0.910846
0.919279 0.777281 0.904358
0.963327 0.789260 0.899127
1.000000 0.801175 0.892787
0.093001 0.784712 0.929530
0.233220 0.792315 0.926771
0.370774 0.797072 0.927245
0.540304 0.803849 0.925814
0.718968 0.811691 0.918367
0.842908 0.821010 0.910671
0.905458 0.833710 0.905874
0.950111 0.845515 0.904720
1.000000 0.855225 0.903432
0.000000 0.856968 0.937220
0.045002 0.860133 0.933535
0.122574 0.861756 0.933833
0.282424 0.864541 0.933182
0.537167 0.864589 0.922308
0.766611 0.869226 0.912602
0.884908 0.880471 0.909848
0.944620 0.893609 0.915531
1.000000 0.903400 0.918298
0.000000 0.927119 0.958111
0.000000 0.927981 0.953319
0.000000 0.927291 0.952016
0.066992 0.925174 0.948988
0.320441 0.920619 0.938888
0.615744 0.919067 0.928979
0.822413 0.924153 0.926140
0.930373 0.934429 0.931544
1.000000 0.947132 0.937047
0.000000 0.996693 0.987410
0.000000 0.995988 0.982136
0.000000 0.992864 0.978659
0.000000 0.987803 0.974062
0.207115 0.981556 0.966595
0.478523 0.977006 0.959289
0.710149 0.977435 0.956562
0.866167 0.983799 0.958920
0.972148 0.996596 0.963634
0.552745 0.282039 0.982770
0.671649 0.317202 0.986104
0.768858 0.356254 0.987376
0.847491 0.398316 0.986608
0.913426 0.441771 0.983609
0.972348 0.483460 0.977595
1.000000 0.519619 0.967111
1.000000 0.548688 0.951154
1.000000 0.571732 0.930147
0.530667 0.400224 0.993874
0.657080 0.431080 0.995378
0.757118 0.463302 0.995284
0.835578 0.497247 0.993738
0.899729 0.532692 0.990711
0.955494 0.567456 0.985714
1.000000 0.597851 0.977160
1.000000 0.622247 0.963573
1.000000 0.641804 0.945097
0.484660 0.520168 0.999568
0.622915 0.546303 0.999203
0.732642 0.571077 0.997893
0.817502 0.596314 0.995579
0.884629 0.622668 0.992055
0.939566 0.648967 0.987168
0.989001 0.672331 0.979950
1.000000 0.691392 0.969094
1.000000 0.707243 0.954208
0.402545 0.629696 1.000000
0.555023 0.650767 0.999689
0.682805 0.668861 0.997505
0.784050 0.686984 0.994409
0.862771 0.705873 0.989851
0.921963 0.724628 0.984053
0.969699 0.741529 0.977350
1.000000 0.755678 0.969379
1.000000 0.768143 0.959063
0.288647 0.723017 1.000000
0.445142 0.738678 0.998800
0.588404 0.750867 0.996236
0.715029 0.763287 0.992458
0.820684 0.776650 0.986422
0.897032 0.790037 0.979363
0.949953 0.802819 0.972965
0.999046 0.814005 0.967816
1.000000 0.824195 0.962415
0.159973 0.802329 1.000000
0.291376 0.812131 0.998515
0.428264 0.818799 0.995793
0.579280 0.825795 0.991881
0.732334 0.833737 0.984412
0.851821 0.843419 0.976091
0.926890 0.854876 0.970214
0.982682 0.865564 0.968039
1.000000 0.874823 0.967132
0.032397 0.872726 1.000000
0.118007 0.877522 1.000000
0.222936 0.879864 1.000000
0.375382 0.881864 0.996726
0.576892 0.883987 0.987894
0.765479 0.889488 0.977811
0.890221 0.898990 0.971766
0.967552 0.909601 0.972112
1.000000 0.919540 0.974963
0.000000 0.940389 1.000000
0.000000 0.942000 1.000000
0.049709 0.941183 1.000000
0.186822 0.938930 1.000000
0.402097 0.936343 1.000000
0.639370 0.936731 0.990102
0.822619 0.941616 0.983383
0.939253 0.949957 0.983461
1.000000 0.961362 0.988018
0.000000 1.000000 1.000000
0.000000 1.000000 1.000000
0.000000 1.000000 1.000000
0.078661 0.999739 1.000000
0.282457 0.994655 1.000000
0.518138 0.991595 1.000000
0.725337 0.992504 1.000000
0.877418 0.997955 1.000000
1.000000 1.000000 1.000000
