app/src/main/assets/luts/JC-Negative_V4.cube
TITLE "JC Negative"
#Lut generated by JC from Ricoh GR3X HDF
LUT_3D_SIZE 5
DOMAIN_MIN 0.0 0.0 0.0
DOMAIN_MAX 1.0 1.0 1.0
0.000000 0.000000 0.000000
0.441729 0.073024 0.000000
0.741436 0.164348 0.000000
0.922609 0.247732 0.000000
1.000000 0.328285 0.000000
0.000000 0.287410 0.115054
0.273545 0.319397 0.100779
0.680422 0.377393 0.074332
0.897128 0.427168 0.000000
1.000000 0.492739 0.000000
0.000000 0.551569 0.252265
0.073905 0.573718 0.249510
0.552201 0.611585 0.225985
0.855447 0.646255 0.137171
1.000000 0.676664 0.059583
0.000000 0.757088 0.380430
0.000000 0.779400 0.396763
0.347480 0.799373 0.406288
0.756085 0.824076 0.377776
0.979423 0.847230 0.289088
0.000000 0.929808 0.500796
0.000000 0.948487 0.525769
0.207957 0.960389 0.547159
0.589624 0.973901 0.545648
0.879712 0.992785 0.498801
0.144624 0.061767 0.307555
0.494777 0.127938 0.302174
0.766377 0.238881 0.299826
0.919311 0.329170 0.262323
1.000000 0.397218 0.210542
0.006165 0.331223 0.363612
0.341607 0.353318 0.352530
0.728771 0.394156 0.328305
0.898788 0.452558 0.289612
1.000000 0.533516 0.258661
0.000000 0.583949 0.431282
0.082502 0.596631 0.420859
0.574874 0.622377 0.402096
0.861891 0.660168 0.378326
1.000000 0.697535 0.348904
0.000000 0.786571 0.535808
0.000000 0.798807 0.541564
0.283556 0.810333 0.541536
0.768149 0.828732 0.549149
0.972973 0.856692 0.548795
0.000000 0.953491 0.647387
0.000000 0.962748 0.665156
0.131934 0.965334 0.685695
0.585256 0.971111 0.709468
0.891665 0.991368 0.703152
0.285275 0.089256 0.591729
0.580774 0.183452 0.599497
0.801157 0.306652 0.599526
0.931845 0.408064 0.575277
1.000000 0.466755 0.515713
0.168378 0.377168 0.634419
0.465197 0.404441 0.628635
0.759421 0.448597 0.616807
0.911645 0.517491 0.605970
1.000000 0.588881 0.564572
0.000000 0.623383 0.663162
0.186313 0.634758 0.663203
0.657725 0.659651 0.655240
0.885017 0.683789 0.640139
0.995401 0.724684 0.620423
0.000000 0.813247 0.714106
0.000000 0.818209 0.715391
0.304465 0.826618 0.713350
0.807974 0.838955 0.719825
0.969966 0.865334 0.731307
0.000000 0.970549 0.789821
0.000000 0.972257 0.797053
0.100091 0.968359 0.806325
0.613203 0.967300 0.825829
0.912167 0.987799 0.838497
0.445661 0.172404 0.807737
0.680052 0.254631 0.815399
0.839854 0.364955 0.814344
0.962922 0.466869 0.798350
1.000000 0.524717 0.750120
0.383018 0.449383 0.834516
0.624222 0.489498 0.833317
0.801195 0.537132 0.829070
0.929395 0.600160 0.824367
1.000000 0.651456 0.789242
0.136233 0.672099 0.847974
0.458241 0.690845 0.849509
0.748698 0.715425 0.846397
0.899229 0.742113 0.833279
1.000000 0.774028 0.817874
0.000000 0.840615 0.869754
0.023188 0.846561 0.870073
0.466806 0.851839 0.860580
0.861957 0.862947 0.858457
0.988498 0.887470 0.863727
0.000000 0.986966 0.922886
0.000000 0.984534 0.920022
0.152445 0.974821 0.914230
0.679885 0.970220 0.914702
0.949882 0.990712 0.925061
0.552745 0.282039 0.982770
0.768858 0.356254 0.987376
0.913426 0.441771 0.983609
1.000000 0.519619 0.967111
1.000000 0.571732 0.930147
0.484660 0.520168 0.999568
0.732642 0.571077 0.997893
0.884629 0.622668 0.992055
0.989001 0.672331 0.979950
1.000000 0.707243 0.954208
0.288647 0.723017 1.000000
0.588404 0.750867 0.996236
0.820684 0.776650 0.986422
0.949953 0.802819 0.972965
1.000000 0.824195 0.962415
0.032397 0.872726 1.000000
0.222936 0.879864 1.000000
0.576892 0.883987 0.987894
0.890221 0.898990 0.971766
1.000000 0.919540 0.974963
0.000000 1.000000 1.000000
0.000000 1.000000 1.000000
0.282457 0.994655 1.000000
0.725337 0.992504 1.000000
1.000000 1.000000 1.000000
