app/src/main/assets/luts/JC-Positive_V4.cube
TITLE "JC Positive"
#Lut generated by JC from Ricoh GR3X HDF
LUT_3D_SIZE 9
DOMAIN_MIN 0.0 0.0 0.0
DOMAIN_MAX 1.0 1.0 1.0
0.000000 0.000000 0.000000
0.182382 0.016710 0.000000
0.356284 0.018628 0.000000
0.503128 0.022485 0.000000
0.617488 0.019482 0.000000
0.710578 0.004900 0.000000
0.797973 0.000000 0.000000
0.885790 0.000000 0.000000
0.975721 0.000000 0.000000
0.032747 0.183270 0.071659
0.177544 0.185287 0.047761
0.343922 0.173496 0.019727
0.492295 0.163289 0.000000
0.609320 0.145148 0.000000
0.702581 0.117628 0.000000
0.788133 0.104484 0.000000
0.875100 0.103467 0.000000
0.964836 0.106617 0.000000
0.066727 0.345013 0.135659
0.184579 0.348393 0.112482
0.328104 0.343545 0.084047
0.473770 0.339022 0.054539
0.594206 0.325144 0.017974
0.689416 0.292528 0.000000
0.776223 0.266493 0.000000
0.863741 0.253010 0.000000
0.953776 0.247395 0.000000
0.110268 0.491909 0.209284
0.206893 0.496765 0.191024
0.330279 0.495654 0.162109
0.464801 0.497022 0.129840
0.581830 0.495617 0.094098
0.678105 0.478787 0.036238
0.765595 0.452011 0.000000
0.853465 0.423931 0.000000
0.943918 0.404139 0.000000
0.141802 0.614261 0.281404
0.230842 0.616103 0.271183
0.346009 0.616438 0.251601
0.469288 0.617622 0.220927
0.579723 0.621605 0.185322
0.672827 0.619720 0.133116
0.759034 0.607497 0.044554
0.846350 0.583152 0.000000
0.936567 0.557721 0.000000
0.159414 0.722558 0.350786
0.253404 0.720960 0.345627
0.361469 0.719531 0.335052
0.475981 0.718843 0.314854
0.580298 0.719914 0.286504
0.669090 0.719652 0.245270
0.756321 0.720637 0.174019
0.843002 0.711667 0.058040
0.931638 0.693240 0.000000
0.169187 0.828025 0.419196
0.264446 0.823916 0.417433
0.367800 0.820324 0.412350
0.474385 0.817825 0.401952
0.573861 0.815922 0.385118
0.663689 0.814958 0.355909
0.752849 0.817738 0.301732
0.839515 0.817948 0.203138
0.928400 0.811337 0.126010
0.172317 0.934587 0.485234
0.266305 0.928868 0.485600
0.365549 0.923639 0.483987
0.466862 0.919626 0.478548
0.564747 0.916992 0.467067
0.657479 0.916608 0.444570
0.747709 0.919271 0.401874
0.836700 0.922462 0.333542
0.927311 0.923118 0.260687
0.170773 1.000000 0.548212
0.262982 1.000000 0.549384
0.359206 1.000000 0.549055
0.457559 1.000000 0.545326
0.554966 1.000000 0.535709
0.649752 1.000000 0.516193
0.742352 1.000000 0.481465
0.834092 1.000000 0.429596
0.926899 1.000000 0.367942
0.021088 0.000000 0.134110
0.176929 0.000000 0.115353
0.353088 0.000000 0.090324
0.504492 0.004220 0.072479
0.620474 0.005358 0.045970
0.712254 0.000000 0.008940
0.799526 0.000000 0.000000
0.887569 0.000000 0.000000
0.977865 0.000000 0.000000
0.023079 0.164771 0.184743
0.160290 0.165716 0.163533
0.332448 0.147719 0.127306
0.492403 0.130796 0.094990
0.613293 0.105093 0.053140
0.704583 0.071828 0.013952
0.789278 0.062727 0.000000
0.876157 0.065355 0.000000
0.966186 0.073098 0.000000
0.043682 0.334676 0.233760
0.156575 0.338015 0.210059
0.310246 0.330631 0.180687
0.470870 0.317723 0.143989
0.598711 0.293601 0.101214
0.693352 0.254419 0.052553
0.778303 0.225436 0.000000
0.864802 0.212643 0.000000
0.954659 0.212603 0.000000
0.078543 0.488029 0.289897
0.171612 0.494070 0.269731
0.308463 0.493259 0.244888
0.458219 0.491954 0.210562
0.583987 0.485610 0.173594
0.681132 0.466271 0.125142
0.767158 0.434277 0.054528
0.854168 0.397345 0.000000
0.944442 0.377009 0.000000
0.112607 0.611505 0.351437
0.198481 0.614229 0.338083
0.325233 0.615931 0.320835
0.462176 0.617283 0.290922
0.579694 0.620540 0.258875
0.673713 0.618932 0.215695
0.759509 0.604439 0.142569
0.846775 0.571861 0.057156
0.936986 0.540994 0.009036
0.133481 0.716703 0.418681
0.226215 0.714716 0.411428
0.342470 0.715078 0.399027
0.468086 0.716539 0.378409
0.578258 0.718526 0.354826
0.669259 0.719230 0.321651
0.756744 0.718633 0.265753
0.843930 0.706520 0.176496
0.931792 0.683036 0.112675
0.144709 0.820058 0.486230
0.239010 0.815455 0.483210
0.347324 0.812777 0.477076
0.462207 0.811684 0.466209
0.568548 0.810736 0.452217
0.661977 0.810151 0.430122
0.751385 0.812021 0.391439
0.838397 0.810774 0.324190
0.927545 0.802457 0.251575
0.148382 0.925535 0.551616
0.241100 0.919152 0.551006
0.343371 0.914025 0.548964
0.450914 0.910506 0.543979
0.555318 0.908187 0.535400
0.652456 0.907615 0.520364
0.744610 0.909931 0.492812
0.834390 0.913150 0.444458
0.925628 0.913871 0.378554
0.147046 1.000000 0.614412
0.237810 1.000000 0.614870
0.335908 1.000000 0.614558
0.438950 1.000000 0.611986
0.542038 1.000000 0.605735
0.641599 1.000000 0.593258
0.737280 1.000000 0.569824
0.830748 1.000000 0.530061
0.924671 1.000000 0.475087
0.031527 0.000000 0.260431
0.171850 0.000000 0.249536
0.342315 0.000000 0.228789
0.500846 0.000000 0.204850
0.622913 0.000000 0.176621
0.716690 0.000000 0.144877
0.803323 0.000000 0.113410
0.891155 0.000000 0.072855
0.981855 0.000000 0.030043
0.026198 0.130211 0.307859
0.153414 0.130770 0.292347
0.324325 0.118060 0.263575
0.491698 0.098232 0.227395
0.619062 0.076452 0.186657
0.710760 0.052347 0.148877
0.793749 0.036072 0.115780
0.879738 0.033929 0.077079
0.970091 0.043375 0.039435
0.028655 0.312722 0.351119
0.139453 0.316603 0.333632
0.301986 0.308325 0.308144
0.473705 0.286784 0.271704
0.608621 0.253967 0.227861
0.702809 0.213614 0.179322
0.784630 0.174689 0.128581
0.869067 0.170181 0.091083
0.958835 0.178272 0.057039
0.044510 0.476403 0.393620
0.140544 0.483767 0.378205
0.289544 0.483982 0.355681
0.457664 0.480648 0.324822
0.591193 0.463561 0.286881
0.689975 0.435975 0.241752
0.774603 0.397236 0.188114
0.859667 0.363259 0.135439
0.949170 0.346522 0.093839
0.071793 0.604641 0.439915
0.161675 0.608391 0.428371
0.295936 0.610338 0.411181
0.452156 0.613197 0.384306
0.579862 0.612822 0.353682
0.678280 0.606973 0.316493
0.766148 0.587645 0.267278
0.853104 0.551955 0.206809
0.941881 0.519352 0.157232
0.097068 0.709791 0.494003
0.189166 0.708255 0.486755
0.312195 0.709814 0.474516
0.452431 0.711801 0.452166
0.573477 0.713890 0.428158
0.671239 0.715241 0.399942
0.760780 0.712430 0.362644
0.847896 0.695390 0.309806
0.935715 0.669181 0.254843
0.111253 0.812195 0.554770
0.202751 0.807334 0.550526
0.315891 0.805637 0.542941
0.441874 0.805495 0.528732
0.560499 0.806084 0.511790
0.661788 0.805950 0.490899
0.753381 0.806618 0.467924
0.841025 0.804066 0.433882
0.929960 0.793499 0.377138
0.116740 0.917371 0.616516
0.206299 0.910672 0.613960
0.311640 0.905978 0.609902
0.427919 0.903301 0.602417
0.542966 0.901732 0.592143
0.648101 0.901142 0.579943
0.744150 0.903030 0.565818
0.835379 0.906263 0.539529
0.926874 0.906347 0.488207
0.116533 1.000000 0.677720
0.204235 1.000000 0.676235
0.304100 1.000000 0.674172
0.413656 1.000000 0.670195
0.525509 1.000000 0.664063
0.632845 1.000000 0.655679
0.733591 1.000000 0.642467
0.829635 1.000000 0.616701
0.924828 1.000000 0.572548
0.034378 0.000000 0.384752
0.163381 0.000000 0.384116
0.328834 0.000000 0.373629
0.496645 0.000000 0.354416
0.628623 0.000000 0.330874
0.724793 0.000000 0.305302
0.809586 0.000000 0.271156
0.897106 0.000000 0.224525
0.988101 0.000000 0.176461
0.024482 0.069424 0.433475
0.140367 0.073436 0.426973
0.308642 0.072843 0.407559
0.489388 0.059330 0.379287
0.626708 0.042480 0.346117
0.719383 0.030535 0.314335
0.799759 0.017877 0.282517
0.886204 0.012555 0.238092
0.977024 0.019275 0.193005
0.018822 0.267370 0.473506
0.117418 0.267566 0.462665
0.284147 0.263025 0.442788
0.471538 0.244096 0.416734
0.613796 0.210542 0.379640
0.711151 0.175959 0.338756
0.791288 0.146717 0.299323
0.876101 0.141753 0.259075
0.966432 0.149599 0.215893
0.017981 0.453700 0.506714
0.106644 0.460308 0.499030
0.267882 0.462173 0.482211
0.453889 0.458457 0.459309
0.593968 0.434660 0.425047
0.698333 0.402428 0.386327
0.783393 0.363639 0.344911
0.868202 0.330658 0.297091
0.957579 0.317357 0.251541
0.033626 0.595214 0.540631
0.118275 0.600039 0.534903
0.265944 0.602865 0.520528
0.442434 0.604706 0.499013
0.579235 0.599064 0.470462
0.684361 0.587830 0.438674
0.775748 0.563445 0.401358
0.862364 0.524154 0.351123
0.950418 0.494375 0.305592
0.056812 0.702948 0.578536
0.142791 0.701170 0.570937
0.278917 0.703889 0.560273
0.436311 0.707093 0.543329
0.570047 0.707657 0.520189
0.674461 0.706807 0.494371
0.767324 0.700709 0.465873
0.855097 0.679773 0.427421
0.942906 0.651986 0.383468
0.073333 0.805381 0.627688
0.158577 0.800232 0.621899
0.278125 0.799516 0.613712
0.418312 0.800890 0.599278
0.552057 0.802273 0.580810
0.662483 0.801470 0.560242
0.758026 0.801508 0.544415
0.846323 0.797269 0.522447
0.935038 0.783762 0.482105
0.080037 0.910530 0.682812
0.162809 0.903929 0.678099
0.270405 0.899967 0.671911
0.398036 0.898348 0.661707
0.527773 0.897337 0.648490
0.644283 0.896447 0.636380
0.746327 0.897757 0.628954
0.839073 0.900427 0.615743
0.930299 0.899656 0.579446
0.080736 1.000000 0.740823
0.162463 1.000000 0.736921
0.262875 1.000000 0.732372
0.380452 1.000000 0.725692
0.504455 1.000000 0.717461
0.623090 0.999843 0.709813
0.731221 1.000000 0.702312
0.830564 1.000000 0.687039
0.927187 1.000000 0.654466
0.036669 0.000000 0.501974
0.148121 0.000000 0.504340
0.306077 0.000000 0.498642
0.479494 0.000000 0.485383
0.621189 0.000000 0.467844
0.726810 0.000000 0.444822
0.815543 0.000000 0.409545
0.904272 0.000000 0.365158
0.995812 0.000000 0.316960
0.026725 0.000000 0.545208
0.115998 0.000000 0.542783
0.281401 0.010173 0.528096
0.473246 0.022278 0.505916
0.621125 0.022504 0.480454
0.724751 0.011963 0.454050
0.809567 0.000000 0.424815
0.895662 0.000000 0.386058
0.986379 0.000000 0.339882
0.018447 0.200487 0.580464
0.095247 0.199895 0.573976
0.255982 0.200231 0.556344
0.451031 0.190643 0.532868
0.606043 0.165345 0.506038
0.715468 0.133995 0.477995
0.801894 0.114960 0.451991
0.886327 0.113911 0.414596
0.976718 0.123476 0.367378
0.008386 0.421587 0.609057
0.080060 0.421132 0.603454
0.236707 0.418590 0.587734
0.429961 0.413686 0.566305
0.587223 0.395372 0.542417
0.701148 0.365893 0.516754
0.790610 0.332454 0.488755
0.877338 0.304953 0.449088
0.968062 0.292409 0.401456
0.009778 0.580109 0.637089
0.077869 0.581349 0.631434
0.231869 0.583654 0.618852
0.423628 0.586011 0.600742
0.576924 0.581329 0.579207
0.686254 0.563725 0.552268
0.781681 0.537148 0.523363
0.871301 0.500918 0.485953
0.960849 0.472343 0.443453
0.023877 0.694935 0.666574
0.093687 0.692044 0.659679
0.235834 0.696424 0.650336
0.414109 0.700919 0.633497
0.565814 0.700450 0.612747
0.677164 0.694666 0.589393
0.774600 0.684543 0.564100
0.864908 0.661611 0.532920
0.952854 0.633773 0.497174
0.038487 0.798923 0.704189
0.107532 0.793676 0.697608
0.227381 0.794432 0.689610
0.387260 0.797017 0.673790
0.541747 0.798245 0.654784
0.664383 0.795322 0.634273
0.765736 0.794163 0.619121
0.854153 0.787349 0.598661
0.942324 0.771696 0.569229
0.042561 0.904436 0.751712
0.111325 0.898644 0.745364
0.216538 0.895817 0.737755
0.357768 0.895101 0.725120
0.507567 0.894071 0.708801
0.640251 0.892306 0.694476
0.750509 0.892478 0.686097
0.843747 0.894057 0.675897
0.935087 0.892082 0.651414
0.042472 1.000000 0.805828
0.113628 1.000000 0.799799
0.211019 1.000000 0.793001
0.336715 0.998973 0.783375
0.476345 0.997046 0.771801
0.610779 0.996374 0.761830
0.729376 0.998261 0.754760
0.833054 1.000000 0.744653
0.931797 1.000000 0.721985
0.039067 0.000000 0.604083
0.133719 0.000000 0.605636
0.276122 0.000000 0.600977
0.445640 0.000000 0.590734
0.596959 0.000000 0.577587
0.715873 0.000000 0.558178
0.815077 0.000000 0.527378
0.908969 0.000000 0.488555
1.000000 0.000000 0.444481
0.029242 0.000000 0.636920
0.093731 0.000000 0.635781
0.237910 0.000000 0.624092
0.432560 0.000000 0.606194
0.594854 0.000000 0.588968
0.714372 0.000000 0.568538
0.811583 0.000000 0.543540
0.902983 0.000000 0.511040
0.995699 0.000000 0.470053
0.028139 0.123941 0.669690
0.074235 0.119549 0.663083
0.215416 0.124865 0.648385
0.417111 0.128001 0.627282
0.584964 0.117662 0.607197
0.707134 0.090342 0.586855
0.805085 0.063967 0.565453
0.895270 0.074663 0.537276
0.987581 0.096454 0.498245
0.015822 0.378750 0.697884
0.067126 0.370994 0.690622
0.208034 0.367347 0.677331
0.402845 0.362213 0.657478
0.572281 0.347388 0.637360
0.696628 0.320256 0.618570
0.794619 0.285967 0.596733
0.885927 0.270425 0.569228
0.979351 0.267521 0.530503
0.008915 0.553693 0.724560
0.059988 0.551887 0.717179
0.200502 0.553074 0.705850
0.391834 0.554581 0.687541
0.563833 0.551861 0.668929
0.686583 0.538512 0.650261
0.786343 0.515356 0.627966
0.879323 0.483652 0.602190
0.972161 0.453844 0.565072
0.010397 0.680546 0.751272
0.058167 0.678514 0.743895
0.183839 0.680667 0.733297
0.375509 0.685323 0.716491
0.553002 0.687328 0.697910
0.679351 0.683185 0.680351
0.780965 0.670301 0.657262
0.874151 0.645950 0.630938
0.964417 0.618359 0.601649
0.013839 0.789750 0.781782
0.054604 0.786241 0.774699
0.161204 0.787773 0.767167
0.340980 0.790311 0.750823
0.524443 0.791745 0.730083
0.665127 0.789101 0.710268
0.772017 0.785699 0.693621
0.863589 0.776134 0.674156
0.953187 0.759878 0.652314
0.010219 0.897013 0.823554
0.056519 0.893045 0.816730
0.149170 0.891521 0.809060
0.300431 0.891479 0.794752
0.475579 0.891079 0.775129
0.631913 0.889397 0.756897
0.754665 0.888538 0.745090
0.850913 0.888390 0.735969
0.943774 0.884344 0.719110
0.005929 1.000000 0.874302
0.061629 1.000000 0.867017
0.149243 0.997913 0.858946
0.278869 0.995907 0.846936
0.435978 0.994772 0.831531
0.592127 0.994383 0.817154
0.726703 0.995758 0.807236
0.837986 0.999140 0.799052
0.940477 1.000000 0.783690
0.044397 0.000000 0.699359
0.132171 0.000000 0.699460
0.259266 0.000000 0.695288
0.415901 0.000000 0.686562
0.568013 0.000000 0.674437
0.697423 0.000000 0.657093
0.807981 0.000000 0.631762
0.909280 0.000000 0.598573
1.000000 0.000000 0.559575
0.033784 0.000000 0.727994
0.098184 0.000000 0.725706
0.223017 0.000000 0.717508
0.397693 0.000000 0.703671
0.563108 0.000000 0.688496
0.695800 0.000000 0.671162
0.805621 0.000000 0.649843
0.905508 0.000000 0.621443
1.000000 0.000000 0.585742
0.031646 0.061792 0.757260
0.076175 0.063714 0.751598
0.201503 0.077567 0.741655
0.388493 0.082062 0.723508
0.559935 0.082627 0.705146
0.694590 0.068203 0.688620
0.801852 0.042759 0.669125
0.900346 0.052021 0.645184
0.996936 0.076928 0.612827
0.024174 0.325660 0.785289
0.066187 0.320345 0.777897
0.189734 0.323789 0.767858
0.377506 0.322267 0.750369
0.554368 0.310756 0.731570
0.689760 0.285628 0.713936
0.795370 0.250022 0.693834
0.893678 0.238079 0.672996
0.990570 0.245165 0.642312
0.017337 0.515574 0.809970
0.053923 0.516113 0.804196
0.167929 0.519689 0.796196
0.355224 0.523223 0.778597
0.545161 0.521812 0.759372
0.684231 0.509329 0.742451
0.789807 0.484483 0.724488
0.887710 0.454973 0.703164
0.984191 0.432795 0.672419
0.014996 0.656022 0.832556
0.037136 0.656307 0.828219
0.134961 0.658594 0.821284
0.321720 0.663597 0.805045
0.524356 0.667444 0.786043
0.676015 0.665177 0.769095
0.786098 0.653921 0.751407
0.882333 0.628258 0.727701
0.977010 0.602262 0.701620
0.008351 0.773994 0.859773
0.018332 0.772664 0.855908
0.092024 0.773914 0.851408
0.266975 0.777509 0.836127
0.480086 0.781037 0.813538
0.655104 0.781861 0.792880
0.775834 0.777742 0.775254
0.872934 0.763975 0.755549
0.967369 0.748040 0.738077
0.000000 0.885035 0.899262
0.011102 0.882938 0.893515
0.076373 0.882149 0.887662
0.216707 0.883071 0.873782
0.414398 0.884815 0.851337
0.608709 0.885508 0.828384
0.755589 0.884046 0.810683
0.861405 0.882170 0.799746
0.959374 0.877460 0.788789
0.000000 0.995779 0.947590
0.014018 0.993093 0.939956
0.084260 0.990794 0.931832
0.207063 0.989911 0.918806
0.378080 0.990434 0.900194
0.561384 0.991595 0.880619
0.719781 0.993320 0.865399
0.845174 0.996271 0.855881
0.954444 0.998617 0.845549
0.052699 0.000000 0.793108
0.141137 0.000000 0.791961
0.258871 0.000000 0.787717
0.400994 0.000000 0.779565
0.546338 0.000000 0.767629
0.679231 0.000000 0.751172
0.797515 0.000000 0.728802
0.905789 0.000000 0.699941
1.000000 0.000000 0.665444
0.040976 0.000000 0.820734
0.115668 0.000000 0.817672
0.231637 0.000000 0.810967
0.383880 0.000000 0.799796
0.539529 0.000000 0.785786
0.677306 0.000000 0.769405
0.796336 0.000000 0.749297
0.903872 0.000000 0.723613
1.000000 0.000000 0.691803
0.033326 0.038496 0.847955
0.095124 0.042884 0.843107
0.209407 0.055493 0.834800
0.370433 0.066153 0.821217
0.534754 0.070336 0.805080
0.676420 0.063507 0.788295
0.795020 0.051598 0.769621
0.901381 0.053976 0.747068
1.000000 0.070022 0.717991
0.025612 0.270901 0.873961
0.076578 0.274268 0.868623
0.185660 0.280597 0.860448
0.352508 0.284998 0.846487
0.527081 0.279386 0.829055
0.673313 0.261811 0.811268
0.792037 0.239515 0.792992
0.897987 0.228860 0.772693
0.998894 0.232809 0.745169
0.017881 0.467723 0.897447
0.052564 0.471782 0.893227
0.147391 0.476693 0.887139
0.316392 0.482755 0.873652
0.508271 0.482361 0.855039
0.666274 0.470833 0.837906
0.788053 0.449796 0.820140
0.893783 0.427462 0.799437
0.994320 0.412995 0.772345
0.013669 0.620439 0.919030
0.025329 0.623193 0.916196
0.094651 0.626141 0.912902
0.257003 0.632330 0.900683
0.465653 0.636130 0.881355
0.649660 0.634064 0.863928
0.782473 0.622438 0.845412
0.888365 0.601887 0.823026
0.988487 0.582773 0.798228
0.003096 0.748817 0.943867
0.000008 0.748781 0.941354
0.038813 0.749031 0.939764
0.172013 0.752754 0.929228
0.389983 0.757312 0.907876
0.612100 0.761297 0.885876
0.766140 0.758604 0.863901
0.878036 0.748012 0.843362
0.981218 0.733668 0.825732
0.000000 0.866198 0.981041
0.000000 0.865488 0.975757
0.018885 0.864628 0.971542
0.122978 0.865223 0.960696
0.323678 0.868797 0.938387
0.558293 0.873329 0.912175
0.738824 0.874435 0.887521
0.868212 0.873494 0.870287
0.975847 0.868918 0.862278
0.000000 0.980842 1.000000
0.000000 0.979872 1.000000
0.032747 0.978576 1.000000
0.140898 0.978620 0.998222
0.314737 0.981001 0.978422
0.518885 0.984660 0.955239
0.701885 0.988285 0.934454
0.847696 0.992142 0.920668
0.968797 0.994874 0.913117
0.061376 0.000000 0.885604
0.152027 0.000000 0.883436
0.264020 0.000000 0.878756
0.394699 0.000000 0.870693
0.531748 0.000000 0.858910
0.663621 0.000000 0.842970
0.785806 0.000000 0.822169
0.899311 0.000000 0.796075
1.000000 0.000000 0.765040
0.048790 0.000000 0.912574
0.130837 0.000000 0.909108
0.241066 0.000000 0.902918
0.377191 0.000000 0.893199
0.521767 0.000000 0.880245
0.659001 0.000000 0.864297
0.783591 0.000000 0.844755
0.897679 0.000000 0.820646
1.000000 0.000000 0.791582
0.037269 0.018921 0.938497
0.109771 0.026740 0.934049
0.217056 0.039141 0.926835
0.358186 0.051679 0.915779
0.510674 0.059356 0.901565
0.653725 0.059856 0.885234
0.780859 0.056981 0.866583
0.895574 0.059012 0.844336
1.000000 0.068513 0.817250
0.024977 0.226508 0.963255
0.085899 0.233822 0.958620
0.186703 0.241793 0.951521
0.331233 0.248394 0.940073
0.493374 0.248803 0.924941
0.644782 0.241429 0.908054
0.776192 0.230612 0.889700
0.892435 0.224333 0.868541
1.000000 0.225959 0.842849
0.011258 0.416314 0.986489
0.055933 0.423452 0.982395
0.142937 0.429601 0.976625
0.286782 0.435278 0.965695
0.461516 0.436219 0.950003
0.627778 0.429670 0.932731
0.768032 0.417146 0.914055
0.887604 0.404192 0.892768
0.996645 0.396126 0.868016
0.000000 0.576847 1.000000
0.021717 0.582189 1.000000
0.085873 0.586319 1.000000
0.219662 0.591425 0.991721
0.406513 0.594860 0.975361
0.596736 0.593634 0.956651
0.753572 0.585788 0.936540
0.879872 0.573404 0.914817
0.991728 0.561897 0.892119
0.000000 0.714879 1.000000
0.000000 0.717732 1.000000
0.030198 0.719398 1.000000
0.140922 0.722432 1.000000
0.331695 0.726947 1.000000
0.550244 0.730923 0.978110
0.730291 0.729932 0.955098
0.868695 0.723781 0.934143
0.986207 0.715146 0.916682
0.000000 0.840504 1.000000
0.000000 0.841992 1.000000
0.003738 0.842352 1.000000
0.100297 0.843740 1.000000
0.281471 0.848029 1.000000
0.505828 0.853789 1.000000
0.702269 0.857361 0.978006
0.855863 0.858369 0.958778
0.981678 0.856070 0.948226
0.000000 0.960772 1.000000
0.000000 0.961825 1.000000
0.012959 0.962112 1.000000
0.115011 0.963506 1.000000
0.280243 0.967322 1.000000
0.481928 0.972868 1.000000
0.674348 0.978628 1.000000
0.837274 0.984173 1.000000
1.000000 1.000000 1.000000
