app/src/main/assets/luts/JC-Positive_V4.cube
TITLE "JC Positive"
#Lut generated by JC from Ricoh GR3X HDF
LUT_3D_SIZE 5
DOMAIN_MIN 0.0 0.0 0.0
DOMAIN_MAX 1.0 1.0 1.0
0.000000 0.000000 0.000000
0.356284 0.018628 0.000000
0.617488 0.019482 0.000000
0.797973 0.000000 0.000000
0.975721 0.000000 0.000000
0.066727 0.345013 0.135659
0.328104 0.343545 0.084047
0.594206 0.325144 0.017974
0.776223 0.266493 0.000000
0.953776 0.247395 0.000000
0.141802 0.614261 0.281404
0.346009 0.616438 0.251601
0.579723 0.621605 0.185322
0.759034 0.607497 0.044554
0.936567 0.557721 0.000000
0.169187 0.828025 0.419196
0.367800 0.820324 0.412350
0.573861 0.815922 0.385118
0.752849 0.817738 0.301732
0.928400 0.811337 0.126010
0.170773 1.000000 0.548212
0.359206 1.000000 0.549055
0.554966 1.000000 0.535709
0.742352 1.000000 0.481465
0.926899 1.000000 0.367942
0.031527 0.000000 0.260431
0.342315 0.000000 0.228789
0.622913 0.000000 0.176621
0.803323 0.000000 0.113410
0.981855 0.000000 0.030043
0.028655 0.312722 0.351119
0.301986 0.308325 0.308144
0.608621 0.253967 0.227861
0.784630 0.174689 0.128581
0.958835 0.178272 0.057039
0.071793 0.604641 0.439915
0.295936 0.610338 0.411181
0.579862 0.612822 0.353682
0.766148 0.587645 0.267278
0.941881 0.519352 0.157232
0.111253 0.812195 0.554770
0.315891 0.805637 0.542941
0.560499 0.806084 0.511790
0.753381 0.806618 0.467924
0.929960 0.793499 0.377138
0.116533 1.000000 0.677720
0.304100 1.000000 0.674172
0.525509 1.000000 0.664063
0.733591 1.000000 0.642467
0.924828 1.000000 0.572548
0.036669 0.000000 0.501974
0.306077 0.000000 0.498642
0.621189 0.000000 0.467844
0.815543 0.000000 0.409545
0.995812 0.000000 0.316960
0.018447 0.200487 0.580464
0.255982 0.200231 0.556344
0.606043 0.165345 0.506038
0.801894 0.114960 0.451991
0.976718 0.123476 0.367378
0.009778 0.580109 0.637089
0.231869 0.583654 0.618852
0.576924 0.581329 0.579207
0.781681 0.537148 0.523363
0.960849 0.472343 0.443453
0.038487 0.798923 0.704189
0.227381 0.794432 0.689610
0.541747 0.798245 0.654784
0.765736 0.794163 0.619121
0.942324 0.771696 0.569229
0.042472 1.000000 0.805828
0.211019 1.000000 0.793001
0.476345 0.997046 0.771801
0.729376 0.998261 0.754760
0.931797 1.000000 0.721985
0.044397 0.000000 0.699359
0.259266 0.000000 0.695288
0.568013 0.000000 0.674437
0.807981 0.000000 0.631762
1.000000 0.000000 0.559575
0.031646 0.061792 0.757260
0.201503 0.077567 0.741655
0.559935 0.082627 0.705146
0.801852 0.042759 0.669125
0.996936 0.076928 0.612827
0.017337 0.515574 0.809970
0.167929 0.519689 0.796196
0.545161 0.521812 0.759372
0.789807 0.484483 0.724488
0.984191 0.432795 0.672419
0.008351 0.773994 0.859773
0.092024 0.773914 0.851408
0.480086 0.781037 0.813538
0.775834 0.777742 0.775254
0.967369 0.748040 0.738077
0.000000 0.995779 0.947590
0.084260 0.990794 0.931832
0.378080 0.990434 0.900194
0.719781 0.993320 0.865399
0.954444 0.998617 0.845549
0.061376 0.000000 0.885604
0.264020 0.000000 0.878756
0.531748 0.000000 0.858910
0.785806 0.000000 0.822169
1.000000 0.000000 0.765040
0.037269 0.018921 0.938497
0.217056 0.039141 0.926835
0.510674 0.059356 0.901565
0.780859 0.056981 0.866583
1.000000 0.068513 0.817250
0.011258 0.416314 0.986489
0.142937 0.429601 0.976625
0.461516 0.436219 0.950003
0.768032 0.417146 0.914055
0.996645 0.396126 0.868016
0.000000 0.714879 1.000000
0.030198 0.719398 1.000000
0.331695 0.726947 1.000000
0.730291 0.729932 0.955098
0.986207 0.715146 0.916682
0.000000 0.960772 1.000000
0.012959 0.962112 1.000000
0.280243 0.967322 1.000000
0.674348 0.978628 1.000000
1.000000 1.000000 1.000000
