app/src/main/assets/luts/JC-Positive_V4.cube
TITLE "JC Positive"
#Lut generated by JC from Ricoh GR3X HDF
LUT_3D_SIZE 33
DOMAIN_MIN 0.0 0.0 0.0
DOMAIN_MAX 1.0 1.0 1.0
0.000000 0.000000 0.000000
0.054967 0.012994 0.007851
0.095023 0.014797 0.003441
0.137979 0.016039 0.000000
0.182382 0.016710 0.000000
0.227187 0.017051 0.000000
0.271539 0.017329 0.000000
0.314714 0.017801 0.000000
0.356284 0.018628 0.000000
0.396030 0.019795 0.000000
0.433779 0.021064 0.000000
0.469485 0.022084 0.000000
0.503128 0.022485 0.000000
0.534641 0.022160 0.000000
0.564103 0.021514 0.000000
0.591641 0.020724 0.000000
0.617488 0.019482 0.000000
0.641974 0.017266 0.000000
0.665476 0.013813 0.000000
0.688268 0.009476 0.000000
0.710578 0.004900 0.000000
0.732588 0.000619 0.000000
0.754432 0.000000 0.000000
0.776204 0.000000 0.000000
0.797973 0.000000 0.000000
0.819785 0.000000 0.000000
0.841676 0.000000 0.000000
0.863672 0.000000 0.000000
0.885790 0.000000 0.000000
0.908046 0.000000 0.000000
0.930449 0.000000 0.000000
0.953006 0.000000 0.000000
0.975721 0.000000 0.000000
0.019695 0.053503 0.026325
0.054743 0.055510 0.021511
0.094377 0.057108 0.016853
0.137107 0.057681 0.011448
0.181410 0.057352 0.005375
0.226237 0.056536 0.000000
0.270694 0.055564 0.000000
0.313928 0.054785 0.000000
0.355519 0.054422 0.000000
0.395305 0.054494 0.000000
0.433054 0.054686 0.000000
0.468745 0.054559 0.000000
0.502419 0.053690 0.000000
0.533983 0.052050 0.000000
0.563419 0.050147 0.000000
0.590846 0.048261 0.000000
0.616544 0.045992 0.000000
0.640891 0.042821 0.000000
0.664261 0.038583 0.000000
0.686906 0.033682 0.000000
0.709047 0.028785 0.000000
0.730879 0.024435 0.000000
0.752549 0.020911 0.000000
0.774164 0.018256 0.000000
0.795795 0.016373 0.000000
0.817494 0.015126 0.000000
0.839292 0.014385 0.000000
0.861214 0.014047 0.000000
0.883274 0.014035 0.000000
0.905485 0.014292 0.000000
0.927855 0.014773 0.000000
0.950389 0.015442 0.000000
0.973093 0.016270 0.000000
0.022523 0.097057 0.041213
0.056736 0.099381 0.036395
0.095078 0.100871 0.031354
0.136641 0.100877 0.025384
0.180110 0.099667 0.018678
0.224378 0.097811 0.011784
0.268490 0.095712 0.005122
0.311526 0.093763 0.000000
0.353024 0.092250 0.000000
0.392795 0.091206 0.000000
0.430591 0.090301 0.000000
0.466365 0.089079 0.000000
0.500173 0.087167 0.000000
0.531918 0.084593 0.000000
0.561483 0.081687 0.000000
0.589001 0.078636 0.000000
0.614780 0.075107 0.000000
0.639193 0.070733 0.000000
0.662573 0.065538 0.000000
0.685168 0.059982 0.000000
0.707205 0.054724 0.000000
0.728899 0.050288 0.000000
0.750423 0.046898 0.000000
0.771903 0.044514 0.000000
0.793420 0.042966 0.000000
0.815027 0.042065 0.000000
0.836753 0.041656 0.000000
0.858618 0.041626 0.000000
0.880636 0.041895 0.000000
0.902816 0.042409 0.000000
0.925165 0.043124 0.000000
0.947688 0.044007 0.000000
0.970388 0.045028 0.000000
0.026984 0.140574 0.056434
0.060056 0.143119 0.051499
0.096720 0.144586 0.046148
0.136570 0.144364 0.039919
0.178609 0.142694 0.032956
0.221752 0.140179 0.025675
0.265043 0.137312 0.018496
0.307615 0.134507 0.011912
0.348932 0.132084 0.006225
0.388687 0.130102 0.001547
0.426622 0.128275 0.000000
0.462631 0.126231 0.000000
0.496675 0.123679 0.000000
0.528655 0.120541 0.000000
0.558488 0.116903 0.000000
0.586289 0.112781 0.000000
0.612337 0.107991 0.000000
0.636967 0.102382 0.000000
0.660469 0.096129 0.000000
0.683086 0.089773 0.000000
0.705064 0.083995 0.000000
0.726651 0.079305 0.000000
0.748057 0.075868 0.000000
0.769430 0.073564 0.000000
0.790862 0.072153 0.000000
0.812404 0.071404 0.000000
0.834082 0.071138 0.000000
0.855911 0.071236 0.000000
0.877903 0.071620 0.000000
0.900065 0.072235 0.000000
0.922403 0.073042 0.000000
0.944923 0.074008 0.000000
0.967628 0.075103 0.000000
0.032747 0.183270 0.071659
0.064573 0.185764 0.066515
0.099504 0.187138 0.060946
0.137384 0.186941 0.054682
0.177544 0.185287 0.047761
0.219087 0.182648 0.040424
0.261153 0.179527 0.033038
0.302963 0.176372 0.026041
0.343922 0.173496 0.019727
0.383602 0.170973 0.014188
0.421684 0.168617 0.009284
0.457960 0.166143 0.004650
0.492295 0.163289 0.000000
0.524578 0.159873 0.000000
0.554756 0.155777 0.000000
0.582923 0.150902 0.000000
0.609320 0.145148 0.000000
0.634242 0.138519 0.000000
0.657937 0.131297 0.000000
0.680627 0.124092 0.000000
0.702581 0.117628 0.000000
0.724099 0.112422 0.000000
0.745430 0.108622 0.000000
0.766743 0.106070 0.000000
0.788133 0.104484 0.000000
0.809646 0.103595 0.000000
0.831304 0.103206 0.000000
0.853119 0.103190 0.000000
0.875100 0.103467 0.000000
0.897257 0.103986 0.000000
0.919595 0.104706 0.000000
0.942120 0.105593 0.000000
0.964836 0.106617 0.000000
0.039695 0.224932 0.086958
0.070279 0.227214 0.081599
0.103514 0.228446 0.075879
0.139364 0.228364 0.069656
0.177436 0.227002 0.062897
0.217099 0.224662 0.055709
0.257660 0.221776 0.048351
0.298435 0.218768 0.041163
0.338807 0.215927 0.034404
0.378256 0.213340 0.028163
0.416372 0.210897 0.022338
0.452850 0.208389 0.016669
0.487472 0.205574 0.010808
0.520081 0.202187 0.004398
0.550605 0.197966 0.000000
0.579119 0.192732 0.000000
0.605843 0.186429 0.000000
0.631045 0.179143 0.000000
0.654943 0.171203 0.000000
0.677731 0.163238 0.000000
0.699703 0.155993 0.000000
0.721209 0.150023 0.000000
0.742533 0.145528 0.000000
0.763850 0.142372 0.000000
0.785252 0.140260 0.000000
0.806778 0.138900 0.000000
0.828446 0.138079 0.000000
0.850268 0.137668 0.000000
0.872255 0.137588 0.000000
0.894417 0.137786 0.000000
0.916764 0.138218 0.000000
0.939301 0.138848 0.000000
0.962034 0.139639 0.000000
0.047732 0.265681 0.102567
0.077095 0.267754 0.097061
0.108680 0.268888 0.091261
0.142551 0.268961 0.085106
0.178527 0.267981 0.078533
0.216220 0.266138 0.071556
0.255124 0.263771 0.064328
0.294662 0.261242 0.057093
0.334227 0.258801 0.050058
0.373244 0.256531 0.043311
0.411222 0.254371 0.036797
0.447777 0.252172 0.030345
0.482609 0.249709 0.023699
0.515494 0.246663 0.016571
0.546307 0.242671 0.008681
0.575091 0.237485 0.000000
0.602055 0.231063 0.000000
0.627459 0.223526 0.000000
0.651508 0.215196 0.000000
0.674399 0.206658 0.000000
0.696443 0.198652 0.000000
0.718013 0.191810 0.000000
0.739406 0.186418 0.000000
0.760796 0.182397 0.000000
0.782262 0.179463 0.000000
0.803838 0.177324 0.000000
0.825543 0.175774 0.000000
0.847390 0.174691 0.000000
0.869395 0.174000 0.000000
0.891572 0.173648 0.000000
0.913933 0.173589 0.000000
0.936488 0.173776 0.000000
0.959242 0.174171 0.000000
0.056776 0.305688 0.118744
0.084973 0.307653 0.113222
0.114985 0.308782 0.107446
0.146967 0.309038 0.101391
0.180913 0.308435 0.094982
0.216644 0.307108 0.088180
0.253831 0.305330 0.081070
0.292005 0.303403 0.073827
0.330588 0.301530 0.066614
0.368975 0.299784 0.059517
0.406623 0.298132 0.052524
0.443081 0.296469 0.045536
0.477981 0.294584 0.038367
0.511028 0.292132 0.030767
0.542036 0.288684 0.022451
0.571006 0.283922 0.013174
0.598127 0.277802 0.002830
0.623650 0.270434 0.000000
0.647794 0.262073 0.000000
0.670785 0.253212 0.000000
0.692943 0.244596 0.000000
0.714636 0.236960 0.000000
0.736157 0.230670 0.000000
0.757665 0.225684 0.000000
0.779228 0.221748 0.000000
0.800877 0.218605 0.000000
0.822633 0.216085 0.000000
0.844517 0.214093 0.000000
0.866548 0.212569 0.000000
0.888746 0.211462 0.000000
0.911127 0.210722 0.000000
0.933703 0.210297 0.000000
0.956482 0.210139 0.000000
0.066727 0.345013 0.135659
0.093851 0.347003 0.130297
0.122387 0.348227 0.124680
0.152576 0.348680 0.118771
0.184579 0.348393 0.112482
0.218401 0.347497 0.105769
0.253871 0.346233 0.098700
0.290621 0.344859 0.091415
0.328104 0.343545 0.084047
0.365700 0.342355 0.076685
0.402829 0.341280 0.069357
0.438994 0.340235 0.062021
0.473770 0.339022 0.054539
0.506811 0.337287 0.046675
0.537892 0.334584 0.038127
0.566974 0.330567 0.028615
0.594206 0.325144 0.017974
0.619806 0.318351 0.006101
0.644022 0.310328 0.000000
0.667120 0.301459 0.000000
0.689416 0.292528 0.000000
0.711260 0.284362 0.000000
0.732927 0.277357 0.000000
0.754561 0.271472 0.000000
0.776223 0.266493 0.000000
0.797947 0.262233 0.000000
0.819758 0.258594 0.000000
0.841681 0.255531 0.000000
0.863741 0.253010 0.000000
0.885963 0.250991 0.000000
0.908368 0.249419 0.000000
0.930969 0.248238 0.000000
0.953776 0.247395 0.000000
0.077414 0.383547 0.153337
0.103574 0.385666 0.148312
0.130733 0.387053 0.142992
0.159230 0.387698 0.137291
0.189379 0.387643 0.131089
0.221363 0.387044 0.124374
0.255167 0.386151 0.117256
0.290507 0.385197 0.109869
0.326852 0.384328 0.102328
0.363559 0.383611 0.094727
0.400020 0.383053 0.087138
0.435709 0.382590 0.079571
0.470167 0.382026 0.071920
0.503019 0.381013 0.063948
0.534022 0.379127 0.055332
0.563122 0.376036 0.045768
0.590418 0.371571 0.035021
0.616082 0.365667 0.022923
0.640380 0.358332 0.009350
0.663609 0.349863 0.000000
0.686061 0.341092 0.000000
0.708055 0.332817 0.000000
0.729846 0.325401 0.000000
0.751576 0.318802 0.000000
0.773313 0.312866 0.000000
0.795096 0.307505 0.000000
0.816953 0.302711 0.000000
0.838912 0.298510 0.000000
0.861001 0.294910 0.000000
0.883248 0.291883 0.000000
0.905678 0.289381 0.000000
0.928307 0.287346 0.000000
0.951144 0.285722 0.000000
0.088557 0.421054 0.171666
0.113863 0.423346 0.167130
0.139722 0.424902 0.162214
0.166638 0.425711 0.156788
0.195028 0.425789 0.150650
0.225270 0.425347 0.143873
0.257522 0.424682 0.136663
0.291559 0.424007 0.129150
0.326828 0.423447 0.121422
0.362627 0.423067 0.113579
0.398328 0.422902 0.105753
0.433400 0.422905 0.098018
0.467378 0.422893 0.090292
0.499878 0.422536 0.082322
0.530658 0.421444 0.073763
0.559656 0.419290 0.064273
0.586947 0.415834 0.053552
0.612667 0.410980 0.041405
0.637064 0.404657 0.027642
0.660426 0.397084 0.012310
0.683018 0.389028 0.000000
0.705126 0.381121 0.000000
0.726993 0.373647 0.000000
0.748771 0.366600 0.000000
0.770545 0.359910 0.000000
0.792362 0.353585 0.000000
0.814251 0.347721 0.000000
0.836238 0.342425 0.000000
0.858354 0.337752 0.000000
0.880627 0.333701 0.000000
0.903084 0.330233 0.000000
0.925741 0.327297 0.000000
0.948608 0.324840 0.000000
0.099711 0.457234 0.190415
0.124248 0.459678 0.186483
0.148813 0.461292 0.181974
0.174278 0.462199 0.176854
0.201050 0.462320 0.170789
0.229767 0.461964 0.164016
0.260705 0.461455 0.156795
0.293650 0.460966 0.149215
0.327991 0.460598 0.141329
0.362927 0.460421 0.133237
0.397830 0.460504 0.125170
0.432191 0.460837 0.117308
0.465565 0.461251 0.109578
0.497588 0.461433 0.101679
0.528031 0.461030 0.093233
0.556828 0.459718 0.083874
0.584035 0.457234 0.073267
0.609774 0.453458 0.061178
0.634241 0.448355 0.047436
0.657685 0.442112 0.032037
0.680356 0.435212 0.015172
0.702520 0.428076 0.000000
0.724408 0.420912 0.000000
0.746187 0.413756 0.000000
0.767959 0.406614 0.000000
0.789782 0.399583 0.000000
0.811685 0.392851 0.000000
0.833692 0.386606 0.000000
0.855830 0.380959 0.000000
0.878128 0.375943 0.000000
0.900612 0.371542 0.000000
0.923297 0.367719 0.000000
0.946192 0.364428 0.000000
0.110268 0.491909 0.209284
0.133952 0.494221 0.205907
0.157354 0.495740 0.201763
0.181406 0.496563 0.196809
0.206893 0.496765 0.191024
0.234525 0.496575 0.184559
0.264575 0.496244 0.177575
0.296729 0.495909 0.170088
0.330279 0.495654 0.162109
0.364407 0.495565 0.153778
0.398507 0.495765 0.145463
0.432108 0.496302 0.137508
0.464801 0.497022 0.129840
0.496262 0.497617 0.122048
0.526283 0.497764 0.113721
0.554793 0.497176 0.104514
0.581830 0.495617 0.094098
0.607501 0.492949 0.082192
0.631965 0.489152 0.068620
0.655422 0.484353 0.053310
0.678105 0.478787 0.036238
0.700263 0.472671 0.017417
0.722123 0.466135 0.000000
0.743861 0.459231 0.000000
0.765595 0.452011 0.000000
0.787395 0.444623 0.000000
0.809294 0.437322 0.000000
0.831310 0.430368 0.000000
0.853465 0.423931 0.000000
0.875785 0.418086 0.000000
0.898291 0.412851 0.000000
0.920999 0.408212 0.000000
0.943918 0.404139 0.000000
0.119897 0.524826 0.227871
0.142774 0.526801 0.224925
0.165154 0.528101 0.221230
0.188064 0.528831 0.216633
0.212544 0.529116 0.211316
0.239428 0.529123 0.205387
0.268967 0.529002 0.198902
0.300609 0.528817 0.191717
0.333526 0.528634 0.183800
0.366909 0.528556 0.175312
0.400224 0.528769 0.166750
0.433048 0.529403 0.158745
0.465024 0.530322 0.151195
0.495884 0.531205 0.143485
0.525430 0.531774 0.135228
0.553578 0.531800 0.126175
0.580355 0.531077 0.116009
0.605866 0.529451 0.104356
0.630241 0.526888 0.091022
0.653640 0.523448 0.075907
0.676272 0.519198 0.058799
0.698371 0.514191 0.039546
0.720162 0.508504 0.018351
0.741828 0.502182 0.000000
0.763496 0.495268 0.000000
0.785249 0.487917 0.000000
0.807124 0.480414 0.000000
0.829136 0.473064 0.000000
0.851299 0.466089 0.000000
0.873632 0.459616 0.000000
0.896153 0.453706 0.000000
0.918875 0.448379 0.000000
0.941807 0.443627 0.000000
0.128400 0.555981 0.246042
0.150680 0.557537 0.243445
0.172323 0.558559 0.240222
0.194458 0.559208 0.236259
0.218278 0.559582 0.231637
0.244674 0.559771 0.226430
0.273840 0.559839 0.220590
0.305076 0.559774 0.213878
0.337457 0.559641 0.206267
0.370112 0.559533 0.197860
0.402672 0.559705 0.189206
0.434743 0.560353 0.181201
0.466030 0.561356 0.173694
0.496313 0.562399 0.165918
0.525383 0.563261 0.157610
0.553131 0.563775 0.148660
0.579571 0.563755 0.138788
0.604839 0.563002 0.127397
0.629043 0.561476 0.114335
0.652308 0.559202 0.099533
0.674830 0.556138 0.082599
0.696831 0.552225 0.063195
0.718530 0.547517 0.041538
0.740108 0.542035 0.018148
0.761697 0.535774 0.000000
0.783387 0.528849 0.000000
0.805222 0.521532 0.000000
0.827215 0.514135 0.000000
0.849372 0.506920 0.000000
0.871704 0.500069 0.000000
0.894225 0.493694 0.000000
0.916945 0.487852 0.000000
0.939875 0.482565 0.000000
0.135664 0.585684 0.263863
0.157637 0.586836 0.261627
0.178991 0.587548 0.258926
0.200853 0.588070 0.255597
0.224379 0.588453 0.251709
0.250458 0.588740 0.247268
0.279251 0.588937 0.242172
0.309969 0.588935 0.236096
0.341663 0.588786 0.229017
0.373624 0.588678 0.221141
0.405443 0.588840 0.212925
0.436831 0.589418 0.204911
0.467534 0.590352 0.197099
0.497322 0.591433 0.189057
0.525971 0.592479 0.180588
0.553336 0.593334 0.171626
0.579422 0.593813 0.161911
0.604371 0.593719 0.150862
0.628303 0.592992 0.138242
0.651352 0.591625 0.123887
0.673712 0.589544 0.107350
0.695592 0.586669 0.088236
0.717198 0.583007 0.066623
0.738696 0.578533 0.042908
0.760213 0.573190 0.017809
0.781840 0.567029 0.000000
0.803626 0.560259 0.000000
0.825583 0.553163 0.000000
0.847716 0.546024 0.000000
0.870028 0.539073 0.000000
0.892525 0.532471 0.000000
0.915222 0.526319 0.000000
0.938130 0.520671 0.000000
0.141802 0.614261 0.281404
0.163745 0.615061 0.279453
0.185269 0.615518 0.277171
0.207291 0.615838 0.274425
0.230842 0.616103 0.271183
0.256746 0.616348 0.267412
0.285141 0.616561 0.263060
0.315149 0.616597 0.257859
0.346009 0.616438 0.251601
0.377198 0.616307 0.244533
0.408297 0.616412 0.236949
0.439093 0.616849 0.229032
0.469288 0.617622 0.220927
0.498668 0.618657 0.212610
0.526972 0.619798 0.203979
0.553991 0.620843 0.194946
0.579723 0.621605 0.185322
0.604303 0.621936 0.174716
0.627891 0.621755 0.162721
0.650665 0.621031 0.148986
0.672827 0.619720 0.133116
0.694585 0.617771 0.114740
0.716117 0.615142 0.093695
0.737563 0.611752 0.070113
0.759034 0.607497 0.044554
0.780616 0.602349 0.018073
0.802352 0.596416 0.000000
0.824262 0.589924 0.000000
0.846350 0.583152 0.000000
0.868612 0.576370 0.000000
0.891057 0.569785 0.000000
0.913702 0.563540 0.000000
0.936567 0.557721 0.000000
0.147077 0.642020 0.298803
0.169176 0.642510 0.297081
0.191098 0.642729 0.295127
0.213536 0.642837 0.292829
0.237333 0.642938 0.290123
0.263148 0.643073 0.286975
0.291015 0.643205 0.283307
0.320285 0.643210 0.278891
0.350302 0.643054 0.273531
0.380610 0.642870 0.267412
0.411084 0.642836 0.260639
0.441424 0.643080 0.252961
0.471137 0.643633 0.244805
0.500171 0.644566 0.236441
0.528186 0.645705 0.227782
0.554859 0.646776 0.218736
0.580209 0.647628 0.209320
0.604403 0.648155 0.199270
0.627630 0.648272 0.187980
0.650105 0.647951 0.174999
0.672061 0.647205 0.160050
0.693714 0.646024 0.142782
0.715215 0.644344 0.122750
0.736660 0.642043 0.099717
0.758132 0.638958 0.074025
0.779700 0.634961 0.046658
0.801397 0.630053 0.019208
0.823249 0.624381 0.000000
0.845263 0.618212 0.000000
0.867440 0.611833 0.000000
0.889797 0.605488 0.000000
0.912364 0.599356 0.000000
0.935167 0.593557 0.000000
0.151707 0.669206 0.316155
0.174043 0.669415 0.314650
0.196403 0.669407 0.312977
0.219316 0.669313 0.311045
0.243406 0.669235 0.308787
0.269131 0.669214 0.306148
0.296503 0.669207 0.303018
0.325102 0.669122 0.299218
0.354418 0.668926 0.294643
0.384079 0.668694 0.289356
0.413971 0.668554 0.283304
0.443792 0.668633 0.276216
0.473073 0.668985 0.268504
0.501746 0.669720 0.260486
0.529428 0.670703 0.252078
0.555690 0.671614 0.243170
0.580634 0.672371 0.234076
0.604451 0.672916 0.224736
0.627333 0.673122 0.214160
0.649512 0.672979 0.201903
0.671267 0.672589 0.187973
0.692850 0.672000 0.172102
0.714387 0.671151 0.153504
0.735902 0.669888 0.131387
0.757443 0.667986 0.105972
0.779045 0.665190 0.078103
0.800724 0.661380 0.049351
0.822507 0.656648 0.021820
0.844411 0.651237 0.000000
0.866460 0.645439 0.000000
0.888697 0.639522 0.000000
0.911166 0.633691 0.000000
0.933899 0.628091 0.000000
0.155805 0.696006 0.333485
0.178385 0.695961 0.332197
0.201139 0.695741 0.330783
0.224461 0.695456 0.329167
0.248791 0.695192 0.327278
0.274437 0.694987 0.325038
0.301412 0.694811 0.322336
0.329457 0.694604 0.319039
0.358209 0.694340 0.315066
0.387367 0.694065 0.310397
0.416716 0.693867 0.304970
0.445975 0.693834 0.298735
0.474816 0.694020 0.291867
0.503029 0.694469 0.284568
0.530269 0.695139 0.276828
0.556146 0.695779 0.268566
0.580739 0.696316 0.259991
0.604231 0.696744 0.251125
0.626825 0.696894 0.241174
0.648731 0.696734 0.229473
0.670299 0.696505 0.216464
0.691837 0.696308 0.201991
0.713487 0.696122 0.185131
0.735159 0.695802 0.164274
0.756863 0.695060 0.139733
0.778562 0.693434 0.111919
0.800252 0.690688 0.082162
0.821946 0.686914 0.052880
0.843700 0.682338 0.026585
0.865585 0.677243 0.004644
0.887684 0.671903 0.000000
0.910056 0.666538 0.000000
0.932730 0.661302 0.000000
0.159414 0.722558 0.350786
0.182212 0.722286 0.349713
0.205279 0.721871 0.348543
0.228908 0.721405 0.347206
0.253404 0.720960 0.345627
0.278972 0.720568 0.343721
0.305631 0.720219 0.341386
0.333216 0.719878 0.338519
0.361469 0.719531 0.335052
0.390127 0.719202 0.330952
0.418945 0.718947 0.326199
0.447657 0.718819 0.320804
0.475981 0.718843 0.314854
0.503656 0.719025 0.308460
0.530400 0.719340 0.301663
0.555971 0.719660 0.294410
0.580298 0.719914 0.286504
0.603538 0.720108 0.277931
0.625915 0.720105 0.268485
0.647640 0.719864 0.257511
0.669090 0.719652 0.245270
0.690603 0.719644 0.231670
0.712377 0.719862 0.216176
0.734359 0.720347 0.197053
0.756321 0.720637 0.174019
0.778156 0.720051 0.146875
0.799868 0.718249 0.116769
0.821440 0.715382 0.085972
0.843002 0.711667 0.058040
0.864710 0.707364 0.035031
0.886685 0.702727 0.016797
0.908991 0.697967 0.002392
0.931638 0.693240 0.000000
0.162550 0.748966 0.368035
0.185519 0.748491 0.367171
0.208814 0.747897 0.366228
0.232650 0.747263 0.365142
0.257239 0.746647 0.363837
0.282719 0.746082 0.362229
0.309106 0.745569 0.360229
0.336289 0.745094 0.357759
0.364073 0.744648 0.354765
0.392228 0.744247 0.351223
0.420516 0.743918 0.347136
0.448683 0.743688 0.342528
0.476468 0.743562 0.337451
0.503618 0.743528 0.331962
0.529897 0.743558 0.326071
0.555125 0.743590 0.319675
0.579237 0.743577 0.312568
0.602322 0.743494 0.304607
0.624575 0.743272 0.295653
0.646248 0.742931 0.285478
0.667713 0.742702 0.274119
0.689351 0.742854 0.261419
0.711303 0.743372 0.246328
0.733549 0.744236 0.228706
0.755743 0.745115 0.207424
0.777705 0.745255 0.181625
0.799428 0.744297 0.152045
0.820827 0.742281 0.120432
0.842194 0.739466 0.091473
0.863756 0.736024 0.067798
0.885664 0.732178 0.049094
0.907963 0.728129 0.034180
0.930624 0.724020 0.021951
0.165217 0.775309 0.385204
0.188307 0.774651 0.384538
0.211751 0.773895 0.383806
0.235707 0.773105 0.382947
0.260325 0.772334 0.381891
0.285696 0.771611 0.380560
0.311830 0.770946 0.378880
0.338642 0.770337 0.376788
0.365977 0.769782 0.374243
0.393638 0.769287 0.371234
0.421403 0.768865 0.367768
0.449039 0.768521 0.363868
0.476304 0.768248 0.359563
0.502970 0.768031 0.354873
0.528838 0.767844 0.349771
0.553769 0.767654 0.344146
0.577713 0.767429 0.337806
0.600732 0.767142 0.330573
0.622989 0.766786 0.322341
0.644734 0.766430 0.313023
0.666334 0.766284 0.302549
0.688152 0.766566 0.290556
0.710294 0.767228 0.276346
0.732641 0.768170 0.259790
0.754932 0.769152 0.239917
0.776978 0.769624 0.215633
0.798667 0.769259 0.187060
0.820006 0.768073 0.156215
0.841259 0.766137 0.127271
0.862736 0.763554 0.103164
0.884660 0.760535 0.083962
0.907013 0.757248 0.068377
0.929723 0.753820 0.055273
0.167425 0.801646 0.402266
0.190586 0.800826 0.401782
0.214110 0.799922 0.401244
0.238116 0.798990 0.400593
0.262707 0.798076 0.399766
0.287946 0.797209 0.398694
0.313830 0.796404 0.397316
0.340291 0.795664 0.395580
0.367200 0.794992 0.393457
0.394387 0.794388 0.390936
0.421653 0.793855 0.388024
0.448786 0.793388 0.384737
0.475574 0.792977 0.381087
0.501815 0.792604 0.377067
0.527342 0.792251 0.372633
0.552045 0.791898 0.367672
0.575886 0.791528 0.362020
0.598917 0.791134 0.355516
0.621278 0.790748 0.348071
0.643201 0.790460 0.339621
0.665001 0.790425 0.329997
0.686984 0.790759 0.318798
0.709237 0.791449 0.305619
0.731629 0.792374 0.290144
0.753957 0.793303 0.271623
0.776032 0.793902 0.249035
0.797729 0.793939 0.222283
0.819067 0.793370 0.193132
0.840331 0.792154 0.165162
0.861826 0.790358 0.140894
0.883808 0.788128 0.121016
0.906218 0.785591 0.104470
0.928975 0.782854 0.090237
0.169187 0.828025 0.419196
0.192376 0.827060 0.418877
0.215925 0.826022 0.418513
0.239925 0.824961 0.418051
0.264446 0.823916 0.417433
0.289529 0.822918 0.416601
0.315164 0.821982 0.415502
0.341291 0.821117 0.414094
0.367800 0.820324 0.412350
0.394542 0.819603 0.410262
0.421344 0.818952 0.407831
0.448021 0.818363 0.405062
0.474385 0.817825 0.401952
0.500264 0.817322 0.398481
0.525519 0.816843 0.394592
0.550061 0.816377 0.390183
0.573861 0.815922 0.385118
0.596966 0.815490 0.379263
0.619499 0.815127 0.372525
0.641656 0.814916 0.364807
0.663689 0.814958 0.355909
0.685825 0.815322 0.345500
0.708135 0.815990 0.333262
0.730528 0.816856 0.318866
0.752849 0.817738 0.301732
0.774920 0.818423 0.280851
0.796633 0.818745 0.256025
0.818094 0.818602 0.229298
0.839515 0.817948 0.203138
0.861150 0.816810 0.179472
0.883183 0.815271 0.159048
0.905618 0.813418 0.141456
0.928400 0.811337 0.126010
0.170528 0.854483 0.435971
0.193707 0.853389 0.435799
0.217238 0.852231 0.435590
0.241188 0.851052 0.435297
0.265607 0.849890 0.434868
0.290517 0.848773 0.434252
0.315906 0.847716 0.433403
0.341716 0.846731 0.432286
0.367852 0.845821 0.430876
0.394187 0.844984 0.429161
0.420571 0.844218 0.427136
0.446842 0.843514 0.424795
0.472840 0.842863 0.422126
0.498419 0.842255 0.419098
0.523463 0.841683 0.415650
0.547898 0.841144 0.411692
0.571704 0.840647 0.407110
0.594922 0.840214 0.401789
0.617655 0.839891 0.395624
0.640060 0.839745 0.388488
0.662324 0.839842 0.380187
0.684603 0.840220 0.370454
0.706955 0.840858 0.358999
0.729329 0.841673 0.345485
0.751615 0.842532 0.329405
0.773688 0.843284 0.310106
0.795497 0.843798 0.287670
0.817134 0.843974 0.263539
0.838766 0.843760 0.239466
0.860578 0.843156 0.216851
0.882702 0.842201 0.196390
0.905176 0.840950 0.178087
0.927983 0.839464 0.161632
0.171474 0.881048 0.452577
0.194616 0.879841 0.452533
0.218097 0.878576 0.452459
0.241966 0.877293 0.452313
0.266259 0.876026 0.452049
0.290988 0.874801 0.451622
0.316134 0.873635 0.450993
0.341647 0.872540 0.450127
0.367442 0.871520 0.449001
0.393410 0.870575 0.447599
0.419422 0.869702 0.445909
0.445340 0.868896 0.443918
0.471027 0.868151 0.441605
0.496360 0.867459 0.438931
0.521242 0.866820 0.435839
0.545612 0.866237 0.432245
0.569453 0.865725 0.428052
0.592799 0.865308 0.423153
0.615730 0.865029 0.417434
0.638366 0.864935 0.410759
0.660839 0.865071 0.402946
0.683258 0.865458 0.393764
0.705667 0.866075 0.382943
0.728044 0.866859 0.370166
0.750323 0.867711 0.355051
0.772438 0.868519 0.337298
