app/src/main/assets/luts/pronegstd.cube
TITLE "Generated by Resolve"
LUT_3D_SIZE 33
0 0 0
0.0371252 0.00889601 0.0074464
0.0489815 0.0115663 0.00959792
0.0611124 0.0138552 0.0128328
0.0749218 0.0170443 0.016022
0.0925002 0.0200504 0.0206607
0.110628 0.0240635 0.0223087
0.132067 0.0282444 0.0281987
0.154711 0.0328832 0.0323491
0.181506 0.0379034 0.0376745
0.211429 0.0428016 0.0457465
0.243915 0.0475929 0.0516365
0.279393 0.0515755 0.0568856
0.318059 0.0547799 0.0661936
0.359213 0.0593729 0.0711223
0.408606 0.0628977 0.0812238
0.459098 0.0667582 0.0895705
0.50399 0.0711681 0.0985122
0.547036 0.0758373 0.105196
0.59379 0.079118 0.111299
0.63827 0.0839551 0.119982
0.679057 0.0906996 0.129351
0.718303 0.0967727 0.13991
0.755169 0.103105 0.151827
0.791592 0.107744 0.165789
0.827848 0.114366 0.179324
0.862837 0.118914 0.197604
0.899153 0.124651 0.215824
0.927794 0.129427 0.236301
0.940276 0.13164 0.258213
0.940322 0.133425 0.283284
0.940856 0.133257 0.286366
0.94226 0.13518 0.285145
0.0209049 0.0520485 0.0142824
0.0563821 0.058793 0.0171359
0.071458 0.0602121 0.0200809
0.0832837 0.0621195 0.0196841
0.100069 0.0652628 0.0225681
0.117556 0.0684672 0.0242618
0.136873 0.0716106 0.0249638
0.161563 0.0747234 0.0311284
0.186648 0.078233 0.0353552
0.215824 0.0818952 0.0385443
0.245899 0.0864118 0.0412757
0.279469 0.0898451 0.0476692
0.316899 0.0937057 0.0544442
0.355276 0.0985122 0.061387
0.394003 0.102571 0.0671244
0.431846 0.107637 0.0703441
0.469749 0.111391 0.0768139
0.513924 0.116533 0.0835431
0.558221 0.120806 0.0918746
0.600076 0.12636 0.0985275
0.640726 0.133532 0.106294
0.680278 0.140002 0.115389
0.718563 0.145617 0.12488
0.755428 0.151202 0.136538
0.791455 0.15761 0.14818
0.828397 0.163165 0.163653
0.862715 0.169772 0.180362
0.898375 0.174716 0.198474
0.927916 0.178286 0.217014
0.943969 0.181216 0.238437
0.945281 0.181292 0.258579
0.945022 0.179431 0.264286
0.944671 0.179507 0.263401
0.0283665 0.0694743 0.0170443
0.0640421 0.0758984 0.0201419
0.0771191 0.0778515 0.0213779
0.0903792 0.0803082 0.0222629
0.108034 0.0828412 0.0245518
0.127749 0.0856794 0.0259709
0.147631 0.0877089 0.0270695
0.16994 0.0915084 0.0297856
0.196109 0.0960403 0.032166
0.226123 0.0982986 0.034699
0.255497 0.102464 0.0400702
0.289693 0.106081 0.0447852
0.324987 0.11133 0.051957
0.361563 0.115572 0.0581521
0.397635 0.119921 0.0634318
0.435676 0.124468 0.0680858
0.475135 0.128786 0.0714427
0.519081 0.134112 0.0770123
0.561074 0.139223 0.083772
0.602258 0.145022 0.0932021
0.641886 0.15256 0.100603
0.680995 0.159045 0.110658
0.718807 0.163912 0.120989
0.755856 0.169741 0.130694
0.792386 0.176089 0.142351
0.828367 0.181628 0.158145
0.862272 0.188678 0.174853
0.898848 0.19292 0.192172
0.929335 0.195972 0.211292
0.945678 0.198352 0.233646
0.94699 0.199298 0.251286
0.946639 0.197696 0.259495
0.945953 0.196536 0.256458
0.0358587 0.0896925 0.0199283
0.0726329 0.0951705 0.0228122
0.0845655 0.0971695 0.0233005
0.100008 0.099443 0.0242618
0.116533 0.101595 0.02533
0.135164 0.104387 0.0258335
0.156588 0.107485 0.0263676
0.18085 0.110765 0.0278019
0.208301 0.114076 0.0318151
0.236255 0.117357 0.0364233
0.265812 0.120592 0.0389715
0.297276 0.12694 0.043183
0.331991 0.131731 0.0463111
0.366171 0.135561 0.0518959
0.403189 0.139757 0.057084
0.442329 0.144045 0.0617533
0.481849 0.148425 0.0661631
0.523064 0.154452 0.0700236
0.56405 0.159426 0.0795605
0.604334 0.165988 0.0868696
0.643122 0.1729 0.0953994
0.682979 0.179385 0.104738
0.720958 0.184726 0.114183
0.758053 0.190356 0.124697
0.793591 0.196078 0.136873
0.827649 0.202716 0.151537
0.862257 0.209827 0.167514
0.899992 0.212573 0.185077
0.931685 0.216632 0.204974
0.947601 0.219867 0.22533
0.948638 0.219821 0.244297
0.948501 0.218021 0.253666
0.948379 0.215747 0.250095
0.0441749 0.114549 0.0229953
0.0793011 0.118669 0.0223239
0.0922866 0.120653 0.0229801
0.107805 0.123308 0.023209
0.124956 0.126467 0.0216678
0.146212 0.127687 0.0244144
0.165743 0.130724 0.0245823
0.190936 0.133654 0.027512
0.216754 0.137133 0.0301671
0.245518 0.140612 0.0340581
0.276173 0.14461 0.0376745
0.306508 0.149523 0.0382391
0.338949 0.155138 0.0397192
0.373709 0.157733 0.0472267
0.410803 0.162066 0.0525063
0.449317 0.167208 0.0557717
0.488533 0.17232 0.0597238
0.527367 0.176944 0.0677958
0.567544 0.183154 0.0740215
0.606378 0.189242 0.0819562
0.645701 0.1953 0.0897231
0.685466 0.202182 0.0973068
0.722683 0.207309 0.108003
0.758968 0.21294 0.11812
0.793545 0.219379 0.129763
0.828367 0.225986 0.144289
0.865064 0.231449 0.160861
0.901396 0.236179 0.178485
0.935302 0.240665 0.196796
0.948714 0.243885 0.216754
0.950195 0.243763 0.236545
0.951095 0.241443 0.246738
0.950805 0.236378 0.243656
0.053254 0.142565 0.0238956
0.0891585 0.147509 0.0237583
0.102205 0.149294 0.0238346
0.117556 0.151827 0.0215152
0.135332 0.153216 0.0222171
0.155215 0.155428 0.023621
0.177432 0.15848 0.0249027
0.201495 0.160357 0.0271763
0.227054 0.164309 0.028809
0.255863 0.168521 0.030457
0.283742 0.171649 0.032639
0.314977 0.175433 0.03505
0.348943 0.179171 0.0391546
0.383337 0.182483 0.0439765
0.42092 0.186404 0.0453651
0.458534 0.191577 0.0492714
0.495705 0.197726 0.0555886
0.533227 0.203449 0.0622416
0.57142 0.209766 0.0677653
0.610056 0.214847 0.0767681
0.648859 0.220722 0.0847791
0.687083 0.227085 0.0921035
0.724987 0.232746 0.0999161
0.760906 0.239155 0.109758
0.79675 0.245182 0.12311
0.832563 0.250706 0.137194
0.86743 0.255741 0.152605
0.902846 0.261707 0.168978
0.937301 0.266743 0.188693
0.948745 0.269764 0.207553
0.952453 0.26949 0.229252
0.95314 0.266682 0.238682
0.951766 0.260624 0.236789
0.0620279 0.176287 0.0224613
0.0986496 0.179034 0.0220798
0.112993 0.180987 0.0215457
0.128573 0.182895 0.0213016
0.145434 0.184848 0.0216068
0.166552 0.186267 0.0234836
0.187594 0.188525 0.0241245
0.21268 0.190539 0.025742
0.239414 0.193362 0.0279088
0.265309 0.197467 0.0297093
0.293675 0.199359 0.0312657
0.326024 0.203037 0.0335699
0.35967 0.207004 0.0358587
0.394263 0.211109 0.037705
0.428977 0.216373 0.0391089
0.465187 0.220661 0.0435035
0.502373 0.225528 0.0505226
0.539712 0.232181 0.057145
0.577569 0.239353 0.0628214
0.61622 0.244022 0.0698558
0.654688 0.249546 0.0768749
0.692088 0.255238 0.0836347
0.72752 0.261753 0.0923781
0.763836 0.267216 0.105364
0.799252 0.272633 0.117266
0.834134 0.277867 0.12958
0.869017 0.283467 0.142733
0.904753 0.289464 0.158389
0.939239 0.293706 0.179477
0.951339 0.295827 0.198703
0.95584 0.297612 0.220478
0.95462 0.293553 0.229725
0.953353 0.286671 0.229221
0.0738384 0.21384 0.0225834
0.11078 0.214481 0.0211032
0.124437 0.215488 0.0212711
0.138598 0.216648 0.0220798
0.157244 0.218219 0.0227359
0.177096 0.219867 0.0222477
0.198398 0.221271 0.0216831
0.22359 0.222675 0.0246128
0.249897 0.226383 0.0256809
0.277684 0.229679 0.0257877
0.307042 0.2327 0.0262608
0.338094 0.237263 0.0284428
0.37026 0.240543 0.0296483
0.403967 0.244877 0.0337682
0.438819 0.248844 0.0386511
0.473793 0.253254 0.0396582
0.509911 0.259602 0.0471351
0.547219 0.265354 0.0523842
0.584939 0.270588 0.0576638
0.62211 0.275212 0.0625925
0.659266 0.280705 0.0687266
0.695583 0.286351 0.0783246
0.731304 0.29218 0.0886091
0.7664 0.296956 0.0981613
0.801251 0.302068 0.107683
0.835492 0.307683 0.118654
0.870253 0.313527 0.133516
0.905425 0.318853 0.151064
0.941192 0.321386 0.168948
0.954452 0.324346 0.189136
0.957443 0.325521 0.211017
0.957198 0.320562 0.221286
0.956542 0.313344 0.222522
0.0842756 0.251896 0.0211948
0.120684 0.254383 0.0196841
0.135897 0.254719 0.0207065
0.152224 0.25594 0.0200809
0.170443 0.25713 0.0196231
0.19118 0.257908 0.0206455
0.213077 0.259464 0.0222171
0.237049 0.262028 0.0222019
0.263798 0.2654 0.0196841
0.291737 0.267659 0.0211185
0.320256 0.270771 0.0232547
0.350179 0.274006 0.0254673
0.382162 0.278752 0.0272221
0.415412 0.281636 0.0317845
0.450019 0.285389 0.0349737
0.4851 0.28925 0.0380713
0.518547 0.292943 0.0417334
0.555535 0.298833 0.0484016
0.591867 0.303685 0.0534981
0.627771 0.308675 0.0589303
0.664546 0.313954 0.0644999
0.700618 0.31899 0.0735485
0.735302 0.323537 0.0816968
0.768887 0.328405 0.0881208
0.803388 0.333593 0.0980697
0.837522 0.339055 0.112657
0.871183 0.344106 0.126909
0.905669 0.348058 0.141466
0.938735 0.350942 0.156725
0.957885 0.353536 0.179507
0.959472 0.354406 0.201831
0.958709 0.348531 0.211765
0.959823 0.340398 0.212848
0.0981918 0.295048 0.0178836
0.130648 0.297475 0.0152285
0.146426 0.297337 0.0174105
0.163592 0.297398 0.0188144
0.181353 0.298878 0.016022
0.201465 0.300114 0.0158541
0.224353 0.301701 0.0174868
0.250782 0.303258 0.0176089
0.277424 0.305989 0.0185702
0.304417 0.308797 0.0203708
0.332647 0.310292 0.0229496
0.362692 0.313207 0.0244602
0.394018 0.315953 0.0271916
0.426703 0.318868 0.0316167
0.459174 0.321904 0.0332799
0.492943 0.326055 0.0370947
0.528145 0.330343 0.041413
0.564279 0.333761 0.0455482
0.599313 0.338262 0.0509651
0.634897 0.343069 0.0562753
0.669932 0.347997 0.0615244
0.704723 0.351675 0.0670329
0.738689 0.356374 0.0736706
0.772946 0.36141 0.0841688
0.807324 0.366934 0.0959945
0.840391 0.371923 0.10695
0.874022 0.375723 0.11986
0.908873 0.378683 0.133867
0.939803 0.381643 0.150881
0.960021 0.384009 0.170672
0.961654 0.384039 0.190463
0.960967 0.378424 0.201785
0.960906 0.369207 0.204364
0.107485 0.3411 0.0135653
0.146288 0.341268 0.0141146
0.161028 0.341955 0.014374
0.175586 0.342626 0.0140383
0.193881 0.343374 0.0146181
0.215457 0.34432 0.0156863
0.239536 0.345464 0.0161135
0.264683 0.34696 0.0173342
0.290654 0.348211 0.0200809
0.31725 0.350134 0.0203861
0.344961 0.352178 0.0204318
0.374762 0.353643 0.021912
0.406271 0.35523 0.026627
0.43801 0.357717 0.0303044
0.470222 0.361135 0.0334173
0.503502 0.363943 0.0359655
0.536721 0.367773 0.0383307
0.570581 0.372412 0.0413214
0.606806 0.375708 0.0463111
0.641566 0.379416 0.0522774
0.676188 0.38352 0.0580911
0.711177 0.388602 0.0632029
0.745388 0.392432 0.071046
0.779232 0.396536 0.0815442
0.812039 0.400809 0.0920424
0.843595 0.40679 0.0996109
0.877958 0.408728 0.111849
0.911513 0.41207 0.127443
0.942763 0.415045 0.144366
0.961761 0.416632 0.162249
0.962722 0.415137 0.179355
0.963088 0.408957 0.192782
0.962203 0.399298 0.196078
0.120073 0.38819 0.0125582
0.159823 0.388434 0.0127718
0.174136 0.388907 0.0124971
0.190234 0.388983 0.0133364
0.207965 0.38912 0.014725
0.229618 0.389181 0.01561
0.253239 0.389212 0.0163577
0.277684 0.390249 0.0173953
0.303029 0.391592 0.0180056
0.329686 0.39295 0.0184939
0.358389 0.3944 0.019913
0.387823 0.395895 0.0221256
0.417914 0.397574 0.0248569
0.449561 0.399344 0.0277409
0.48127 0.40177 0.0299535
0.513054 0.405249 0.0316777
0.546792 0.407996 0.0354009
0.581353 0.411063 0.0402228
0.615564 0.414313 0.0454108
0.649531 0.417502 0.0508125
0.683635 0.42182 0.0556191
0.717571 0.425971 0.0608072
0.750484 0.428641 0.0683604
0.782925 0.432258 0.0770123
0.815473 0.436713 0.0860609
0.84831 0.440894 0.0960555
0.880903 0.44448 0.106477
0.913634 0.446662 0.121096
0.946075 0.448692 0.136385
0.961929 0.449393 0.151568
0.965347 0.447883 0.169711
0.965469 0.441382 0.184298
0.964385 0.429755 0.187366
0.135866 0.435218 0.0127413
0.172 0.433951 0.0146639
0.186694 0.433982 0.0150149
0.202945 0.434104 0.0153201
0.223423 0.434333 0.0149386
0.246036 0.434562 0.0144961
0.267323 0.435355 0.0153506
0.290288 0.435843 0.0162814
0.316426 0.435874 0.0175021
0.343801 0.436469 0.0191501
0.372122 0.437629 0.0213931
0.400168 0.438773 0.0227054
0.429465 0.440543 0.0237888
0.459968 0.443107 0.0251469
0.491157 0.444617 0.0276341
0.523247 0.446082 0.0307927
0.556146 0.447822 0.0347753
0.590005 0.450629 0.0392004
0.623636 0.45362 0.0440681
0.656779 0.456992 0.0489357
0.690364 0.461509 0.0517128
0.723339 0.463935 0.0580453
0.75581 0.466194 0.0658427
0.787884 0.470222 0.0725414
0.820127 0.473533 0.0820478
0.852064 0.476265 0.0921645
0.884352 0.479088 0.102251
0.916579 0.481865 0.115145
0.948913 0.482765 0.127596
0.963623 0.482704 0.144076
0.966705 0.481315 0.167208
0.966613 0.472435 0.177371
0.966033 0.460136 0.179599
0.149599 0.481773 0.0155184
0.187304 0.482567 0.0149538
0.202396 0.482399 0.0150149
0.219608 0.481727 0.0152132
0.238483 0.480919 0.0155337
0.258473 0.480842 0.0152743
0.280079 0.480995 0.0153658
0.304265 0.480507 0.016968
0.329686 0.480308 0.0185245
0.356298 0.481224 0.0201724
0.383383 0.481971 0.0207065
0.411063 0.482734 0.02121
0.440772 0.484138 0.0225528
0.471015 0.485267 0.0246586
0.501778 0.486549 0.0277562
0.533379 0.487984 0.0310979
0.565637 0.489937 0.0341955
0.598993 0.491997 0.0371405
0.631495 0.495506 0.0403449
0.66453 0.498634 0.0447852
0.697902 0.500679 0.0514076
0.729747 0.502907 0.0570535
0.76109 0.505943 0.0622873
0.793103 0.50898 0.0687419
0.824598 0.510811 0.0780346
0.855711 0.512657 0.0874952
0.887129 0.514244 0.0983444
0.918975 0.515938 0.109926
0.950439 0.517021 0.122133
0.967117 0.516243 0.13962
0.968063 0.514809 0.162158
0.967208 0.504204 0.167834
0.96698 0.491661 0.170108
0.167117 0.528786 0.0171054
0.202777 0.528008 0.0180819
0.215885 0.527382 0.0184634
0.231373 0.527047 0.0184787
0.250004 0.526955 0.0179599
0.270405 0.526894 0.0176852
0.293553 0.526513 0.0184939
0.318029 0.526345 0.0189975
0.342351 0.52636 0.0188602
0.368002 0.526558 0.0196689
0.394614 0.526909 0.0218204
0.423056 0.527703 0.0228275
0.45243 0.528634 0.0234379
0.482261 0.529229 0.0260319
0.512642 0.530053 0.0286564
0.543694 0.531014 0.0317998
0.57583 0.53283 0.0340581
0.607782 0.535149 0.0364233
0.640024 0.537469 0.0392309
0.673182 0.538079 0.0444648
0.705867 0.539483 0.049958
0.734874 0.543755 0.0523537
0.766323 0.545769 0.0600443
0.797971 0.547097 0.0678721
0.828977 0.548379 0.0745556
0.859266 0.549493 0.0839704
0.890822 0.550439 0.0940719
0.922896 0.551202 0.105684
0.951476 0.551446 0.11928
0.968704 0.550958 0.132357
0.969223 0.547387 0.152697
0.968551 0.537362 0.160403
0.969162 0.524773 0.166064
0.180819 0.576577 0.0219577
0.215656 0.575036 0.0217594
0.230655 0.574258 0.020737
0.24744 0.573663 0.0195621
0.266056 0.573083 0.0187991
0.286397 0.572961 0.0187686
0.307942 0.573129 0.0190433
0.330541 0.572915 0.0206912
0.354238 0.572824 0.0219272
0.379751 0.572976 0.0225986
0.406577 0.573098 0.0234226
0.434333 0.573007 0.0244602
0.463066 0.573266 0.025452
0.492576 0.573785 0.0263676
0.523079 0.573922 0.0290227
0.553933 0.574533 0.0315557
0.584894 0.576333 0.034165
0.616266 0.577615 0.0368963
0.648066 0.5785 0.0399939
0.680369 0.579492 0.0440986
0.711757 0.580835 0.0476387
0.743557 0.581827 0.05243
0.773739 0.583703 0.0582895
0.803113 0.585184 0.0647746
0.832517 0.586343 0.0721599
0.863142 0.586709 0.0815137
0.89424 0.586328 0.090135
0.925856 0.587091 0.10135
0.954635 0.587106 0.113588
0.969802 0.585504 0.130755
0.970825 0.581094 0.147097
0.971618 0.570901 0.156939
0.970565 0.558145 0.161028
0.195392 0.623682 0.0235294
0.230732 0.621927 0.0227512
0.244526 0.621225 0.0225528
0.260655 0.620661 0.0224765
0.278904 0.620081 0.0223697
0.298543 0.619562 0.0224765
0.31928 0.619242 0.023331
0.34168 0.618723 0.0243229
0.366888 0.618219 0.0247959
0.393057 0.617655 0.0251469
0.419135 0.617472 0.0247959
0.445838 0.617594 0.0249485
0.473243 0.618555 0.0260471
0.502312 0.618387 0.0280461
0.532799 0.617472 0.030518
0.562448 0.61825 0.0318914
0.592828 0.619135 0.0333562
0.624659 0.619959 0.0365301
0.656168 0.620478 0.0395209
0.687327 0.621164 0.0423438
0.7178 0.621897 0.0469368
0.7476 0.622675 0.0521706
0.777234 0.623255 0.057435
0.807065 0.624247 0.0615244
0.837186 0.624323 0.0683146
0.867201 0.624018 0.0769207
0.897612 0.623545 0.087129
0.929763 0.624063 0.0977951
0.96083 0.623255 0.110124
0.970306 0.62211 0.126818
0.972351 0.616083 0.141924
0.972274 0.605219 0.149981
0.971618 0.592309 0.156573
0.208576 0.669139 0.0276799
0.243641 0.667521 0.0265354
0.257527 0.66717 0.0258488
0.27361 0.666819 0.0251011
0.291112 0.66601 0.0247807
0.310338 0.6654 0.0242008
0.331273 0.664729 0.0238041
0.353536 0.664439 0.0238651
0.377249 0.664134 0.0240787
0.402197 0.663203 0.0251621
0.428275 0.662394 0.0262913
0.45565 0.662913 0.0272068
0.483619 0.662867 0.0285039
0.5122 0.662165 0.0304875
0.541146 0.661662 0.031342
0.570703 0.66154 0.0313115
0.601297 0.661723 0.033341
0.631769 0.661677 0.0357824
0.662043 0.66157 0.038941
0.692226 0.661723 0.042298
0.722576 0.661952 0.0453956
0.7514 0.662242 0.0494087
0.78117 0.662455 0.0543984
0.811658 0.662333 0.0608377
0.841993 0.662486 0.0667887
0.871595 0.662135 0.0743267
0.901915 0.661768 0.083711
0.933288 0.661418 0.0945296
0.964248 0.66038 0.105898
0.97319 0.658289 0.123812
0.973693 0.652644 0.141054
0.973342 0.640162 0.147005
0.972335 0.626947 0.152773
0.221836 0.713466 0.0312657
0.256748 0.712596 0.0292363
0.27013 0.711803 0.0290837
0.285374 0.710796 0.0289616
0.302541 0.709926 0.028748
0.32134 0.709377 0.0286412
0.341451 0.709102 0.0287785
0.363348 0.708614 0.0289006
0.386984 0.708049 0.0283665
0.411841 0.707301 0.0280308
0.437095 0.706203 0.0289616
0.463188 0.705089 0.0299535
0.490654 0.704524 0.029572
0.519112 0.704082 0.0294194
0.547967 0.70367 0.0301213
0.576989 0.703212 0.0310521
0.606058 0.702922 0.0319677
0.636362 0.702525 0.0353704
0.66717 0.702266 0.0393378
0.696986 0.702052 0.0410773
0.726589 0.702144 0.0437171
0.756146 0.70219 0.0476387
0.785595 0.701854 0.0525978
0.815229 0.701274 0.0575875
0.844984 0.700435 0.0625315
0.874784 0.700481 0.0722362
0.904936 0.699855 0.0800031
0.936812 0.698573 0.0912947
0.962737 0.696391 0.105486
0.974105 0.693782 0.122301
0.974701 0.687861 0.137957
0.974762 0.675578 0.145876
0.973907 0.661112 0.154055
0.233951 0.755123 0.0365606
0.266941 0.753796 0.0343938
0.27985 0.753384 0.033341
0.294591 0.752773 0.0327153
0.311177 0.752102 0.0323491
0.329442 0.7514 0.0320745
0.34963 0.750774 0.0317845
0.371115 0.750149 0.0317845
0.394141 0.749569 0.0317998
0.417624 0.748699 0.0321355
0.442344 0.747936 0.0322271
0.469276 0.747173 0.0319524
0.497368 0.746563 0.0317082
0.52517 0.74551 0.0332036
0.553597 0.744533 0.0347601
0.5823 0.744091 0.0339055
0.611887 0.743526 0.0345922
0.6421 0.742992 0.0379492
0.671611 0.742718 0.0395666
0.701015 0.742824 0.0404669
0.730388 0.74229 0.0437629
0.76025 0.741802 0.0477913
0.789868 0.741451 0.0528267
0.818952 0.73994 0.0557565
0.847807 0.739132 0.0610666
0.877028 0.738323 0.0690166
0.907866 0.737026 0.0814832
0.940597 0.734936 0.0908675
0.965499 0.732876 0.106126
0.974227 0.730449 0.124437
0.975189 0.722362 0.137224
0.975814 0.711254 0.147021
0.973938 0.694301 0.15378
0.242924 0.795041 0.0429389
0.275181 0.793973 0.0402991
0.288045 0.793454 0.0397803
0.30251 0.792767 0.0394446
0.319097 0.792096 0.0389868
0.336889 0.791653 0.0383612
0.356268 0.791043 0.0379034
0.377539 0.790341 0.0374762
0.400778 0.789441 0.0370031
0.425193 0.788571 0.0364233
0.450462 0.787945 0.0363317
0.47657 0.787518 0.0365301
0.50309 0.786877 0.0372931
0.530129 0.786282 0.0378424
0.557412 0.785992 0.0376135
0.585458 0.785779 0.0374304
0.616419 0.784222 0.0379797
0.646876 0.7832 0.0386206
0.675013 0.782925 0.0401923
0.704326 0.782147 0.0425116
0.734264 0.781537 0.0449226
0.763333 0.780819 0.0477913
0.792462 0.779797 0.0513466
0.821805 0.778058 0.0565347
0.850797 0.776974 0.0640421
0.880217 0.775586 0.07364
0.910613 0.773922 0.0839551
0.941894 0.772229 0.0945144
0.973236 0.771206 0.110994
0.973419 0.767346 0.128756
0.975189 0.758938 0.139757
0.975326 0.745052 0.149126
0.974929 0.725017 0.154498
0.249989 0.834058 0.0496834
0.282612 0.833219 0.0476081
0.295476 0.832868 0.0468757
0.309545 0.832074 0.0465248
0.325399 0.831235 0.0460517
0.343359 0.830121 0.0457465
0.362783 0.829847 0.0445869
0.383825 0.829755 0.0431983
0.4065 0.829557 0.0419165
0.430243 0.828611 0.0426947
0.455177 0.827497 0.0432746
0.479973 0.827146 0.0421912
0.505714 0.826932 0.0405432
0.533303 0.826276 0.0399939
0.562844 0.82504 0.0400702
0.591592 0.824414 0.0393378
0.619852 0.824048 0.0383764
0.649134 0.822431 0.0406043
0.67866 0.820935 0.0428016
0.707454 0.820661 0.0439765
0.736675 0.819684 0.0463569
0.766155 0.818357 0.0499275
0.795026 0.816953 0.055787
0.823972 0.815305 0.0625772
0.852903 0.813489 0.0699474
0.881346 0.811582 0.0789197
0.911528 0.809781 0.090547
0.943069 0.807828 0.103502
0.966247 0.80621 0.115831
0.973281 0.802716 0.129305
0.973816 0.792676 0.142489
0.974487 0.776791 0.151339
0.975097 0.755199 0.158206
0.256992 0.871824 0.057908
0.287587 0.870604 0.0559548
0.299779 0.870039 0.0551614
0.313802 0.869505 0.0540932
0.329335 0.869184 0.0532845
0.346944 0.86894 0.0523995
0.366323 0.868544 0.051545
0.38732 0.867979 0.0507973
0.409384 0.867079 0.0505379
0.432822 0.866239 0.0504616
0.457099 0.865538 0.0488136
0.482719 0.86479 0.0468605
0.509285 0.864027 0.0460365
0.536812 0.863218 0.0462654
0.564797 0.862531 0.0461433
0.593912 0.86186 0.0452277
0.622507 0.861448 0.0440681
0.651225 0.861158 0.0424659
0.680568 0.859495 0.0457618
0.710582 0.85745 0.0502785
0.738888 0.856062 0.0536965
0.767803 0.854551 0.0588693
0.797101 0.852872 0.0648661
0.825483 0.851225 0.0704967
0.854032 0.849409 0.0774548
0.882979 0.847745 0.086183
0.913008 0.846296 0.0973373
0.945785 0.843824 0.109041
0.967208 0.841443 0.12137
0.972671 0.835721 0.134051
0.973068 0.823758 0.145907
0.973388 0.806775 0.155047
0.974594 0.783825 0.16112
0.257755 0.908843 0.0655528
0.289219 0.908263 0.0627756
0.301198 0.90782 0.0622568
0.315114 0.907378 0.0615549
0.330709 0.906981 0.0608225
0.348486 0.906554 0.0600137
0.367544 0.906004 0.0588846
0.388632 0.905272 0.0577401
0.410925 0.904753 0.05626
0.433082 0.90457 0.0547341
0.456733 0.904524 0.0532845
0.481834 0.903761 0.0523995
0.508461 0.902312 0.0512856
0.536141 0.901213 0.0507668
0.564477 0.900374 0.0515602
0.593393 0.899535 0.0522621
0.623301 0.898329 0.0525826
0.652628 0.897063 0.0546426
0.682124 0.895369 0.0583352
0.711192 0.893767 0.0613107
0.740475 0.892378 0.0646677
0.769055 0.890867 0.0691081
0.797696 0.889311 0.0738994
0.826764 0.887526 0.0796063
0.855619 0.885359 0.0873884
0.884611 0.883589 0.0952773
0.915007 0.881117 0.103868
0.9458 0.87776 0.113512
0.971939 0.873274 0.124727
0.972732 0.86659 0.137453
0.972976 0.852445 0.147463
0.973999 0.834653 0.156725
0.974594 0.812863 0.164096
0.256184 0.946593 0.0733196
0.287236 0.945647 0.0719005
0.299519 0.945403 0.0714122
0.313603 0.945022 0.0706798
0.328954 0.944671 0.0692302
0.346136 0.944183 0.0678721
0.365042 0.943725 0.0663462
0.385534 0.94342 0.0653697
0.407874 0.943069 0.0647898
0.431739 0.942885 0.0642405
0.456153 0.942092 0.0632792
0.481605 0.941207 0.062211
0.508507 0.940078 0.0616922
0.537118 0.938674 0.0623331
0.566323 0.937133 0.0630655
0.594202 0.93611 0.0642557
0.623194 0.934966 0.0653544
0.65275 0.933104 0.0669108
0.682368 0.931548 0.0694896
0.711894 0.929961 0.0731823
0.740459 0.927947 0.0769818
0.768902 0.926009 0.0809033
0.797375 0.923888 0.0850233
0.825711 0.921584 0.0906233
0.854047 0.919188 0.0967117
0.882231 0.916762 0.101534
0.911788 0.913237 0.109712
0.942229 0.90869 0.119142
0.964279 0.902907 0.129519
0.972091 0.894789 0.139025
0.972854 0.881117 0.148669
0.973114 0.862791 0.158724
0.97406 0.838956 0.168124
0.247227 0.97998 0.0803998
0.278599 0.979248 0.078996
0.290654 0.979049 0.0784466
0.304723 0.978759 0.0777295
0.320684 0.9785 0.0768444
0.338415 0.978119 0.0759747
0.357336 0.977829 0.0750896
0.378225 0.977462 0.0740215
0.400977 0.977005 0.0729534
0.424552 0.976486 0.0720378
0.449943 0.975845 0.0710307
0.475883 0.974746 0.0711223
0.502373 0.97293 0.0723735
0.529992 0.971313 0.0731518
0.558618 0.970031 0.0732433
0.58854 0.968658 0.0740215
0.616892 0.967102 0.0765698
0.646235 0.965301 0.0789502
0.675822 0.963134 0.081178
0.705318 0.961089 0.0836194
0.73434 0.95903 0.0865187
0.762448 0.957122 0.0890516
0.791012 0.954849 0.092134
0.818738 0.952026 0.096788
0.847105 0.949004 0.101671
0.875608 0.945617 0.106783
0.904326 0.941482 0.112261
0.934569 0.937301 0.120638
0.965469 0.930922 0.129244
0.971588 0.921538 0.138308
0.971862 0.908476 0.149203
0.973114 0.890761 0.160967
0.973541 0.866926 0.170748
0.232105 0.998474 0.0867781
0.263676 0.99884 0.0864576
0.275975 0.999069 0.0862898
0.289952 0.999298 0.0854353
0.305455 0.999603 0.0843061
0.323064 0.999634 0.0830396
0.34229 0.999588 0.0816205
0.363409 0.999481 0.0810407
0.385519 0.999329 0.0807965
0.409415 0.999176 0.0803388
0.434028 0.99823 0.0797284
0.459037 0.996979 0.0792401
