app/src/main/assets/luts/pronegstd.cube
TITLE "Generated by Resolve"
LUT_3D_SIZE 9
0 0 0
0.0749218 0.0170443 0.016022
0.154711 0.0328832 0.0323491
0.279393 0.0515755 0.0568856
0.459098 0.0667582 0.0895705
0.63827 0.0839551 0.119982
0.791592 0.107744 0.165789
0.927794 0.129427 0.236301
0.94226 0.13518 0.285145
0.0441749 0.114549 0.0229953
0.124956 0.126467 0.0216678
0.216754 0.137133 0.0301671
0.338949 0.155138 0.0397192
0.488533 0.17232 0.0597238
0.645701 0.1953 0.0897231
0.793545 0.219379 0.129763
0.935302 0.240665 0.196796
0.950805 0.236378 0.243656
0.0842756 0.251896 0.0211948
0.170443 0.25713 0.0196231
0.263798 0.2654 0.0196841
0.382162 0.278752 0.0272221
0.518547 0.292943 0.0417334
0.664546 0.313954 0.0644999
0.803388 0.333593 0.0980697
0.938735 0.350942 0.156725
0.959823 0.340398 0.212848
0.135866 0.435218 0.0127413
0.223423 0.434333 0.0149386
0.316426 0.435874 0.0175021
0.429465 0.440543 0.0237888
0.556146 0.447822 0.0347753
0.690364 0.461509 0.0517128
0.820127 0.473533 0.0820478
0.948913 0.482765 0.127596
0.966033 0.460136 0.179599
0.195392 0.623682 0.0235294
0.278904 0.620081 0.0223697
0.366888 0.618219 0.0247959
0.473243 0.618555 0.0260471
0.592828 0.619135 0.0333562
0.7178 0.621897 0.0469368
0.837186 0.624323 0.0683146
0.96083 0.623255 0.110124
0.971618 0.592309 0.156573
0.242924 0.795041 0.0429389
0.319097 0.792096 0.0389868
0.400778 0.789441 0.0370031
0.50309 0.786877 0.0372931
0.616419 0.784222 0.0379797
0.734264 0.781537 0.0449226
0.850797 0.776974 0.0640421
0.973236 0.771206 0.110994
0.974929 0.725017 0.154498
0.256184 0.946593 0.0733196
0.328954 0.944671 0.0692302
0.407874 0.943069 0.0647898
0.508507 0.940078 0.0616922
0.623194 0.934966 0.0653544
0.740459 0.927947 0.0769818
0.854047 0.919188 0.0967117
0.964279 0.902907 0.129519
0.97406 0.838956 0.168124
0.174731 0.999817 0.0945296
0.241764 0.999695 0.0887922
0.321935 0.999741 0.0866102
0.423789 0.999847 0.0874189
0.540047 0.999619 0.0889601
0.66537 0.999817 0.0930037
0.791516 0.999542 0.0998245
0.922759 0.999527 0.12607
0.971603 0.953719 0.171252
0.235859 0.999588 0.263279
0.260182 0.999588 0.261051
0.290501 0.999557 0.258549
0.335042 0.999939 0.255589
0.396246 0.99971 0.252659
0.476173 0.999619 0.250202
0.582849 0.999847 0.244663
0.73547 0.999832 0.240711
0.965408 0.999786 0.228153
0.00686656 0.014725 0.0667735
0.100801 0.0315099 0.0959182
0.19733 0.04477 0.121904
0.342123 0.0596475 0.156222
0.516075 0.0731365 0.192142
0.679591 0.0912947 0.23003
0.82237 0.111757 0.276555
0.942123 0.128145 0.340459
0.94641 0.142229 0.349874
0.0464485 0.141848 0.140703
0.147814 0.150118 0.147601
0.250843 0.158221 0.154864
0.384253 0.168933 0.171099
0.53196 0.184421 0.190524
0.68159 0.20383 0.218311
0.821485 0.223331 0.255772
0.947799 0.239155 0.309758
0.955886 0.2383 0.332982
0.0834058 0.285664 0.165652
0.183658 0.285115 0.165148
0.28893 0.288045 0.168215
0.415045 0.295598 0.175738
0.552361 0.307103 0.186847
0.694453 0.321416 0.206653
0.828046 0.337011 0.239368
0.953414 0.348959 0.283421
0.963119 0.338659 0.314412
0.133715 0.454429 0.181949
0.230976 0.450401 0.177737
0.330922 0.449744 0.175875
0.449485 0.450797 0.178042
0.578851 0.456458 0.184985
0.711101 0.464195 0.197726
0.837629 0.473136 0.220951
0.965072 0.475731 0.260304
0.972778 0.455436 0.289937
0.191043 0.628656 0.193912
0.280659 0.624826 0.188388
0.372595 0.622415 0.184939
0.485176 0.618952 0.18352
0.606607 0.618326 0.184253
0.73022 0.61857 0.18938
0.848981 0.618143 0.203998
0.970626 0.614847 0.234623
0.976471 0.587182 0.270634
0.235752 0.789715 0.202838
0.315663 0.787381 0.195224
0.400931 0.784344 0.190066
0.506432 0.780758 0.185275
0.62298 0.777752 0.180346
0.742687 0.773388 0.181247
0.858274 0.767987 0.193103
0.976486 0.760891 0.224933
0.979263 0.714122 0.257496
0.24538 0.93695 0.215061
0.321935 0.93518 0.209628
0.405356 0.933272 0.204196
0.510719 0.92987 0.199313
0.627878 0.923506 0.197162
0.745052 0.91751 0.199496
0.858671 0.908934 0.208774
0.967666 0.892439 0.227955
0.977264 0.828473 0.252842
0.161532 0.999817 0.204303
0.23357 0.999878 0.198886
0.315343 0.99968 0.19527
0.420539 0.999908 0.193103
0.5411 0.999619 0.189761
0.667491 0.99971 0.189334
0.796841 0.999619 0.192599
0.927199 0.997543 0.207431
0.974823 0.943969 0.237736
0.229847 0.999649 0.310689
0.262242 0.999786 0.312871
0.294133 0.999588 0.31191
0.339117 0.999634 0.30988
0.398367 0.999588 0.304921
0.477241 0.999893 0.300069
0.584085 0.999878 0.292149
0.73727 0.999832 0.282979
0.967178 0.999588 0.260533
0.0178225 0.0281071 0.12752
0.122927 0.0455787 0.172564
0.23621 0.0591897 0.216373
0.395483 0.0708782 0.268681
0.567926 0.0830091 0.315053
0.716976 0.101701 0.358099
0.850477 0.121477 0.403098
0.95227 0.135134 0.461189
0.95494 0.167681 0.454261
0.0441596 0.169345 0.26334
0.164263 0.175692 0.273365
0.279652 0.1794 0.284489
0.421637 0.189242 0.301961
0.568399 0.201434 0.322576
0.713619 0.217273 0.350423
0.846708 0.233768 0.385016
0.95787 0.244739 0.432258
0.964034 0.255604 0.438285
0.0759899 0.315755 0.311925
0.19443 0.311849 0.308827
0.309361 0.311727 0.309758
0.440192 0.316075 0.314534
0.579431 0.323323 0.324453
0.719783 0.333974 0.342718
0.847181 0.345266 0.36759
0.964904 0.350866 0.405737
0.969924 0.348318 0.420493
0.130053 0.474632 0.332433
0.235416 0.4701 0.325567
0.340703 0.466575 0.321004
0.465476 0.466072 0.321553
0.598199 0.466941 0.32343
0.729595 0.471687 0.333165
0.852949 0.475837 0.351766
0.97499 0.476112 0.380819
0.977081 0.459648 0.398367
0.1832 0.637247 0.34403
0.280812 0.632959 0.336828
0.377249 0.628504 0.332113
0.492988 0.624689 0.32459
0.61738 0.621424 0.322454
0.741329 0.618738 0.323064
0.861509 0.615702 0.331365
0.978195 0.611673 0.351263
0.981613 0.584848 0.378363
0.223484 0.787701 0.344808
0.309712 0.784466 0.338567
0.398886 0.781186 0.329015
0.508797 0.778332 0.321172
0.628122 0.773342 0.314885
0.750347 0.768093 0.310231
0.866163 0.762341 0.318074
0.980972 0.755566 0.341207
0.982757 0.705684 0.359152
0.23241 0.929549 0.344961
0.312932 0.927947 0.339483
0.399878 0.925505 0.333654
0.509819 0.921447 0.327871
0.630091 0.915053 0.322301
0.749035 0.908522 0.319448
0.862776 0.898787 0.319844
0.971756 0.881544 0.326452
0.980026 0.817945 0.340307
0.147036 0.999725 0.309041
0.222156 0.999741 0.304891
0.306767 0.999741 0.301183
0.414496 0.999817 0.296651
0.537179 0.999664 0.290318
0.667536 0.999741 0.286519
0.797726 0.999084 0.279377
0.930068 0.992813 0.29041
0.97705 0.933822 0.306004
0.208988 0.999695 0.355001
0.243381 0.999527 0.357107
0.285939 0.999725 0.359747
0.339742 0.999741 0.364599
0.399878 0.999405 0.359579
0.478599 0.999756 0.353475
0.584344 0.999649 0.343755
0.738262 0.999741 0.330678
0.967376 0.999634 0.294896
0.0314183 0.0464179 0.215885
0.151843 0.0648661 0.286473
0.283818 0.0773938 0.348501
0.460853 0.0882277 0.423194
0.616495 0.101869 0.465537
0.755734 0.121157 0.505196
0.881559 0.139055 0.54725
0.961593 0.149187 0.594034
0.96669 0.209644 0.563104
0.041825 0.211261 0.427955
0.181308 0.211368 0.435248
0.315038 0.211368 0.446418
0.459144 0.218158 0.45861
0.607248 0.227756 0.476982
0.747921 0.238804 0.502052
0.87425 0.25124 0.531426
0.970184 0.25684 0.568627
0.972595 0.287816 0.553674
0.0686961 0.352102 0.479606
0.201709 0.344991 0.47509
0.327947 0.343191 0.472374
0.467552 0.343252 0.474617
0.611383 0.346471 0.483116
0.746136 0.353246 0.495583
0.870497 0.359365 0.514351
0.976623 0.359655 0.543435
0.977981 0.370306 0.539178
0.114748 0.501411 0.498878
0.233402 0.494789 0.491386
0.350881 0.490791 0.48719
0.483177 0.486351 0.483543
0.617746 0.485832 0.48127
0.750225 0.484443 0.486
0.870542 0.483833 0.496406
0.9841 0.479515 0.518517
0.981888 0.471962 0.518044
0.165133 0.649592 0.501534
0.270558 0.643549 0.495308
0.375448 0.637797 0.488197
0.498863 0.633219 0.482399
0.627497 0.628519 0.475654
0.754589 0.623362 0.471977
0.873808 0.618509 0.474189
0.987564 0.611093 0.488807
0.986801 0.586267 0.497505
0.202365 0.789273 0.498955
0.295872 0.785794 0.490974
0.392309 0.781826 0.483711
0.507713 0.77818 0.473045
0.63389 0.772015 0.464347
0.758053 0.765438 0.457679
0.875059 0.759289 0.45951
0.985656 0.75053 0.471717
0.986877 0.699397 0.472816
0.208347 0.9196 0.48809
0.295613 0.918029 0.482231
0.388693 0.916259 0.477836
0.503746 0.911757 0.470741
0.627405 0.90547 0.461372
0.750622 0.898283 0.453178
0.865492 0.887999 0.44564
0.977966 0.869963 0.442542
0.983856 0.806821 0.442618
0.120745 0.999664 0.431357
0.198688 0.999573 0.426261
0.288029 0.999756 0.421393
0.402655 0.999771 0.417395
0.530022 0.999969 0.409323
0.664881 0.998322 0.399207
0.798886 0.998886 0.390646
0.934676 0.984848 0.391806
0.979416 0.921614 0.391943
0.176593 0.999832 0.414084
0.2121 0.999908 0.415305
0.258839 0.999741 0.416556
0.320485 0.999649 0.420218
0.399664 0.999817 0.425269
0.48043 0.999603 0.421073
0.584207 0.999725 0.408606
0.739071 0.999664 0.391363
0.969802 0.999557 0.339681
0.0490883 0.0719463 0.349264
0.187274 0.0928511 0.443778
0.342016 0.104677 0.53286
0.513939 0.118868 0.596719
0.662348 0.135485 0.630976
0.79527 0.151873 0.665171
0.911131 0.165957 0.699306
0.972305 0.172152 0.731167
0.975692 0.243214 0.664393
0.0439002 0.260685 0.611673
0.19234 0.255802 0.614694
0.342504 0.254765 0.62092
0.49752 0.257023 0.631067
0.646296 0.262898 0.646601
0.781537 0.271397 0.663432
0.899962 0.276463 0.684947
0.979263 0.276402 0.710506
0.980972 0.324163 0.661784
0.0571145 0.39588 0.647974
0.200671 0.388434 0.646204
0.343465 0.384009 0.646052
0.493675 0.37908 0.647334
0.640284 0.378088 0.652323
0.773175 0.379904 0.657526
0.89163 0.379217 0.669474
0.986145 0.375784 0.688777
0.98616 0.405844 0.655833
0.0817121 0.533211 0.660334
0.221851 0.525444 0.657526
0.35227 0.518425 0.654566
0.496483 0.512184 0.648936
0.636271 0.506691 0.647776
0.76875 0.502556 0.647135
0.889067 0.497047 0.651011
0.991684 0.489754 0.663569
0.989868 0.495293 0.641627
0.130999 0.666484 0.659495
0.249989 0.661219 0.655192
0.366796 0.654688 0.649378
0.501381 0.647608 0.643397
0.637583 0.640131 0.637919
0.767407 0.6336 0.632136
0.887602 0.625208 0.630106
0.992859 0.615641 0.636576
0.992264 0.593164 0.620081
0.166873 0.795331 0.651591
0.27039 0.791104 0.64715
0.377447 0.786633 0.64123
0.505074 0.781079 0.63447
0.636591 0.774624 0.624933
0.766445 0.767224 0.616083
0.884672 0.759319 0.611841
0.989929 0.745724 0.610239
0.990143 0.69514 0.59086
0.166445 0.909682 0.627192
0.261662 0.908019 0.623743
0.364553 0.906325 0.619303
0.487175 0.901076 0.611749
0.618982 0.894987 0.603143
0.747463 0.886915 0.592935
0.866194 0.876478 0.579629
0.983902 0.857588 0.56788
0.988464 0.79527 0.554574
0.0806439 0.99884 0.556588
0.165087 0.998917 0.555138
0.260594 0.999161 0.551736
0.381399 0.999512 0.543694
0.517098 0.996445 0.534966
0.658091 0.994263 0.525154
0.796887 0.98883 0.510613
0.936599 0.971633 0.503975
0.982544 0.907271 0.491218
0.128969 0.999924 0.487953
0.169635 0.999756 0.486809
0.218158 0.999634 0.486717
0.286259 0.999893 0.486885
0.372961 0.999451 0.489067
0.475883 0.999603 0.495354
0.584466 0.999817 0.487511
0.740612 0.999664 0.465324
0.970764 0.999771 0.395529
0.0657359 0.115892 0.539223
0.225895 0.136873 0.653422
0.395941 0.155642 0.744945
0.561669 0.168383 0.782162
0.708247 0.182696 0.80882
0.831922 0.195224 0.8318
0.94168 0.205264 0.855085
0.9832 0.212406 0.867689
0.9832 0.280003 0.769711
0.0492866 0.32256 0.789899
0.190616 0.31487 0.790448
0.360082 0.310842 0.799802
0.526925 0.309865 0.810452
0.680278 0.309422 0.819913
0.811246 0.311116 0.829541
0.925994 0.311192 0.842878
0.990417 0.308919 0.85507
0.989654 0.351766 0.769558
0.0491798 0.447883 0.809171
0.17879 0.438163 0.80795
0.342184 0.431296 0.811643
0.507515 0.423682 0.816464
0.661234 0.419684 0.818509
0.796826 0.415106 0.821607
0.914076 0.409155 0.828672
0.994675 0.400793 0.838697
0.992035 0.427161 0.763348
0.0492256 0.570459 0.811032
0.186725 0.562814 0.809888
0.337255 0.553994 0.812482
0.497673 0.545556 0.811826
0.648814 0.537804 0.810071
0.785443 0.528298 0.81062
0.905852 0.51928 0.809491
0.998611 0.508598 0.81651
0.995926 0.51516 0.751431
0.0611734 0.690471 0.802075
0.205798 0.684581 0.802136
0.342138 0.678218 0.802792
0.491905 0.669688 0.800427
0.640223 0.660792 0.79617
0.77792 0.650904 0.791043
0.900755 0.639841 0.788647
0.99826 0.626978 0.788434
0.996796 0.608988 0.737545
0.100725 0.803754 0.791623
0.219303 0.801801 0.789975
0.345037 0.79733 0.790417
0.487419 0.790845 0.785824
0.634089 0.782269 0.779782
0.76994 0.772168 0.770459
0.890669 0.760235 0.760998
0.993271 0.739773 0.748363
0.994202 0.695827 0.710384
0.0985428 0.896925 0.751934
0.203265 0.896071 0.750301
0.318318 0.89427 0.747829
0.45452 0.889754 0.74519
0.597147 0.88365 0.737499
0.738384 0.874891 0.728405
0.862211 0.863523 0.71545
0.985519 0.844282 0.699168
0.991394 0.786572 0.670939
0.0337835 0.991226 0.677485
0.104311 0.992035 0.675288
0.207919 0.991836 0.6748
0.342153 0.988968 0.669093
0.490135 0.985855 0.663233
0.64332 0.981628 0.652979
0.791394 0.973312 0.6392
0.937591 0.956725 0.627268
0.985718 0.891707 0.601511
0.0500801 0.999771 0.575616
0.095552 0.999847 0.574273
0.150942 0.999649 0.571633
0.22858 0.999847 0.569589
0.327642 0.999908 0.569162
0.443824 0.999847 0.570397
0.582284 0.999527 0.576181
0.740795 0.999405 0.557519
0.97351 0.999649 0.4654
0.0654154 0.188708 0.782712
0.244678 0.219974 0.883009
0.426444 0.238621 0.936889
0.59527 0.246616 0.959121
0.74284 0.254612 0.97702
0.863111 0.263355 0.986374
0.970291 0.268681 0.995026
0.995941 0.275273 0.991913
0.991806 0.316869 0.883574
0.0539406 0.400015 0.94342
0.146838 0.389899 0.941924
0.349126 0.384894 0.958434
0.539071 0.379889 0.971176
0.702174 0.375479 0.980377
0.836072 0.371832 0.984726
0.949813 0.366247 0.990066
0.999634 0.361349 0.989303
0.995895 0.382177 0.883803
0.0513161 0.513756 0.952407
0.105714 0.502327 0.947616
0.306401 0.495003 0.960525
0.500816 0.486076 0.971191
0.672389 0.476295 0.975387
0.814527 0.467018 0.979889
0.935073 0.457343 0.983871
0.999924 0.442298 0.985245
0.998856 0.446906 0.878096
0.045594 0.62359 0.951812
0.0968643 0.612833 0.947295
0.284443 0.605081 0.954955
0.475257 0.596109 0.961563
0.649149 0.583474 0.966751
0.796216 0.572183 0.965606
0.922408 0.558633 0.967376
0.999863 0.534752 0.961791
0.999863 0.524956 0.864378
0.0399939 0.721157 0.937758
0.100999 0.714961 0.934859
0.27364 0.710185 0.943465
0.456168 0.702525 0.947875
0.627314 0.691142 0.947646
0.779339 0.676417 0.946044
0.904631 0.660838 0.937926
0.999054 0.635691 0.92549
0.999451 0.613642 0.843473
0.0326696 0.803601 0.910002
0.0998245 0.800183 0.909438
0.253147 0.797162 0.914092
0.425849 0.791943 0.916838
0.596658 0.78291 0.914641
0.75053 0.771893 0.906844
0.880461 0.756863 0.897612
0.993149 0.734249 0.883299
0.997909 0.703349 0.819059
0.0323033 0.882277 0.869413
0.0837415 0.880705 0.866651
0.221851 0.879835 0.86949
0.384161 0.877485 0.870558
0.549859 0.87013 0.866239
0.708156 0.86276 0.859754
0.849699 0.850507 0.850156
0.9785 0.830289 0.832456
0.995392 0.781674 0.786969
0.0161135 0.971725 0.801114
0.0339666 0.970581 0.797864
0.110567 0.970062 0.796078
0.264485 0.969879 0.795117
0.435019 0.967163 0.791623
0.607767 0.963012 0.784344
0.774121 0.955062 0.771878
0.933013 0.938704 0.75697
0.989837 0.876158 0.723629
0.00807202 0.999725 0.682872
0.0112459 0.999603 0.678691
0.0379644 0.999649 0.674647
0.120592 0.999847 0.671275
0.238834 0.999771 0.668818
0.38024 0.999664 0.667018
0.542397 0.999603 0.664637
0.738186 0.999924 0.665202
0.977172 0.999863 0.561349
0.0577859 0.329137 0.999664
0.164874 0.359945 0.999542
0.394797 0.365347 1
0.597406 0.369314 0.999527
0.761761 0.372702 0.999664
0.88452 0.375463 0.999878
0.987106 0.368856 0.999924
0.999832 0.354269 0.99971
0.999832 0.371389 0.99826
0.0558175 0.507622 0.999985
0.054902 0.500511 0.999664
0.24802 0.495262 0.999908
0.495216 0.487755 0.999359
0.692378 0.477852 0.999847
0.839445 0.46479 0.999496
0.955444 0.448661 0.999268
0.999847 0.423255 0.999496
0.999893 0.424018 0.996719
0.0501259 0.585214 0.999893
0.0504158 0.581552 0.999756
0.150484 0.574929 0.999756
0.418357 0.568612 0.999817
0.633234 0.555657 0.999878
0.799878 0.540032 0.999786
0.927031 0.519295 0.99968
0.999893 0.488975 0.999512
0.999878 0.477028 0.99762
0.0461891 0.657649 0.999969
0.0461738 0.652689 0.999969
0.107439 0.648386 0.999786
0.352819 0.643763 0.999786
0.576837 0.632776 0.99968
0.758434 0.616403 0.999725
0.89807 0.595422 0.999573
0.997986 0.564218 0.999603
0.999985 0.54432 0.994537
0.0413672 0.725155 1
0.0414435 0.721401 0.999725
0.0644388 0.717632 0.999954
0.299413 0.716823 0.999878
0.523934 0.707317 0.999924
0.716869 0.691829 0.999283
0.869154 0.673762 0.999451
0.992035 0.645777 0.99942
0.999954 0.618463 0.97763
0.0363012 0.789502 0.999985
0.0361334 0.788052 0.999969
0.0517281 0.785473 0.999802
0.252964 0.784375 1
0.476692 0.77821 0.999649
0.676905 0.767224 0.999786
0.83946 0.752194 0.999802
0.978958 0.728435 0.999222
0.999695 0.696239 0.943084
0.0290074 0.859266 0.984375
0.0299382 0.857588 0.983307
0.0388037 0.855375 0.983246
0.196902 0.856138 0.994217
0.418204 0.85304 0.997955
0.623713 0.84361 0.999069
0.802304 0.832547 0.994919
0.956542 0.811978 0.98117
0.99968 0.775525 0.903075
0.0210269 0.942061 0.945312
0.0206912 0.941253 0.941497
0.0205539 0.940169 0.937118
0.0649424 0.939925 0.931731
0.283268 0.939391 0.93637
0.508858 0.935561 0.933608
0.719921 0.928313 0.926909
0.911223 0.912703 0.911482
0.99382 0.865522 0.86099
0.0109865 0.999237 0.8336
0.0109407 0.99971 0.828962
0.0105898 0.999496 0.822324
0.0104067 0.999954 0.813962
0.0308385 0.999756 0.804013
0.205173 0.999588 0.803479
0.432609 0.999847 0.798581
0.699428 0.999863 0.792508
0.983185 0.999847 0.711925
0.0557107 0.479698 0.999695
0.0550851 0.483421 0.999451
0.0547036 0.488731 0.99968
0.291203 0.504189 0.999374
0.531228 0.523735 0.999725
0.701015 0.534417 0.99942
0.842054 0.535103 0.999664
0.96698 0.524269 0.999771
0.999832 0.472816 0.999847
0.0528725 0.540352 0.99971
0.0530556 0.541146 0.999847
0.05243 0.543297 0.999832
0.103349 0.545739 1
0.411826 0.559106 0.999908
0.62031 0.573877 0.999878
0.784955 0.575219 0.999817
0.926955 0.567239 0.999542
0.999802 0.518273 0.999802
0.051194 0.587076 1
0.0502785 0.586252 0.999939
0.0517891 0.585229 0.999893
0.0542458 0.585641 1
0.342687 0.592538 0.999756
0.578302 0.602609 0.999603
0.74757 0.607248 0.999084
0.895277 0.603876 0.999893
0.999954 0.567956 0.999481
0.0477455 0.639231 0.999985
0.0475471 0.637278 0.999908
0.0484169 0.635294 0.999664
0.0532082 0.632853 1
0.284352 0.635493 0.999893
0.538811 0.639551 0.999954
0.722988 0.644709 0.999405
0.873045 0.641337 0.999619
0.999847 0.617853 0.999802
0.043534 0.695125 0.999924
0.0420233 0.693355 1
0.0429694 0.690791 0.999725
0.0457465 0.685344 0.999847
0.240345 0.684794 0.999893
0.502098 0.685802 0.999985
0.699367 0.688029 0.999542
0.855924 0.683284 0.999786
0.998459 0.662242 0.999786
0.0394293 0.753719 0.999969
0.0390173 0.752148 1
0.0382696 0.749218 0.999893
0.0410925 0.742611 0.999954
0.211948 0.740993 0.999649
0.471534 0.738277 0.999557
0.681117 0.736431 0.999481
0.845701 0.732509 0.999939
0.999847 0.709087 0.999207
0.0328527 0.819394 0.994476
0.034287 0.816617 0.994079
0.0345312 0.813352 0.997299
0.0337072 0.808881 0.996918
0.175082 0.805966 0.999893
0.434028 0.802152 0.999878
0.659419 0.794736 0.999939
0.843442 0.789456 0.99968
0.999924 0.753521 0.999908
0.0255894 0.899107 0.970382
0.0250095 0.897902 0.970977
0.0245823 0.896269 0.972824
0.0269017 0.892531 0.972992
0.066392 0.889647 0.97911
0.344869 0.886625 0.999939
0.600153 0.878782 0.999756
0.829602 0.86807 0.999832
0.9991 0.830747 0.999725
0.0134737 0.999268 0.918547
0.0134737 0.999268 0.918547
0.0143587 0.999924 0.919417
0.0144503 1 0.919524
0.0144503 1 0.919554
0.0144503 0.999573 0.922988
0.1458 0.999573 0.933288
0.538796 0.999741 0.958434
1 1 1
