app/src/main/assets/luts/pronegstd.cube
TITLE "Generated by Resolve"
LUT_3D_SIZE 5
0 0 0
0.154711 0.0328832 0.0323491
0.459098 0.0667582 0.0895705
0.791592 0.107744 0.165789
0.94226 0.13518 0.285145
0.0842756 0.251896 0.0211948
0.263798 0.2654 0.0196841
0.518547 0.292943 0.0417334
0.803388 0.333593 0.0980697
0.959823 0.340398 0.212848
0.195392 0.623682 0.0235294
0.366888 0.618219 0.0247959
0.592828 0.619135 0.0333562
0.837186 0.624323 0.0683146
0.971618 0.592309 0.156573
0.256184 0.946593 0.0733196
0.407874 0.943069 0.0647898
0.623194 0.934966 0.0653544
0.854047 0.919188 0.0967117
0.97406 0.838956 0.168124
0.235859 0.999588 0.263279
0.290501 0.999557 0.258549
0.396246 0.99971 0.252659
0.582849 0.999847 0.244663
0.965408 0.999786 0.228153
0.0178225 0.0281071 0.12752
0.23621 0.0591897 0.216373
0.567926 0.0830091 0.315053
0.850477 0.121477 0.403098
0.95494 0.167681 0.454261
0.0759899 0.315755 0.311925
0.309361 0.311727 0.309758
0.579431 0.323323 0.324453
0.847181 0.345266 0.36759
0.969924 0.348318 0.420493
0.1832 0.637247 0.34403
0.377249 0.628504 0.332113
0.61738 0.621424 0.322454
0.861509 0.615702 0.331365
0.981613 0.584848 0.378363
0.23241 0.929549 0.344961
0.399878 0.925505 0.333654
0.630091 0.915053 0.322301
0.862776 0.898787 0.319844
0.980026 0.817945 0.340307
0.208988 0.999695 0.355001
0.285939 0.999725 0.359747
0.399878 0.999405 0.359579
0.584344 0.999649 0.343755
0.967376 0.999634 0.294896
0.0490883 0.0719463 0.349264
0.342016 0.104677 0.53286
0.662348 0.135485 0.630976
0.911131 0.165957 0.699306
0.975692 0.243214 0.664393
0.0571145 0.39588 0.647974
0.343465 0.384009 0.646052
0.640284 0.378088 0.652323
0.89163 0.379217 0.669474
0.98616 0.405844 0.655833
0.130999 0.666484 0.659495
0.366796 0.654688 0.649378
0.637583 0.640131 0.637919
0.887602 0.625208 0.630106
0.992264 0.593164 0.620081
0.166445 0.909682 0.627192
0.364553 0.906325 0.619303
0.618982 0.894987 0.603143
0.866194 0.876478 0.579629
0.988464 0.79527 0.554574
0.128969 0.999924 0.487953
0.218158 0.999634 0.486717
0.372961 0.999451 0.489067
0.584466 0.999817 0.487511
0.970764 0.999771 0.395529
0.0654154 0.188708 0.782712
0.426444 0.238621 0.936889
0.74284 0.254612 0.97702
0.970291 0.268681 0.995026
0.991806 0.316869 0.883574
0.0513161 0.513756 0.952407
0.306401 0.495003 0.960525
0.672389 0.476295 0.975387
0.935073 0.457343 0.983871
0.998856 0.446906 0.878096
0.0399939 0.721157 0.937758
0.27364 0.710185 0.943465
0.627314 0.691142 0.947646
0.904631 0.660838 0.937926
0.999451 0.613642 0.843473
0.0323033 0.882277 0.869413
0.221851 0.879835 0.86949
0.549859 0.87013 0.866239
0.849699 0.850507 0.850156
0.995392 0.781674 0.786969
0.00807202 0.999725 0.682872
0.0379644 0.999649 0.674647
0.238834 0.999771 0.668818
0.542397 0.999603 0.664637
0.977172 0.999863 0.561349
0.0557107 0.479698 0.999695
0.0547036 0.488731 0.99968
0.531228 0.523735 0.999725
0.842054 0.535103 0.999664
0.999832 0.472816 0.999847
0.051194 0.587076 1
0.0517891 0.585229 0.999893
0.342687 0.592538 0.999756
0.74757 0.607248 0.999084
0.999954 0.567956 0.999481
0.043534 0.695125 0.999924
0.0429694 0.690791 0.999725
0.240345 0.684794 0.999893
0.699367 0.688029 0.999542
0.998459 0.662242 0.999786
0.0328527 0.819394 0.994476
0.0345312 0.813352 0.997299
0.175082 0.805966 0.999893
0.659419 0.794736 0.999939
0.999924 0.753521 0.999908
0.0134737 0.999268 0.918547
0.0143587 0.999924 0.919417
0.0144503 1 0.919554
0.1458 0.999573 0.933288
1 1 1
