app/src/main/assets/luts/provia.cube
TITLE "Generated by Resolve"
LUT_3D_SIZE 33
0 0 0
0.0440223 0.00477607 0.00172427
0.0608835 0.00598154 0.00158694
0.0789197 0.00807202 0.00376898
0.0981613 0.0083772 0.00483711
0.124071 0.0112764 0.00585946
0.153689 0.0128481 0.00714122
0.186526 0.016556 0.0100557
0.220157 0.020325 0.0093843
0.258412 0.0234226 0.0115663
0.298466 0.0253147 0.0164645
0.340505 0.0272831 0.0181277
0.383856 0.0302892 0.0200656
0.432242 0.0315099 0.0260014
0.484352 0.0345769 0.0260471
0.536767 0.0357366 0.0324407
0.592432 0.03888 0.0368353
0.643046 0.0416419 0.0427863
0.68893 0.0456703 0.0476844
0.733593 0.0501869 0.0508736
0.776577 0.0549325 0.0593423
0.818311 0.0613107 0.067216
0.859815 0.067277 0.0772564
0.899718 0.0741588 0.0888075
0.938735 0.0808576 0.105226
0.978759 0.0888838 0.120851
0.994095 0.0955215 0.145266
0.999542 0.104036 0.170169
0.999985 0.113436 0.198764
0.999878 0.122896 0.232563
0.999374 0.130404 0.268147
0.999466 0.131472 0.275242
0.999741 0.133898 0.273823
0.00518807 0.0487831 0.00277714
0.050248 0.0521248 0.000137331
0.0692912 0.0530251 0.00184634
0.0878004 0.0551308 0.000427253
0.111772 0.0566873 0.00155642
0.140932 0.058381 0.00103761
0.170901 0.0603647 0.00149538
0.205188 0.0620737 0.00204471
0.243336 0.0642557 0.00172427
0.282429 0.066041 0.00296025
0.323934 0.0681773 0.00135805
0.367529 0.0703746 0.00283818
0.413443 0.0725261 0.00720226
0.458976 0.0755932 0.0108339
0.50399 0.078584 0.0124819
0.547051 0.0823224 0.0119631
0.592767 0.0856641 0.0152743
0.638132 0.0904707 0.0194858
0.682506 0.0944686 0.0268406
0.726162 0.0990463 0.032639
0.769985 0.105165 0.0378271
0.811795 0.112428 0.0450752
0.853834 0.117662 0.054612
0.894636 0.124041 0.0665446
0.934722 0.13193 0.0792096
0.973648 0.140032 0.0975967
0.993271 0.148943 0.118715
0.999435 0.157061 0.142214
0.999573 0.164996 0.168978
0.999573 0.173724 0.201144
0.999481 0.179995 0.231846
0.999893 0.180743 0.24596
0.999313 0.179553 0.244526
0.00630198 0.0666667 0.000885023
0.0518959 0.0715496 0.00128176
0.0706188 0.0733196 0.00170901
0.0915847 0.0741741 0.00218204
0.116136 0.0754253 0.00117494
0.144839 0.076997 0.000686656
0.17612 0.0777447 0.000228885
0.210468 0.0803388 7.62951e-05
0.248737 0.0824903 0.00015259
0.289204 0.0830549 0.00015259
0.33167 0.0857252 4.57771e-05
0.37377 0.087129 9.15541e-05
0.414725 0.0912337 0.0016022
0.458595 0.0941787 0.00389105
0.502937 0.0966964 0.00546273
0.547707 0.0999008 0.0078584
0.590936 0.105486 0.00640879
0.63682 0.109377 0.0117494
0.681575 0.113085 0.0175174
0.725643 0.117845 0.0237125
0.768826 0.125505 0.0281224
0.810407 0.132113 0.0360418
0.852506 0.137041 0.0466163
0.893736 0.144564 0.0567178
0.933333 0.152483 0.0699321
0.971923 0.160159 0.0886397
0.994125 0.168978 0.108537
0.999496 0.176913 0.131395
0.999557 0.184421 0.159609
0.999374 0.192721 0.191913
0.999542 0.199542 0.221027
0.999832 0.199847 0.237354
0.999466 0.197543 0.234745
0.00766003 0.0907759 0.00222782
0.0545205 0.0927901 0.00132753
0.0741131 0.0932021 0.00102235
0.0956741 0.0947433 0.000259403
0.119554 0.0961013 0
0.147875 0.097673 0.000381476
0.180987 0.0990005 0.000289921
0.216464 0.10071 0.000213626
0.254841 0.102281 0.000274662
0.295171 0.102907 7.62951e-05
0.333989 0.105303 3.0518e-05
0.371496 0.109957 0.000335698
0.414267 0.113054 0.000610361
0.457862 0.115267 0.000564584
0.502281 0.118654 0.00132753
0.547005 0.123033 0.00138857
0.590478 0.126558 0.0030518
0.635767 0.13167 0.00421149
0.679088 0.135439 0.00944533
0.723308 0.141131 0.0137026
0.767437 0.147814 0.0199893
0.809247 0.154589 0.0250401
0.851759 0.161593 0.0349279
0.8925 0.168399 0.0464027
0.931945 0.175311 0.0602274
0.968734 0.183246 0.0771954
0.995773 0.192309 0.0935378
0.999512 0.198688 0.119707
0.999435 0.206363 0.148577
0.999466 0.215106 0.179095
0.99971 0.221408 0.210117
0.999756 0.220737 0.228031
0.999603 0.21799 0.225818
0.00595102 0.116686 0.000640879
0.0560464 0.117632 0.000274662
0.0742199 0.118959 6.10361e-05
0.0965896 0.120562 0.000244144
0.121035 0.122484 0.000457771
0.152224 0.123186 3.0518e-05
0.184451 0.123735 7.62951e-05
0.220859 0.126162 1.5259e-05
0.258274 0.127153 0.000244144
0.296483 0.128878 0.000427253
0.335073 0.131624 0.000396735
0.37409 0.134676 0.000183108
0.415152 0.137636 0.000411994
0.457847 0.141207 6.10361e-05
0.502281 0.144976 4.57771e-05
0.546761 0.148409 0.000198367
0.591211 0.152285 0.000320439
0.635096 0.156802 0.000900282
0.678279 0.162509 0.00259403
0.721859 0.168994 0.00555428
0.76463 0.175326 0.00874342
0.809125 0.181094 0.0142061
0.850584 0.187442 0.0240482
0.890654 0.194095 0.0339818
0.929976 0.201251 0.0469062
0.967239 0.208621 0.0648203
0.9991 0.217334 0.0830701
0.999298 0.224063 0.108873
0.999496 0.230838 0.135149
0.999405 0.239567 0.1664
0.999695 0.244724 0.200092
0.999725 0.244694 0.219409
0.999634 0.239979 0.21651
0.0107576 0.146487 0.00062562
0.0578622 0.149523 0.00015259
0.0771038 0.149996 0.000610361
0.0975204 0.152392 0.000198367
0.122393 0.152956 3.0518e-05
0.152132 0.15378 4.57771e-05
0.186572 0.155474 0.000183108
0.222217 0.156374 0.000457771
0.258106 0.157916 4.57771e-05
0.297505 0.159564 1.5259e-05
0.335149 0.162814 0.000106813
0.375051 0.165316 0.000366217
0.417624 0.167666 0.00030518
0.460761 0.170565 0.000289921
0.504494 0.174243 6.10361e-05
0.547906 0.177935 0
0.591516 0.182208 3.0518e-05
0.635111 0.186847 0.00015259
0.678386 0.193072 0.00047303
0.721401 0.198566 0.00140383
0.764813 0.204135 0.00276188
0.807263 0.209903 0.00634775
0.849302 0.216388 0.0110628
0.889723 0.22298 0.0219577
0.929961 0.229191 0.0371252
0.967422 0.236301 0.0527657
0.998169 0.243717 0.0709544
0.999252 0.251164 0.0947585
0.999268 0.257939 0.1234
0.999359 0.264454 0.155077
0.999588 0.270665 0.190723
0.999557 0.27042 0.207828
0.999405 0.264332 0.207065
0.00881971 0.187533 0.000457771
0.057084 0.187366 0.000274662
0.0773175 0.187472 0.000106813
0.0994125 0.187411 3.0518e-05
0.123568 0.187869 9.15541e-05
0.154925 0.188449 0.000198367
0.187167 0.189837 0.000137331
0.223499 0.190524 0.000183108
0.260716 0.191806 0.000228885
0.297185 0.194751 0.000122072
0.336797 0.196139 0.000579843
0.377874 0.198505 0.000183108
0.419791 0.200977 0.000106813
0.462531 0.203647 6.10361e-05
0.506233 0.206775 1.5259e-05
0.551476 0.20943 0.000228885
0.593515 0.21355 0.000274662
0.635706 0.219196 0.000137331
0.678965 0.225177 7.62951e-05
0.722423 0.230243 0.000167849
0.765942 0.234836 0.000503548
0.80795 0.240497 0.000213626
0.848951 0.247868 0.00271611
0.889784 0.253315 0.0128176
0.928771 0.259815 0.0235294
0.966476 0.266194 0.0383154
0.995193 0.27245 0.0558938
0.999374 0.27985 0.0788891
0.999298 0.286549 0.110353
0.999405 0.292393 0.143069
0.999405 0.299947 0.179736
0.999496 0.297566 0.195224
0.999466 0.290043 0.19704
0.00962844 0.227695 0.000366217
0.0590372 0.225528 1.5259e-05
0.0789197 0.225238 0
0.100816 0.224872 0
0.126101 0.226596 0.000122072
0.155383 0.228 0.000106813
0.189532 0.228 3.0518e-05
0.227161 0.227848 0.000259403
0.264149 0.230228 0.000350958
0.301808 0.231724 0.000259403
0.340932 0.232837 0.000213626
0.381109 0.235508 0.000259403
0.419883 0.237552 0.000183108
0.462638 0.239597 0.000106813
0.507301 0.241733 9.15541e-05
0.55079 0.24506 0
0.59353 0.250187 1.5259e-05
0.637064 0.254536 7.62951e-05
0.680568 0.259159 6.10361e-05
0.72343 0.264454 0
0.767468 0.268803 0.000167849
0.809628 0.274281 0.000244144
0.849531 0.280415 0.000549325
0.888869 0.285389 0.00175479
0.927306 0.291539 0.0115511
0.965331 0.29723 0.0240177
0.991592 0.303227 0.04271
0.999374 0.310216 0.0672313
0.999557 0.315572 0.0962539
0.999481 0.322179 0.13022
0.999466 0.327825 0.16701
0.999649 0.32549 0.1841
0.999466 0.317128 0.185885
0.0112154 0.269383 0.000137331
0.0579995 0.269459 0.000549325
0.0785382 0.269139 0.000137331
0.102068 0.26923 3.0518e-05
0.128862 0.26923 0
0.159747 0.269398 3.0518e-05
0.193225 0.268742 7.62951e-05
0.228611 0.269017 0.000122072
0.266285 0.270344 1.5259e-05
0.305699 0.271824 0.000274662
0.343999 0.273045 0.000381476
0.383001 0.274342 0.000366217
0.423835 0.277043 0.000106813
0.466514 0.278676 7.62951e-05
0.509453 0.280812 3.0518e-05
0.552895 0.283207 7.62951e-05
0.595941 0.286473 0.000289921
0.639475 0.291005 9.15541e-05
0.682704 0.295476 1.5259e-05
0.725536 0.300145 3.0518e-05
0.768978 0.304356 6.10361e-05
0.8103 0.309117 1.5259e-05
0.850278 0.31339 1.5259e-05
0.888151 0.318532 0.00047303
0.926116 0.324147 0.00343328
0.964034 0.329534 0.0153506
0.988159 0.335302 0.0324407
0.999588 0.34023 0.0551156
0.999756 0.345541 0.0819867
0.999298 0.35285 0.116503
0.999374 0.356985 0.154162
0.999557 0.353704 0.170748
0.999542 0.346044 0.173892
0.0130312 0.314443 0.000228885
0.0565194 0.312963 0.000411994
0.0775921 0.312032 0.000198367
0.101274 0.311177 4.57771e-05
0.129793 0.31133 0.000244144
0.160601 0.311254 0.000457771
0.19382 0.311559 0.000595102
0.2309 0.311696 0.000259403
0.268421 0.312917 0.000106813
0.30634 0.314061 3.0518e-05
0.345281 0.31429 0.000122072
0.386267 0.315175 0.000122072
0.427848 0.316274 7.62951e-05
0.469825 0.318517 1.5259e-05
0.512871 0.320409 0.000503548
0.554788 0.323339 0.000396735
0.597833 0.326162 7.62951e-05
0.643488 0.327901 0.000122072
0.685588 0.33228 9.15541e-05
0.727764 0.336843 3.0518e-05
0.769345 0.340841 0
0.809812 0.343832 0
0.849058 0.34815 9.15541e-05
0.888182 0.352895 0.000167849
0.925689 0.358251 0.00138857
0.961181 0.364141 0.00834669
0.987808 0.368704 0.0233158
0.999725 0.372885 0.0438697
0.999405 0.377737 0.0715801
0.998947 0.384131 0.106294
0.999191 0.387854 0.137987
0.999527 0.383963 0.157382
0.999771 0.375143 0.162005
0.0131228 0.359533 0.000640879
0.0589761 0.357473 0.000259403
0.0792706 0.357183 9.15541e-05
0.102419 0.356771 0.000183108
0.129992 0.356863 0.000198367
0.161593 0.357519 0.000228885
0.196887 0.356771 0.000183108
0.233188 0.356237 6.10361e-05
0.270115 0.356085 1.5259e-05
0.309056 0.356558 0
0.348775 0.357183 1.5259e-05
0.388647 0.357229 9.15541e-05
0.430442 0.358373 9.15541e-05
0.472953 0.360006 0.000167849
0.516136 0.362173 0.000366217
0.55903 0.363561 0.000137331
0.602014 0.365835 4.57771e-05
0.644877 0.368811 4.57771e-05
0.687617 0.37261 9.15541e-05
0.729107 0.375662 6.10361e-05
0.770245 0.378668 1.5259e-05
0.811673 0.382193 9.15541e-05
0.849867 0.386069 3.0518e-05
0.886336 0.390539 0.000167849
0.921843 0.395193 0.000228885
0.957809 0.400092 0.000289921
0.989364 0.404425 0.0136873
0.998474 0.407538 0.0347906
0.99942 0.412177 0.0620279
0.999344 0.417716 0.093019
0.999466 0.420127 0.124605
0.999405 0.416007 0.145159
0.999832 0.405463 0.150958
0.00991836 0.405417 0.00047303
0.0577096 0.403738 0.000320439
0.0774548 0.404211 7.62951e-05
0.102052 0.403647 0.00030518
0.12987 0.402884 0.000747692
0.162188 0.40209 0.000518807
0.197086 0.40119 0.000106813
0.234226 0.401495 6.10361e-05
0.272557 0.401633 6.10361e-05
0.312016 0.401633 0.000183108
0.351415 0.401572 0.000183108
0.391882 0.40177 0.000106813
0.434012 0.402441 4.57771e-05
0.476997 0.403143 0.000183108
0.518868 0.40441 0.00015259
0.560052 0.40647 1.5259e-05
0.603052 0.40763 6.10361e-05
0.646906 0.409583 0.000167849
0.689967 0.411978 0.00030518
0.73109 0.415518 7.62951e-05
0.772213 0.418738 0
0.81181 0.422065 0
0.848432 0.425559 0
0.88481 0.429343 6.10361e-05
0.920485 0.433234 0.000381476
0.955322 0.437491 0.00180056
0.990753 0.441413 0.00952163
0.997406 0.443137 0.0268559
0.999237 0.447379 0.0502785
0.999176 0.451865 0.0789654
0.999329 0.453803 0.110475
0.999786 0.448615 0.134783
0.999908 0.436835 0.140017
0.0019379 0.457282 0.000167849
0.0558022 0.453925 7.62951e-05
0.0768597 0.45362 0.000366217
0.100023 0.453407 0.000686656
0.129839 0.452537 0.000427253
0.162982 0.451499 0.000106813
0.197864 0.450904 0.000167849
0.235172 0.449882 0.000320439
0.275074 0.4486 0.000579843
0.314611 0.448112 0.00047303
0.353491 0.448234 0.000167849
0.395895 0.448035 9.15541e-05
0.437537 0.448585 4.57771e-05
0.47808 0.449805 0
0.520333 0.450538 3.0518e-05
0.563424 0.451118 6.10361e-05
0.606806 0.45153 1.5259e-05
0.648905 0.453483 0.000228885
0.690532 0.455543 0.000259403
0.731929 0.457664 1.5259e-05
0.771939 0.460563 0
0.810208 0.463157 3.0518e-05
0.84712 0.466056 0.000167849
0.884627 0.468421 0.000289921
0.919722 0.471962 0.000244144
0.953964 0.47483 0.00117494
0.983291 0.477104 0.00343328
0.999054 0.480232 0.014725
0.998993 0.482918 0.0390021
0.999023 0.486854 0.0686351
0.999466 0.487953 0.106645
0.999634 0.480613 0.124559
0.999329 0.467979 0.127718
0.00749218 0.507713 0.000122072
0.0525673 0.505714 0.000366217
0.0748455 0.504738 0.000396735
0.101228 0.503777 0.000198367
0.130312 0.502495 1.5259e-05
0.162799 0.501274 0.00030518
0.197559 0.500374 0.000518807
0.235691 0.499123 0.000213626
0.274937 0.497856 9.15541e-05
0.313252 0.497597 0.000259403
0.353628 0.496986 0.00030518
0.394919 0.496193 0.000335698
0.436515 0.496193 0.000137331
0.479271 0.496071 3.0518e-05
0.523079 0.496101 9.15541e-05
0.565103 0.496391 0.000198367
0.607034 0.497078 0.000289921
0.650629 0.497108 0.000106813
0.69131 0.499168 1.5259e-05
0.732097 0.500832 0
0.772381 0.501549 0
0.808942 0.504356 0.000167849
0.845945 0.506447 0.000289921
0.88275 0.5084 0.000244144
0.917174 0.510994 4.57771e-05
0.950469 0.512734 3.0518e-05
0.979767 0.514519 0.00340276
0.999664 0.516976 0.0123903
0.999756 0.51928 0.0315862
0.99884 0.521584 0.0623941
0.999542 0.523323 0.100679
0.999405 0.512993 0.111055
0.999252 0.500114 0.114153
0.013611 0.55903 0.000228885
0.0501869 0.555718 7.62951e-05
0.071046 0.55378 4.57771e-05
0.0957046 0.552499 3.0518e-05
0.125612 0.55201 3.0518e-05
0.158373 0.551354 4.57771e-05
0.196078 0.549645 7.62951e-05
0.235569 0.548196 9.15541e-05
0.274235 0.547311 0.000167849
0.314183 0.546258 0.000320439
0.353521 0.545113 0.000518807
0.395056 0.544289 0.000381476
0.437461 0.543618 4.57771e-05
0.480995 0.54255 0.000106813
0.523583 0.542031 0.00015259
0.564782 0.542 0.000137331
0.607462 0.542657 0.000183108
0.649561 0.543633 0.000274662
0.690883 0.544152 6.10361e-05
0.730449 0.543938 0
0.769497 0.544411 1.5259e-05
0.808057 0.546532 0
0.844175 0.547539 0
0.879576 0.548333 0
0.914565 0.548989 6.10361e-05
0.948882 0.550042 0.000640879
0.980758 0.551675 0.00302129
0.997406 0.553262 0.0103914
0.999054 0.554894 0.0274357
0.998886 0.556939 0.0548867
0.999329 0.556161 0.0878614
0.999451 0.54612 0.0993668
0.999268 0.534142 0.106966
0.011368 0.608652 0.000488289
0.0400244 0.606226 0.000350958
0.0637369 0.605203 0.000488289
0.0900282 0.604364 0.000640879
0.120348 0.602853 0.000595102
0.154757 0.600671 0.00030518
0.191211 0.598764 0.00015259
0.23093 0.596963 0.000534066
0.27155 0.595392 0.000732433
0.311238 0.59411 0.000640879
0.352178 0.592889 0.000488289
0.39295 0.591836 0.000228885
0.435325 0.590921 0.000137331
0.47921 0.589929 0.000137331
0.521492 0.588586 9.15541e-05
0.563989 0.587686 0.00015259
0.606332 0.587625 0.000366217
0.647471 0.587457 0.000183108
0.688228 0.587076 0
0.728054 0.586145 1.5259e-05
0.767559 0.58613 0
0.8065 0.586053 0
0.842084 0.586938 0
0.877424 0.587167 0
0.912261 0.587594 7.62951e-05
0.947463 0.588159 0.000228885
0.981384 0.588815 4.57771e-05
0.995315 0.589471 0.00602731
0.999313 0.590829 0.0225071
0.998993 0.592386 0.0494087
0.999023 0.589868 0.0754559
0.999023 0.580743 0.0911727
0.999649 0.568338 0.0988632
0.00512703 0.656977 0.000488289
0.0406195 0.653635 0.000579843
0.0558175 0.652369 0.00062562
0.0820172 0.651301 0.000717174
0.111604 0.650187 0.000839246
0.145418 0.648829 0.000869764
0.18439 0.646906 0.000656138
0.225376 0.644694 0.000411994
0.265095 0.643183 0.000335698
0.306294 0.641611 0.000213626
0.346365 0.640375 0.000122072
0.388128 0.638941 7.62951e-05
0.431815 0.637125 0.00015259
0.47509 0.635065 0.00015259
0.518761 0.632654 1.5259e-05
0.560876 0.631479 3.0518e-05
0.603143 0.630518 6.10361e-05
0.645258 0.629435 3.0518e-05
0.686122 0.628107 0
0.726131 0.627161 0
0.765133 0.626917 0
0.802396 0.627161 0
0.839002 0.627176 0
0.873991 0.625818 0
0.909926 0.626245 0.00030518
0.945235 0.626459 0.000320439
0.977707 0.62623 0.000488289
0.998123 0.626291 0.00488289
0.999466 0.627573 0.0193484
0.999496 0.627955 0.0448157
0.999588 0.624277 0.0714427
0.999725 0.614099 0.0845045
0.999359 0.601434 0.0884718
0.00756847 0.703822 0.000503548
0.0355993 0.701167 0.000686656
0.0526589 0.699611 0.000854505
0.0720226 0.697887 0.00103761
0.103349 0.696406 0.0010071
0.137896 0.695094 0.000961318
0.175204 0.693523 0.000839246
0.214343 0.691981 0.000549325
0.255833 0.690349 0.00030518
0.296803 0.688212 0.000198367
0.339651 0.685908 0.00015259
0.384009 0.683726 0.000335698
0.428489 0.681117 0.000350958
0.471962 0.678416 0.000137331
0.514778 0.676402 0.000137331
0.557198 0.674937 0.000274662
0.59971 0.673091 0.000213626
0.641932 0.671199 0.000137331
0.682322 0.669734 7.62951e-05
0.722255 0.668681 0.000122072
0.76228 0.667628 0.000335698
0.798932 0.66743 0.00030518
0.835401 0.667018 0.000183108
0.872145 0.666194 3.0518e-05
0.907729 0.665949 0.000244144
0.942901 0.665141 9.15541e-05
0.975464 0.664256 0
0.998184 0.663645 0.00251774
0.999542 0.663737 0.0138705
0.999359 0.663828 0.039704
0.999619 0.66125 0.0688792
0.999634 0.648295 0.0780041
0.999435 0.635828 0.0846418
0.00721752 0.749249 0.000503548
0.0193332 0.745815 0.000564584
0.0395209 0.744579 0.000457771
0.0623636 0.743084 0.000335698
0.08748 0.741695 0.000198367
0.120851 0.740276 0.000122072
0.158785 0.738933 7.62951e-05
0.200031 0.737148 3.0518e-05
0.243091 0.73492 4.57771e-05
0.288441 0.732448 4.57771e-05
0.330556 0.729839 3.0518e-05
0.374121 0.727367 0
0.418097 0.724727 6.10361e-05
0.463157 0.721874 6.10361e-05
0.507744 0.718441 4.57771e-05
0.551675 0.716106 0.000106813
0.594217 0.71519 0.000259403
0.636194 0.71368 0.000244144
0.678096 0.712032 0.000274662
0.718288 0.710353 0.00030518
0.757748 0.709133 0.000259403
0.796475 0.708095 0.000244144
0.832883 0.706859 7.62951e-05
0.869047 0.705531 7.62951e-05
0.905425 0.704234 0.000183108
0.942336 0.703593 3.0518e-05
0.977203 0.702617 0.000106813
0.994888 0.701228 0.00205997
0.99939 0.700023 0.0136416
0.999252 0.699336 0.036286
0.999268 0.695109 0.0601816
0.999115 0.683131 0.0713817
0.999405 0.66952 0.0808118
0.000885023 0.792355 3.0518e-05
0.0165713 0.789837 0.000137331
0.0217136 0.788952 0.000167849
0.0398566 0.78764 0.000213626
0.0694133 0.786175 0.000244144
0.10164 0.784649 0.000274662
0.139315 0.782483 0.000259403
0.181796 0.779599 0.000167849
0.227253 0.776654 9.15541e-05
0.271351 0.774136 0.000228885
0.318181 0.771466 0.000381476
0.36228 0.768719 0.000381476
0.407568 0.766232 0.000366217
0.451972 0.763851 0.000274662
0.497383 0.761624 0.000213626
0.542153 0.759518 0.000350958
0.58703 0.757198 0.000503548
0.629694 0.75523 0.000579843
0.671473 0.753231 0.000366217
0.713832 0.751125 4.57771e-05
0.753048 0.749584 6.10361e-05
0.791775 0.748165 3.0518e-05
0.82948 0.746853 0
0.86595 0.744839 6.10361e-05
0.902068 0.743343 6.10361e-05
0.937987 0.741741 0.000183108
0.974166 0.739452 0.000457771
0.99443 0.737728 7.62951e-05
0.998718 0.736309 0.00933852
0.99913 0.735744 0.0325933
0.999557 0.729488 0.0533913
0.99884 0.718013 0.0667124
0.999344 0.702205 0.0790417
0 0.835691 0.000244144
0.0105287 0.833463 0.000244144
0.0190738 0.832364 0.000381476
0.0279393 0.831037 0.000549325
0.0408789 0.82948 0.000732433
0.0770886 0.827176 0.000717174
0.11664 0.824552 0.000701915
0.159533 0.821805 0.000717174
0.205188 0.819028 0.00077821
0.253208 0.816159 0.000839246
0.299168 0.813275 0.000534066
0.346563 0.810452 0.000137331
0.39263 0.807752 0.000259403
0.439368 0.805112 0.000595102
0.485298 0.803113 0.000732433
0.531899 0.80145 0.000732433
0.576303 0.798917 0.00030518
0.621195 0.796399 0
0.664225 0.794049 0
0.70605 0.791669 0
0.747326 0.789563 0
0.78613 0.787671 7.62951e-05
0.824582 0.785763 0.000183108
0.86273 0.783459 0.000198367
0.897978 0.781781 0.000381476
0.933288 0.779782 0.00030518
0.968612 0.777676 0.000137331
0.999069 0.776181 0.000671397
0.998444 0.773602 0.0012665
0.999329 0.772763 0.03093
0.999313 0.764706 0.0491798
0.99913 0.751492 0.0642557
0.999222 0.732204 0.0742199
0.000259403 0.876081 0.000656138
0.00047303 0.873991 0.000686656
0.00570687 0.87306 0.000656138
0.0200198 0.871458 0.000610361
0.0350652 0.86978 0.000564584
0.0509041 0.867796 0.000534066
0.0859083 0.865446 0.000549325
0.130343 0.862608 0.000564584
0.178347 0.859464 0.000595102
0.225193 0.857099 0.000457771
0.2748 0.854505 0.000381476
0.322927 0.85185 0.00030518
0.372946 0.848905 0.000213626
0.421454 0.846342 0.000289921
0.470649 0.843702 0.000534066
0.518242 0.840955 0.000411994
0.565072 0.838163 7.62951e-05
0.609506 0.835599 4.57771e-05
0.653971 0.833021 3.0518e-05
0.695888 0.83061 1.5259e-05
0.737819 0.828092 0.000122072
0.779767 0.825742 0.000335698
0.818433 0.823423 0.00015259
0.856352 0.821012 0.00015259
0.89366 0.818479 0.00030518
0.929397 0.815274 4.57771e-05
0.966049 0.813901 0.000289921
0.989975 0.811749 0.00254826
0.998901 0.80972 0.00968948
0.999222 0.807218 0.0252537
0.999023 0.798169 0.0450141
0.999222 0.782757 0.0590677
0.999161 0.761791 0.0732128
1.5259e-05 0.913832 0.00015259
0.00309758 0.912077 0.000259403
0.00430304 0.911299 0.000320439
0.0055848 0.910521 0.000396735
0.0180056 0.90901 0.000457771
0.0379492 0.90695 0.000503548
0.0582284 0.904631 0.000534066
0.0889296 0.902205 0.000488289
0.137987 0.899504 0.00030518
0.190448 0.896696 0.000122072
0.240787 0.894209 6.10361e-05
0.292958 0.891752 3.0518e-05
0.344518 0.889036 7.62951e-05
0.396567 0.885832 0.00015259
0.447654 0.882536 0.00015259
0.498558 0.879057 0.000167849
0.546593 0.876966 0.00015259
0.594064 0.875746 6.10361e-05
0.639582 0.872129 3.0518e-05
0.685618 0.868101 0
0.728481 0.86595 1.5259e-05
0.770489 0.863767 1.5259e-05
0.811505 0.861357 0
0.849653 0.858381 0.00015259
0.887709 0.855268 0.000228885
0.925475 0.852796 0.000259403
0.962905 0.85069 0.000106813
0.992981 0.847776 0.00125124
0.99913 0.846372 0.00921645
0.999008 0.841611 0.0275578
0.999451 0.82858 0.0440986
0.999146 0.812222 0.0584115
0.999588 0.789822 0.0701152
0 0.951064 0.000366217
0.000762951 0.949706 0.000274662
0.00300603 0.948775 0.000274662
0.00543221 0.947814 0.000289921
0.00787366 0.946838 0.000289921
0.0111391 0.945785 0.000289921
0.0351415 0.944045 0.000289921
0.0600595 0.942077 0.000289921
0.0857862 0.940261 0.000335698
0.139574 0.937148 0.000411994
0.197879 0.933806 0.000503548
0.253452 0.930785 0.000396735
0.308003 0.927977 0.000167849
0.36318 0.925185 1.5259e-05
0.417533 0.921996 1.5259e-05
0.471427 0.918853 6.10361e-05
0.523781 0.915434 0.000198367
0.573999 0.912505 0.000198367
0.62298 0.909697 0.000137331
0.669596 0.906798 0.00015259
0.716243 0.903639 0.000122072
0.75935 0.901259 4.57771e-05
0.801251 0.898283 6.10361e-05
0.842222 0.894713 0.00015259
0.881132 0.892424 0.000244144
0.919158 0.889525 0.000213626
0.956756 0.886061 0.00015259
0.987213 0.882216 0.00114443
0.998962 0.877272 0.00715648
0.998856 0.871305 0.0230564
0.998947 0.857954 0.0397955
0.999023 0.839918 0.0548409
0.999466 0.817975 0.0688487
1.5259e-05 0.98587 0.000183108
6.10361e-05 0.985962 0.000244144
7.62951e-05 0.98616 0.000259403
0.000747692 0.986221 0.000289921
0.00415045 0.985794 0.000396735
0.0075227 0.985245 0.000503548
0.010605 0.984726 0.000610361
0.0272068 0.982971 0.000656138
0.056611 0.979797 0.000640879
0.0852827 0.976654 0.00062562
0.137026 0.973404 0.000442512
0.200381 0.970031 0.000213626
0.263661 0.96669 6.10361e-05
0.322774 0.964096 6.10361e-05
0.383185 0.961273 0.000106813
0.43946 0.958038 0.000320439
0.495979 0.954787 0.000534066
0.548028 0.951217 0.000656138
0.600137 0.947478 0.000579843
0.651377 0.943999 0.000259403
0.698634 0.941512 0.000122072
0.744366 0.938949 0
0.787793 0.933577 9.15541e-05
0.829496 0.929366 9.15541e-05
0.869917 0.925704 6.10361e-05
0.909316 0.920867 0.00030518
0.947646 0.916182 7.62951e-05
0.983825 0.911482 0.000427253
0.998932 0.906111 0.00759899
0.999176 0.898375 0.0203708
0.999222 0.885283 0.035172
0.999298 0.868559 0.0513161
0.99913 0.84448 0.0658274
0 1 0.000289921
0 0.999695 0.000289921
0 0.999496 0.000289921
0 0.999283 0.000289921
0 0.999084 0.000289921
0.00120546 0.998779 0.000289921
0.00399786 0.998398 0.000289921
0.00598154 0.998184 0.00030518
0.0103456 0.998123 0.000320439
0.0440833 0.998337 0.000518807
