app/src/main/assets/luts/provia.cube
TITLE "Generated by Resolve"
LUT_3D_SIZE 5
0 0 0
0.220157 0.020325 0.0093843
0.592432 0.03888 0.0368353
0.938735 0.0808576 0.105226
0.999741 0.133898 0.273823
0.0112154 0.269383 0.000137331
0.266285 0.270344 1.5259e-05
0.595941 0.286473 0.000289921
0.926116 0.324147 0.00343328
0.999542 0.346044 0.173892
0.00512703 0.656977 0.000488289
0.265095 0.643183 0.000335698
0.603143 0.630518 6.10361e-05
0.909926 0.626245 0.00030518
0.999359 0.601434 0.0884718
1.5259e-05 0.98587 0.000183108
0.056611 0.979797 0.000640879
0.495979 0.954787 0.000534066
0.869917 0.925704 6.10361e-05
0.99913 0.84448 0.0658274
0 0.99971 0.128084
0.000167849 0.999603 0.118944
0 0.999573 0.105318
0.214618 0.999924 0.078645
0.98146 0.999344 0.0721904
0.0124514 0.016083 0.16527
0.305318 0.0310369 0.236469
0.685054 0.0467842 0.307942
0.985275 0.0869764 0.389258
0.999924 0.161425 0.454963
0.00503548 0.321233 0.338674
0.304082 0.306523 0.304097
0.650904 0.309621 0.293355
0.953826 0.3308 0.323903
0.999512 0.350393 0.400519
0.00454719 0.66482 0.329839
0.268162 0.645258 0.288243
0.620737 0.625834 0.256413
0.922515 0.61677 0.260716
0.999695 0.591989 0.339361
3.0518e-05 0.967468 0.288334
0.0522164 0.957717 0.263645
0.503532 0.932601 0.223453
0.872389 0.904982 0.21709
0.999542 0.823743 0.274403
0.000167849 0.999893 0.265522
0.00015259 0.999756 0.269963
0.00047303 0.999924 0.263157
0.219303 0.999756 0.219379
0.980636 0.999527 0.13225
0.0405127 0.0453956 0.451316
0.407538 0.0592966 0.602457
0.768353 0.0825666 0.673594
0.999847 0.125139 0.722652
0.999786 0.236561 0.676768
0.000488289 0.396384 0.747784
0.336004 0.370016 0.705501
0.700175 0.353399 0.67483
0.975341 0.358389 0.668849
0.99939 0.405676 0.654841
0.000335698 0.691936 0.728237
0.254566 0.666285 0.684779
0.636103 0.639109 0.636652
0.937163 0.621622 0.607782
0.999542 0.599878 0.605371
0.000274662 0.945754 0.658885
0.0166018 0.937118 0.636637
0.492546 0.909682 0.581064
0.869978 0.880629 0.538399
0.999619 0.801389 0.521447
6.10361e-05 0.999741 0.45594
4.57771e-05 0.999954 0.449821
0.000167849 0.999512 0.447257
0.230991 0.999771 0.420279
0.980758 0.999634 0.270039
0.071458 0.144442 0.934615
0.505013 0.174395 0.999893
0.834989 0.190158 0.999634
0.999863 0.223255 0.999329
0.999756 0.304677 0.905409
0.000274662 0.505409 0.999985
0.316518 0.472313 0.99942
0.728267 0.443671 0.99971
0.989746 0.431327 0.993317
0.999908 0.444358 0.886702
0.00062562 0.739544 0.999878
0.175082 0.716274 0.999786
0.632944 0.682826 0.988891
0.944823 0.650446 0.949218
0.999527 0.614511 0.84271
0.000427253 0.90866 0.968185
0.0031281 0.906126 0.950698
0.427527 0.883314 0.902953
0.849821 0.851743 0.850355
0.999939 0.784451 0.776059
4.57771e-05 0.999924 0.724422
0.000442512 0.999695 0.712139
0.000137331 0.999542 0.69192
0.154955 0.999451 0.66128
0.980285 0.999878 0.485237
0.000259403 0.442817 0.999741
0.0595712 0.452064 0.999985
0.619104 0.475456 0.99968
0.907225 0.490089 0.999512
0.999863 0.434485 0.999268
0.000122072 0.575006 0.999603
9.15541e-05 0.571771 0.999664
0.406424 0.563394 0.999893
0.807187 0.574182 0.999451
0.999985 0.537377 0.999741
0.000228885 0.698787 0.999969
0.000381476 0.69427 0.999954
0.239597 0.675593 0.999802
0.740185 0.664973 0.999771
0.999603 0.641627 0.999329
0.000396735 0.840253 0.999832
0.000183108 0.833921 1
0.0557412 0.819364 0.999969
0.663233 0.787869 0.999374
0.999725 0.745846 0.999451
0.00213626 0.991058 0.999115
0.00213626 0.991058 0.999115
0.00213626 0.990723 0.999969
0.00350958 0.990021 1
1 1 1
