app/src/main/assets/luts/provia.cube
TITLE "Generated by Resolve"
LUT_3D_SIZE 9
0 0 0
0.0981613 0.0083772 0.00483711
0.220157 0.020325 0.0093843
0.383856 0.0302892 0.0200656
0.592432 0.03888 0.0368353
0.776577 0.0549325 0.0593423
0.938735 0.0808576 0.105226
0.999985 0.113436 0.198764
0.999741 0.133898 0.273823
0.00595102 0.116686 0.000640879
0.121035 0.122484 0.000457771
0.258274 0.127153 0.000244144
0.415152 0.137636 0.000411994
0.591211 0.152285 0.000320439
0.76463 0.175326 0.00874342
0.929976 0.201251 0.0469062
0.999496 0.230838 0.135149
0.999634 0.239979 0.21651
0.0112154 0.269383 0.000137331
0.128862 0.26923 0
0.266285 0.270344 1.5259e-05
0.423835 0.277043 0.000106813
0.595941 0.286473 0.000289921
0.768978 0.304356 6.10361e-05
0.926116 0.324147 0.00343328
0.999756 0.345541 0.0819867
0.999542 0.346044 0.173892
0.0019379 0.457282 0.000167849
0.129839 0.452537 0.000427253
0.275074 0.4486 0.000579843
0.437537 0.448585 4.57771e-05
0.606806 0.45153 1.5259e-05
0.771939 0.460563 0
0.919722 0.471962 0.000244144
0.998993 0.482918 0.0390021
0.999329 0.467979 0.127718
0.00512703 0.656977 0.000488289
0.111604 0.650187 0.000839246
0.265095 0.643183 0.000335698
0.431815 0.637125 0.00015259
0.603143 0.630518 6.10361e-05
0.765133 0.626917 0
0.909926 0.626245 0.00030518
0.999466 0.627573 0.0193484
0.999359 0.601434 0.0884718
0 0.835691 0.000244144
0.0408789 0.82948 0.000732433
0.205188 0.819028 0.00077821
0.39263 0.807752 0.000259403
0.576303 0.798917 0.00030518
0.747326 0.789563 0
0.897978 0.781781 0.000381476
0.998444 0.773602 0.0012665
0.999222 0.732204 0.0742199
1.5259e-05 0.98587 0.000183108
0.00415045 0.985794 0.000396735
0.056611 0.979797 0.000640879
0.263661 0.96669 6.10361e-05
0.495979 0.954787 0.000534066
0.698634 0.941512 0.000122072
0.869917 0.925704 6.10361e-05
0.998932 0.906111 0.00759899
0.99913 0.84448 0.0658274
0 1 0.000289921
0 1 0.000289921
0 1 0.000289921
0 1 0.000289921
0.127932 0.999802 0.000442512
0.453712 0.99971 0.000259403
0.725872 1 0.000228885
0.936782 0.998184 0.0161593
0.998627 0.957244 0.0391241
0 0.99971 0.128084
0 0.999695 0.123491
0.000167849 0.999603 0.118944
0.00015259 0.999939 0.112779
0 0.999573 0.105318
0.0011902 0.999512 0.0981308
0.214618 0.999924 0.078645
0.585046 0.999649 0.0603494
0.98146 0.999344 0.0721904
0.00308232 0.00840772 0.0813916
0.12668 0.0171206 0.101564
0.267796 0.0241703 0.115145
0.447898 0.0310369 0.134386
0.64567 0.0399329 0.157366
0.812818 0.0583963 0.188876
0.966522 0.0814221 0.242695
0.999969 0.111177 0.321721
0.999695 0.138903 0.342672
0.00646983 0.139727 0.147417
0.137591 0.139986 0.137865
0.288167 0.143099 0.13193
0.45481 0.14873 0.134279
0.629007 0.161227 0.140383
0.798383 0.17969 0.163455
0.952987 0.203479 0.20296
0.999908 0.228641 0.271305
0.999207 0.240528 0.312963
0.00469978 0.294697 0.154391
0.135866 0.288502 0.138659
0.287419 0.287404 0.128283
0.452186 0.288975 0.121492
0.62707 0.296376 0.12221
0.793286 0.308553 0.137072
0.943389 0.324895 0.169436
0.999008 0.341604 0.231662
0.999649 0.341024 0.285725
0.00761425 0.475303 0.149569
0.133532 0.466819 0.131228
0.286198 0.460456 0.117708
0.45449 0.455909 0.105699
0.624491 0.45716 0.0995499
0.786618 0.460517 0.109682
0.928725 0.468254 0.139284
0.999435 0.476692 0.194842
0.999863 0.463279 0.248341
0.00633249 0.659007 0.137957
0.108385 0.651896 0.11899
0.26659 0.64213 0.102754
0.441321 0.633219 0.0884413
0.613581 0.625818 0.0847334
0.773983 0.620157 0.088838
0.915938 0.619455 0.111452
0.999466 0.619043 0.161181
0.998718 0.596048 0.217777
6.10361e-05 0.827802 0.122286
0.0440986 0.8206 0.107179
0.205432 0.809979 0.0918288
0.393561 0.799985 0.0777295
0.5832 0.788434 0.0653391
0.752575 0.780621 0.0670634
0.902602 0.771679 0.0860151
0.999207 0.764691 0.135866
0.999466 0.722072 0.192859
3.0518e-05 0.977554 0.105898
0.00389105 0.97351 0.0966964
0.0556802 0.96791 0.0847486
0.26836 0.954925 0.0696574
0.501198 0.942138 0.0571908
0.702403 0.929747 0.0568399
0.872892 0.915831 0.0748608
0.998474 0.895918 0.119188
0.999481 0.833585 0.170184
0 0.999695 0.045716
0 0.999527 0.0376593
0 0.999771 0.0300755
0.00015259 0.999695 0.0227054
0.134295 0.999908 0.0131838
0.461265 0.999817 0.0108492
0.729717 0.999725 0.0145266
0.938933 0.999207 0.0439155
0.998917 0.947219 0.120531
0.000122072 1 0.196628
0.000106813 0.999863 0.199496
4.57771e-05 0.999771 0.198322
0 0.999222 0.192279
0 0.999847 0.18204
0.00122072 0.99971 0.171389
0.215717 0.999771 0.1458
0.58648 0.999496 0.122362
0.982498 0.999832 0.0823072
0.0124514 0.016083 0.16527
0.149905 0.0241398 0.203647
0.305318 0.0310369 0.236469
0.500664 0.0349126 0.277775
0.685054 0.0467842 0.307942
0.845197 0.0638437 0.341848
0.985275 0.0869764 0.389258
0.999741 0.117586 0.456809
0.999924 0.161425 0.454963
0.0037995 0.164248 0.31133
0.150698 0.162066 0.301366
0.310109 0.160052 0.295628
0.486244 0.165621 0.295888
0.661372 0.175113 0.302312
0.825986 0.190738 0.322591
0.972641 0.210269 0.3552
0.999786 0.233417 0.410269
1 0.255879 0.427787
0.00503548 0.321233 0.338674
0.141863 0.312505 0.318807
0.304082 0.306523 0.304097
0.476783 0.306355 0.294423
0.650904 0.309621 0.293355
0.814496 0.31754 0.300053
0.953826 0.3308 0.323903
0.999619 0.343954 0.372015
0.999512 0.350393 0.400519
0.00689708 0.494285 0.341054
0.131044 0.484352 0.319692
0.292638 0.474449 0.301274
0.467399 0.468193 0.285222
0.640986 0.463828 0.274403
0.798505 0.464363 0.276646
0.936385 0.468925 0.29366
0.999313 0.475349 0.335348
0.99968 0.465522 0.36936
0.00454719 0.66482 0.329839
0.104677 0.656107 0.308492
0.268162 0.645258 0.288243
0.446311 0.634623 0.269184
0.620737 0.625834 0.256413
0.78143 0.619745 0.251133
0.922515 0.61677 0.260716
0.998917 0.614221 0.297536
0.999695 0.591989 0.339361
0 0.824155 0.310353
0.0450904 0.816907 0.293553
0.200732 0.805554 0.274815
0.396521 0.794446 0.253651
0.584695 0.783749 0.237217
0.756664 0.773678 0.22742
0.905959 0.764767 0.236667
0.999023 0.758068 0.271504
0.999557 0.712917 0.308614
3.0518e-05 0.967468 0.288334
0.00230411 0.964019 0.27805
0.0522164 0.957717 0.263645
0.269917 0.945556 0.242786
0.503532 0.932601 0.223453
0.704677 0.919463 0.212665
0.872389 0.904982 0.21709
0.997894 0.885512 0.243137
0.999542 0.823743 0.274403
7.62951e-05 0.999725 0.206775
3.0518e-05 0.99939 0.197452
0 0.999756 0.1897
0.000167849 0.999878 0.17847
0.133684 0.999954 0.158068
0.462348 0.999634 0.134997
0.732052 0.999435 0.131502
0.941268 0.995911 0.150393
0.999435 0.938338 0.20853
0.000167849 0.999893 0.265522
0.000106813 0.999786 0.266667
0.00015259 0.999756 0.269963
0.000198367 0.999664 0.271824
0.00047303 0.999924 0.263157
0.00134279 0.999649 0.249027
0.219303 0.999756 0.219379
0.58732 0.999695 0.190875
0.980636 0.999527 0.13225
0.0234379 0.028275 0.288609
0.180743 0.0354772 0.347875
0.350713 0.0413977 0.39794
0.556786 0.0457923 0.452995
0.72639 0.0594034 0.479393
0.878126 0.0776379 0.512551
0.999283 0.101411 0.552316
0.999771 0.129809 0.607767
0.999832 0.204501 0.570062
6.10361e-05 0.20209 0.508461
0.164904 0.193637 0.48864
0.341344 0.188388 0.483253
0.522377 0.190738 0.478523
0.696696 0.198123 0.484123
0.852338 0.209003 0.499031
0.984985 0.224704 0.521263
0.99942 0.245609 0.562982
0.999664 0.284764 0.554131
0.000701915 0.355505 0.543954
0.145907 0.343893 0.520256
0.320256 0.335698 0.499977
0.503014 0.329442 0.48658
0.678721 0.328206 0.478599
0.833021 0.33286 0.479957
0.965393 0.341497 0.494316
0.999542 0.352071 0.530251
0.999817 0.370047 0.530892
1.5259e-05 0.518349 0.549203
0.122026 0.506615 0.523796
0.297078 0.495979 0.50248
0.481285 0.483879 0.482094
0.654246 0.477913 0.465812
0.810498 0.474586 0.457069
0.945449 0.475837 0.463127
0.99971 0.478874 0.491371
0.999329 0.477623 0.501961
0.0024567 0.675196 0.533028
0.0859846 0.665217 0.511482
0.263462 0.65214 0.489158
0.449912 0.639963 0.467445
0.62742 0.630396 0.445853
0.789792 0.620844 0.436057
0.929686 0.617182 0.434409
0.999344 0.612528 0.454261
0.999176 0.593179 0.47332
0.00108339 0.822766 0.511238
0.0412299 0.815351 0.493339
0.193103 0.803738 0.471458
0.395621 0.791959 0.44715
0.587793 0.779889 0.423194
0.760433 0.76965 0.409155
0.911116 0.760189 0.4065
0.999725 0.753414 0.427008
0.9991 0.705089 0.437385
0.00030518 0.957656 0.480049
0.000274662 0.954833 0.469871
0.0356298 0.948196 0.453376
0.264973 0.934707 0.43064
0.500694 0.922011 0.406134
0.704311 0.907973 0.38645
0.872023 0.893584 0.378088
0.998001 0.873182 0.382513
0.999359 0.8121 0.394095
0.000106813 0.999649 0.384939
0.000244144 0.999802 0.374838
9.15541e-05 0.999496 0.364874
3.0518e-05 0.999557 0.351537
0.135653 0.999725 0.327169
0.463844 0.999817 0.297795
0.733394 0.999313 0.281743
0.942168 0.989837 0.282307
0.998947 0.92462 0.318013
0.000198367 0.999756 0.353384
9.15541e-05 0.999771 0.351278
1.5259e-05 0.999863 0.349508
0.000122072 0.999741 0.35378
0.000137331 0.999664 0.356924
0.0018616 0.999664 0.347005
0.223514 0.999695 0.312062
0.590387 0.99939 0.276616
0.980972 0.999649 0.194568
0.0405127 0.0453956 0.451316
0.218112 0.0561532 0.52874
0.407538 0.0592966 0.602457
0.606378 0.0685588 0.651118
0.768353 0.0825666 0.673594
0.908415 0.103319 0.696071
0.999847 0.125139 0.722652
0.99971 0.152483 0.756786
0.999786 0.236561 0.676768
0.00030518 0.246937 0.7196
0.180697 0.23447 0.702907
0.371572 0.227878 0.691112
0.559243 0.224613 0.682734
0.731502 0.227634 0.680003
0.878523 0.234592 0.684672
0.992569 0.245914 0.694469
0.999832 0.26186 0.720638
0.999802 0.31986 0.66807
0.000488289 0.396384 0.747784
0.144793 0.380957 0.724346
0.336004 0.370016 0.705501
0.527626 0.35935 0.687999
0.700175 0.353399 0.67483
0.848844 0.354162 0.665324
0.975341 0.358389 0.668849
0.999847 0.366476 0.688518
0.99939 0.405676 0.654841
0.000808728 0.546715 0.744442
0.10927 0.533227 0.72195
0.297215 0.51928 0.701366
0.490929 0.506065 0.678401
0.666346 0.4963 0.655848
0.821637 0.49044 0.641718
0.956939 0.487572 0.638712
0.999588 0.487984 0.650706
0.999725 0.499397 0.633494
0.000335698 0.691936 0.728237
0.0681468 0.679332 0.707134
0.254566 0.666285 0.684779
0.451911 0.65182 0.658488
0.636103 0.639109 0.636652
0.797314 0.630152 0.617884
0.937163 0.621622 0.607782
0.999863 0.61651 0.616464
0.999542 0.599878 0.605371
0.000503548 0.826001 0.7028
0.0236667 0.818814 0.685649
0.176669 0.807034 0.663371
0.390448 0.792844 0.638773
0.590021 0.781888 0.611887
0.766384 0.769726 0.592126
0.91606 0.760281 0.581338
0.999725 0.748608 0.583001
0.999527 0.700542 0.56733
0.000274662 0.945754 0.658885
0.000381476 0.942779 0.648051
0.0166018 0.937118 0.636637
0.249409 0.92343 0.609171
0.492546 0.909682 0.581064
0.70074 0.895338 0.557061
0.869978 0.880629 0.538399
0.99913 0.860731 0.525551
0.999619 0.801389 0.521447
0.000122072 0.999924 0.558556
6.10361e-05 0.999878 0.549599
0.000350958 0.999847 0.538613
9.15541e-05 0.999863 0.524315
0.135393 0.999649 0.499031
0.460716 0.999054 0.465187
0.729366 0.997192 0.44065
0.94313 0.977401 0.424674
0.999252 0.910246 0.43566
6.10361e-05 0.999741 0.45594
0.000137331 0.999435 0.452461
4.57771e-05 0.999954 0.449821
7.62951e-05 0.999451 0.447562
0.000167849 0.999512 0.447257
0.0040589 0.999619 0.447929
0.230991 0.999771 0.420279
0.592203 0.999466 0.377676
0.980758 0.999634 0.270039
0.059556 0.0780041 0.668482
0.265248 0.0888838 0.761456
0.46743 0.100023 0.838895
0.650645 0.110704 0.85774
0.806683 0.125185 0.867201
0.935164 0.141741 0.878553
0.999741 0.162921 0.88925
0.999634 0.189746 0.900954
0.999924 0.26952 0.788312
0.000488289 0.303227 0.920745
0.187198 0.287968 0.905013
0.393286 0.277012 0.893019
0.587213 0.271092 0.87924
0.758206 0.26772 0.871199
0.895949 0.271885 0.865507
0.997681 0.279011 0.864515
0.999466 0.291585 0.875273
0.999878 0.345861 0.782254
0.000411994 0.443824 0.934829
0.127916 0.427619 0.915877
0.33727 0.412406 0.899611
0.540734 0.39826 0.880842
0.716518 0.39115 0.86038
0.86424 0.386984 0.847547
0.983963 0.386587 0.840879
0.999817 0.389425 0.84892
0.999603 0.425803 0.768643
0.00015259 0.581674 0.929473
0.0823072 0.568276 0.910201
0.287068 0.551553 0.888914
0.495872 0.536309 0.863218
0.678645 0.523903 0.842908
0.832883 0.514336 0.825284
0.964096 0.507286 0.813153
0.999863 0.504051 0.815702
0.999954 0.517662 0.749249
0.000442512 0.712032 0.906935
0.0455787 0.700893 0.88957
0.231464 0.686366 0.866712
0.445563 0.670771 0.842771
0.639384 0.655604 0.818784
0.803311 0.643824 0.798901
0.945022 0.633921 0.783871
0.999619 0.626627 0.779126
0.999512 0.612772 0.730373
0.000167849 0.834302 0.877852
0.00846876 0.828122 0.865324
0.139025 0.816312 0.844358
0.376043 0.802243 0.820142
0.589563 0.787396 0.794446
0.769116 0.773175 0.770581
0.917113 0.759701 0.750484
0.999695 0.741024 0.734585
0.99971 0.701106 0.696178
0.00030518 0.92932 0.820264
0.000228885 0.927489 0.81181
0.020325 0.924102 0.80029
0.218906 0.910643 0.774487
0.472648 0.897444 0.747402
0.69073 0.882582 0.71957
0.863386 0.86836 0.696681
0.998535 0.847715 0.675898
0.999298 0.791424 0.648768
6.10361e-05 0.997818 0.722622
1.5259e-05 0.998642 0.715267
6.10361e-05 0.999146 0.703197
0.000198367 0.998932 0.692424
0.123705 0.999298 0.666682
0.447379 0.995239 0.630304
0.723644 0.981689 0.600595
0.940764 0.961334 0.575494
0.999313 0.89366 0.561105
0.000335698 0.999939 0.57995
0.00015259 0.999954 0.57467
0.000366217 0.999954 0.568902
0.000289921 0.999649 0.561273
3.0518e-05 0.999771 0.555093
7.62951e-05 0.999908 0.551049
0.233936 0.999924 0.538277
0.594827 0.999634 0.4963
0.979995 0.999588 0.362173
0.071458 0.144442 0.934615
0.301167 0.164157 0.996704
0.505013 0.174395 0.999893
0.683528 0.180743 0.999695
0.834989 0.190158 0.999634
0.955596 0.206729 0.99939
0.999863 0.223255 0.999329
0.999802 0.249241 0.999573
0.999756 0.304677 0.905409
0.000335698 0.373816 0.999527
0.164492 0.357931 0.999664
0.394812 0.344152 0.999771
0.604028 0.333165 0.999802
0.775189 0.328374 0.99971
0.911223 0.327337 0.999237
0.999832 0.33019 0.999786
0.999557 0.339483 0.99765
0.999893 0.373358 0.899901
0.000274662 0.505409 0.999985
0.0775464 0.490394 0.999878
0.316518 0.472313 0.99942
0.541924 0.45713 0.999802
0.728267 0.443671 0.99971
0.874662 0.435935 0.997177
0.989746 0.431327 0.993317
0.999908 0.428611 0.994339
0.999908 0.444358 0.886702
0.000228885 0.629511 0.999832
0.0273289 0.616434 0.999557
0.249485 0.598398 0.999924
0.482643 0.580346 0.999588
0.682307 0.564782 0.995956
0.840696 0.552697 0.992218
0.973358 0.542779 0.979599
0.999725 0.527062 0.970672
0.999985 0.525643 0.868681
0.00062562 0.739544 0.999878
0.00959792 0.73138 1
0.175082 0.716274 0.999786
0.420142 0.70016 0.998825
0.632944 0.682826 0.988891
0.804746 0.667781 0.969665
0.944823 0.650446 0.949218
0.999649 0.630854 0.92929
0.999527 0.614511 0.84271
0.00062562 0.828641 0.999954
0.00218204 0.82562 0.999893
0.0735637 0.816632 0.99501
0.321462 0.800839 0.976043
0.557366 0.785367 0.954055
0.750317 0.770336 0.928512
0.905043 0.754147 0.903471
0.99971 0.732509 0.880354
0.99968 0.705669 0.813581
0.000427253 0.90866 0.968185
0.000579843 0.907546 0.960937
0.0031281 0.906126 0.950698
0.151995 0.897688 0.929213
0.427527 0.883314 0.902953
0.66273 0.868009 0.876509
0.849821 0.851743 0.850355
0.99617 0.832532 0.822492
0.999939 0.784451 0.776059
1.5259e-05 0.976455 0.878508
1.5259e-05 0.97583 0.872282
0.00015259 0.975204 0.865415
0.000183108 0.97586 0.852689
0.0831464 0.988113 0.8309
0.414328 0.979629 0.796292
0.706371 0.962463 0.764004
0.934356 0.941543 0.73257
0.999634 0.877409 0.698177
4.57771e-05 0.999924 0.724422
0.000274662 0.999832 0.718715
0.000442512 0.999695 0.712139
3.0518e-05 0.999771 0.702876
0.000137331 0.999542 0.69192
0.000122072 0.999924 0.678965
0.154955 0.999451 0.66128
0.593835 0.999451 0.634287
0.980285 0.999878 0.485237
0.0423438 0.284031 0.999924
0.270451 0.297597 0.999771
0.497581 0.294774 0.999283
0.692836 0.296468 0.999207
0.845197 0.30338 0.999557
0.965057 0.311528 0.99939
0.99971 0.315206 0.999695
0.999878 0.31754 0.999344
0.999832 0.352209 0.999695
0.000167849 0.479454 0.999985
0.0597238 0.469123 0.999802
0.338628 0.45211 0.999985
0.581964 0.43772 0.999634
0.77023 0.426398 1
0.909072 0.415412 0.999298
0.999893 0.405188 0.999329
0.999878 0.39266 0.999649
0.99971 0.409979 0.999664
0.000106813 0.573129 0.999939
0.000961318 0.56791 0.999954
0.205158 0.553155 0.999695
0.486992 0.534737 0.999695
0.700984 0.517891 0.999619
0.861067 0.502647 0.999512
0.986435 0.484779 0.999329
0.999893 0.46479 0.999603
0.999985 0.467613 0.999817
0.00030518 0.65771 0.999832
0.000442512 0.65275 0.999771
0.098146 0.641855 0.999786
0.388785 0.624842 0.999649
0.627787 0.607141 0.999969
0.808576 0.589288 0.99942
0.950469 0.569909 0.99939
0.999786 0.544289 0.999435
0.999512 0.53727 0.999252
0.000442512 0.735103 0.999969
0.000381476 0.732479 0.999649
0.0161288 0.726299 0.999634
0.286305 0.710292 0.999832
0.546548 0.692638 0.999557
0.751904 0.675013 0.999481
0.910796 0.65539 0.999557
0.999954 0.63151 0.99968
0.999588 0.614176 0.984298
0.00015259 0.809781 0.999985
0.000167849 0.807462 0.999985
0.000671397 0.804746 1
0.161135 0.792599 0.999832
0.451652 0.776577 0.999878
0.685557 0.760296 0.99968
0.865156 0.743008 0.999817
0.998764 0.720409 0.999725
0.999786 0.693523 0.947646
0.000701915 0.879652 0.999939
0.000686656 0.878477 0.999939
0.000244144 0.877607 0.999969
0.0247501 0.876036 0.999985
0.302205 0.861234 0.999435
0.581659 0.846067 0.999527
0.80351 0.829877 0.999908
0.978622 0.808148 0.985428
0.99968 0.77525 0.900877
0.000396735 0.941756 0.999847
0.000656138 0.941939 0.999924
0.000366217 0.941817 0.999863
0.000549325 0.941802 0.999832
0.0125429 0.947967 0.998703
0.311513 0.951125 0.983902
0.650248 0.933272 0.947662
0.910628 0.912734 0.911131
0.999985 0.865415 0.853086
0.000366217 0.999252 0.912352
0.000549325 0.99939 0.905379
0.000137331 0.999588 0.898695
0.00015259 0.99939 0.890257
0.00015259 0.999451 0.87805
0.000122072 0.999741 0.862806
0.0137789 0.999954 0.840482
0.537194 0.999695 0.795392
0.983246 0.999329 0.671168
0.000259403 0.442817 0.999741
0.000595102 0.447776 0.999802
0.0595712 0.452064 0.999985
0.390753 0.458625 0.999924
0.619104 0.475456 0.99968
0.776379 0.486458 0.999786
0.907225 0.490089 0.999512
0.998703 0.482399 0.999649
0.999863 0.434485 0.999268
0.000213626 0.51809 0.999771
0.000396735 0.518334 0.999847
0.000442512 0.520073 0.999832
0.165667 0.518273 1
0.490669 0.519615 0.999741
0.692073 0.534615 0.999466
0.848417 0.535088 0.999847
0.982544 0.529259 0.999451
0.999924 0.483467 0.999115
0.000122072 0.575006 0.999603
0.0010071 0.57377 0.999969
9.15541e-05 0.571771 0.999664
0.04271 0.570474 0.999893
0.406424 0.563394 0.999893
0.644083 0.568292 0.999435
0.807187 0.574182 0.999451
0.950637 0.569528 0.998932
0.999985 0.537377 0.999741
0.000259403 0.635401 0.999939
0.000350958 0.63328 0.999832
0.00030518 0.631205 0.999863
0.00991836 0.627726 0.999863
0.322652 0.615442 0.999847
0.594568 0.610605 0.999146
0.773541 0.615991 0.999252
0.924315 0.610849 0.999603
0.999664 0.59295 0.999741
0.000228885 0.698787 0.999969
0.000518807 0.696361 0.999924
0.000381476 0.69427 0.999954
0.00523384 0.689174 0.999939
0.239597 0.675593 0.999802
0.536492 0.666316 0.999329
0.740185 0.664973 0.999771
0.899214 0.660182 0.999268
0.999603 0.641627 0.999329
0.00015259 0.767269 0.999802
0.00030518 0.76492 0.99968
9.15541e-05 0.760861 1
0.000183108 0.756573 0.999725
0.159106 0.742794 0.999832
0.476371 0.728054 0.999939
0.710506 0.719402 0.999878
0.87985 0.715877 0.99939
0.999908 0.69543 0.999893
0.000396735 0.840253 0.999832
0.00030518 0.837476 0.999969
0.000183108 0.833921 1
0.000183108 0.828702 1
0.0557412 0.819364 0.999969
0.387213 0.802167 0.999969
0.663233 0.787869 0.999374
0.866514 0.780026 0.999573
0.999725 0.745846 0.999451
0.000701915 0.910933 0.999817
0.000289921 0.909239 0.999603
0.000198367 0.907774 0.999527
0.000274662 0.905287 0.999985
0.000564584 0.903334 0.999863
0.151705 0.903243 0.999985
0.541939 0.88368 0.999939
0.833997 0.866255 0.999786
0.999741 0.827497 0.999557
0.00213626 0.991058 0.999115
0.00213626 0.991058 0.999115
0.00213626 0.991058 0.999115
0.00213626 0.991058 0.999115
0.00213626 0.990723 0.999969
0.00213626 0.990723 1
0.00350958 0.990021 1
0.270314 0.999847 0.999802
1 1 1
