app/src/main/assets/luts/reala.cube
TITLE "Generated by Resolve"
LUT_3D_SIZE 9
0 0 0
0.064332 0.00198367 0.000335698
0.181231 0.00337224 3.0518e-05
0.389456 0.00323491 0.000167849
0.573327 0.00131228 0.000213626
0.714855 0.0146029 0.0170443
0.839338 0.0990768 0.0803235
0.909361 0.196582 0.195209
0.915389 0.218647 0.250751
0.0130922 0.128985 0.000350958
0.147875 0.139055 0.000610361
0.285161 0.13463 0.000457771
0.427512 0.135775 0.000122072
0.575463 0.13492 4.57771e-05
0.714626 0.154376 7.62951e-05
0.842268 0.195666 0.0489204
0.926986 0.275608 0.161883
0.932662 0.29752 0.210925
0.0299382 0.275822 0.000656138
0.1514 0.276204 0.000183108
0.287648 0.277806 0.000228885
0.427222 0.271778 3.0518e-05
0.57319 0.270558 3.0518e-05
0.716243 0.276646 0.000213626
0.855146 0.309682 0.0242618
0.94757 0.374502 0.137209
0.952895 0.391196 0.1841
0.139742 0.435752 0.0747845
0.199771 0.430091 0.0423896
0.296971 0.427878 0.00671397
0.433677 0.427634 0.000610361
0.578012 0.425422 4.57771e-05
0.727611 0.432685 7.62951e-05
0.874937 0.455817 0.00451667
0.965667 0.504219 0.0981765
0.968139 0.502693 0.138399
0.265965 0.620706 0.184176
0.306828 0.614832 0.167315
0.370703 0.612818 0.138155
0.474159 0.615274 0.0670024
0.61117 0.618112 0.000183108
0.762142 0.626123 0.000335698
0.903334 0.63682 0.000183108
0.980865 0.654734 0.0240177
0.982147 0.629526 0.0661631
0.504829 0.816922 0.414328
0.518944 0.812848 0.398199
0.550042 0.812009 0.374441
0.606729 0.813519 0.330129
0.685664 0.818112 0.227344
0.792721 0.816724 0.0507973
0.922286 0.812818 1.5259e-05
0.986511 0.810834 0.0108492
0.987839 0.764218 0.0623941
0.670802 0.930297 0.592905
0.683589 0.931121 0.590326
0.706889 0.933761 0.587366
0.750576 0.941909 0.585107
0.806256 0.949111 0.567727
0.869764 0.953429 0.514458
0.943832 0.956481 0.342962
0.992844 0.940307 0.0846265
0.991241 0.8719 0.0645914
0.6663 0.929671 0.594049
0.673304 0.93051 0.593469
0.686961 0.932891 0.593179
0.713664 0.937438 0.592035
0.760586 0.945174 0.588556
0.823804 0.956237 0.580423
0.899825 0.969528 0.555627
0.986084 0.985901 0.466377
0.997375 0.978836 0.366445
0.668666 0.931105 0.624475
0.672679 0.931624 0.623224
0.677195 0.93257 0.620996
0.686427 0.934112 0.618891
0.7028 0.936751 0.617777
0.730068 0.940429 0.613916
0.776516 0.948913 0.608606
0.858915 0.963424 0.591791
0.995529 0.988052 0.459785
0 0.00216678 0.0605631
0.117525 0.0093843 0.10396
0.271611 0.00337224 0.117937
0.440192 0.000106813 0.121599
0.601328 0.000656138 0.120623
0.74049 0.00415045 0.138216
0.85742 0.114504 0.202502
0.910658 0.197223 0.308064
0.917372 0.224262 0.320363
0.000656138 0.138918 0.145022
0.154879 0.157473 0.155001
0.296117 0.148409 0.138125
0.444404 0.135912 0.125673
0.594232 0.137377 0.121599
0.736248 0.142107 0.130434
0.864195 0.190097 0.176761
0.927886 0.274372 0.279866
0.933776 0.299779 0.30486
0.00724804 0.29044 0.138003
0.153368 0.293294 0.135195
0.298573 0.29015 0.128054
0.443717 0.282017 0.116442
0.595773 0.28072 0.113756
0.742489 0.283513 0.120409
0.883009 0.309499 0.16173
0.951278 0.376867 0.261906
0.954086 0.389425 0.291798
0.107591 0.448295 0.152758
0.183917 0.440009 0.125658
0.299702 0.437156 0.103288
0.446632 0.435096 0.0956741
0.598367 0.434058 0.092607
0.752102 0.441779 0.104005
0.903258 0.465537 0.137957
0.97496 0.50808 0.229236
0.975708 0.505486 0.258656
0.261173 0.632486 0.236347
0.299596 0.624674 0.2103
0.37023 0.623087 0.17937
0.481834 0.622126 0.114031
0.628473 0.625467 0.0869764
0.779843 0.629953 0.0939193
0.91986 0.640223 0.118776
0.988693 0.653941 0.177386
0.989944 0.632212 0.217334
0.492546 0.812665 0.433387
0.507698 0.808377 0.413748
0.541192 0.806882 0.386572
0.599786 0.808881 0.339696
0.683162 0.810498 0.22179
0.800488 0.809812 0.111299
0.93077 0.806867 0.106813
0.99321 0.808026 0.164523
0.992844 0.756741 0.202258
0.664424 0.928313 0.603204
0.675471 0.928679 0.597162
0.700145 0.932067 0.593698
0.745525 0.939788 0.589273
0.795712 0.940612 0.557092
0.862776 0.945418 0.498085
0.94023 0.948592 0.324056
0.995163 0.931121 0.156466
0.995468 0.863478 0.179934
0.662989 0.929839 0.608774
0.669062 0.930373 0.605936
0.681682 0.932265 0.602747
0.70901 0.936278 0.599771
0.75639 0.94493 0.595117
0.82153 0.955917 0.584222
0.898238 0.970367 0.558633
0.986389 0.986297 0.471397
0.998123 0.970016 0.340536
0.666606 0.931655 0.639658
0.671565 0.932555 0.640635
0.677119 0.933196 0.639765
0.686305 0.934508 0.637629
0.702098 0.936889 0.634333
0.729015 0.941146 0.629999
0.775189 0.949432 0.623972
0.85713 0.963821 0.6056
0.995956 0.988479 0.470344
0.000320439 0.00642405 0.175525
0.145693 0.0154116 0.232471
0.299535 0.0105898 0.254704
0.469718 0.00190738 0.267948
0.62742 0.0028687 0.276036
0.763088 0.0110781 0.28716
0.88011 0.14493 0.350286
0.916182 0.211124 0.44213
0.923873 0.251225 0.435584
0.000137331 0.132998 0.28394
0.129595 0.1514 0.29752
0.304112 0.160555 0.305653
0.459129 0.15053 0.286366
0.610529 0.146899 0.279026
0.754177 0.152911 0.284367
0.883711 0.213901 0.329732
0.931838 0.285664 0.415351
0.93933 0.319493 0.42269
0.0010071 0.276951 0.289372
0.129885 0.290837 0.29485
0.301625 0.304677 0.302052
0.454307 0.29514 0.286854
0.608057 0.288777 0.275776
0.761318 0.293004 0.282231
0.903624 0.322087 0.316457
0.952911 0.38172 0.397131
0.957732 0.40238 0.409781
0.0165103 0.446052 0.28864
0.159396 0.459022 0.295003
0.306432 0.458595 0.288533
0.463142 0.455238 0.279438
0.621485 0.453803 0.269932
0.779126 0.461433 0.278859
0.924407 0.481804 0.306752
0.980529 0.514931 0.368551
0.98114 0.513359 0.38822
0.252964 0.655238 0.373678
0.286168 0.648402 0.348226
0.359762 0.6439 0.313588
0.490867 0.641688 0.27863
0.647883 0.64007 0.270939
0.797818 0.641123 0.269322
0.937362 0.646845 0.28542
0.994873 0.655619 0.330556
0.994751 0.634058 0.355825
0.482292 0.81561 0.51133
0.497368 0.811139 0.491356
0.529671 0.808057 0.465782
0.593317 0.809644 0.419715
0.680812 0.811841 0.322332
0.808942 0.809247 0.268681
0.940887 0.805829 0.272831
0.997604 0.803113 0.313939
0.997284 0.751232 0.332647
0.655421 0.927642 0.64564
0.665385 0.927398 0.638498
0.689311 0.930236 0.63183
0.727108 0.931594 0.614771
0.782101 0.933806 0.582238
0.850187 0.93727 0.51902
0.934966 0.939651 0.363989
0.997787 0.921767 0.274601
0.997833 0.853483 0.295689
0.659342 0.930571 0.637278
0.663737 0.931121 0.634562
0.67509 0.93257 0.631083
0.701015 0.936416 0.625238
0.749218 0.944335 0.61735
0.815717 0.955901 0.604456
0.896422 0.970321 0.577356
0.98613 0.986526 0.498283
0.998367 0.95967 0.345068
0.662272 0.931868 0.655512
0.666773 0.932403 0.656046
0.673564 0.933165 0.657252
0.685084 0.935515 0.658579
0.701457 0.938247 0.656687
0.727092 0.941909 0.650355
0.773404 0.949798 0.642817
0.855299 0.963867 0.623987
0.995285 0.988617 0.485069
0.000442512 0.0100252 0.314275
0.147845 0.0138247 0.363592
0.321782 0.0212863 0.405524
0.50399 0.0162509 0.437079
0.654368 0.0162509 0.436759
0.789303 0.0518654 0.457542
0.900481 0.195346 0.514992
0.909773 0.260884 0.58613
0.932464 0.300313 0.556558
0.000137331 0.13872 0.4448
0.0964065 0.15108 0.448218
0.300359 0.171969 0.469642
0.476265 0.173312 0.461204
0.634485 0.170626 0.453452
0.785351 0.179553 0.462272
0.910979 0.258701 0.506386
0.933989 0.313802 0.571557
0.947402 0.358328 0.554162
0.000442512 0.274861 0.45304
0.0867323 0.284596 0.454002
0.279316 0.30515 0.464164
0.469322 0.317647 0.470726
0.634028 0.312337 0.461646
0.791135 0.318654 0.467948
0.925521 0.355306 0.498787
0.956634 0.400778 0.553262
0.963623 0.432074 0.543481
0.000289921 0.443519 0.460746
0.103044 0.453925 0.464607
0.287907 0.470375 0.473808
0.482017 0.484855 0.483146
0.64921 0.482994 0.471809
0.805081 0.485374 0.47216
0.944091 0.499809 0.489815
0.98172 0.522713 0.529641
0.983825 0.52871 0.527062
0.22887 0.657542 0.530282
0.261463 0.656672 0.515007
0.350378 0.665675 0.508522
0.50367 0.663767 0.490791
0.664805 0.658396 0.475105
0.816159 0.653864 0.467872
0.954528 0.655329 0.472602
0.998947 0.660426 0.498116
0.999084 0.638346 0.504067
0.469917 0.82034 0.622431
0.482261 0.816571 0.60708
0.515282 0.813779 0.587106
0.580316 0.81355 0.55108
0.677104 0.816129 0.481926
0.815106 0.809308 0.455406
0.948165 0.803403 0.453132
0.99826 0.797971 0.473381
0.998749 0.743008 0.470192
0.64509 0.927672 0.713268
0.650034 0.92578 0.704234
0.665339 0.92401 0.69218
0.700908 0.922911 0.673625
0.75819 0.924437 0.640406
0.833478 0.927794 0.581353
0.926696 0.92813 0.454276
0.998611 0.908644 0.418982
0.998489 0.841459 0.422293
0.655299 0.932403 0.686778
0.656672 0.93225 0.682002
0.664454 0.933516 0.676677
0.690181 0.937148 0.670893
0.738476 0.944808 0.662715
0.807157 0.956191 0.649454
0.889723 0.970886 0.624308
0.985534 0.987778 0.549844
0.998062 0.948653 0.390372
0.657771 0.932647 0.67924
0.660624 0.933074 0.67895
0.66656 0.933974 0.680262
0.678721 0.935454 0.681941
0.699367 0.939315 0.684962
0.726574 0.94342 0.681056
0.771344 0.950484 0.672328
0.85304 0.965194 0.652064
0.99559 0.989471 0.507668
0.000183108 0.0177462 0.450065
0.138994 0.0149081 0.506249
0.340658 0.0520027 0.571023
0.521859 0.102571 0.594781
0.665034 0.156085 0.604562
0.79089 0.229709 0.632044
0.882628 0.311803 0.678126
0.883101 0.34583 0.70663
0.918242 0.362707 0.656275
0.000732433 0.158236 0.616632
0.057908 0.15877 0.612009
0.2804 0.183673 0.629862
0.490974 0.213855 0.640391
0.655589 0.241825 0.637049
0.792325 0.29073 0.646097
0.898665 0.357397 0.676112
0.903548 0.393835 0.711223
0.940078 0.417212 0.6636
0.000213626 0.295293 0.634119
0.038529 0.299702 0.632029
0.255894 0.320287 0.647318
0.482078 0.3458 0.666987
0.66923 0.35906 0.670893
0.810544 0.380102 0.66598
0.922072 0.423972 0.679835
0.937194 0.452613 0.702434
0.965835 0.480476 0.667018
0.000228885 0.461021 0.643641
0.0458686 0.466819 0.645533
0.252491 0.483375 0.656947
0.473777 0.502007 0.668803
0.67332 0.519615 0.67921
0.830518 0.51899 0.674006
0.956924 0.530053 0.67631
0.978271 0.544549 0.691829
0.985779 0.556817 0.660029
0.203723 0.652155 0.669734
0.215183 0.645365 0.658778
0.293309 0.64979 0.660761
0.478889 0.664485 0.667918
0.672038 0.675593 0.67303
0.827619 0.669291 0.661418
0.96408 0.664286 0.6542
0.998215 0.666285 0.663203
0.998444 0.645426 0.639078
0.455024 0.811719 0.724224
0.458518 0.807904 0.713756
0.489586 0.810498 0.70724
0.561471 0.817548 0.695186
0.672038 0.819425 0.662791
0.818326 0.812482 0.642466
0.953414 0.802899 0.631968
0.998489 0.789853 0.629648
0.998322 0.737758 0.602609
0.621515 0.919066 0.777386
0.625986 0.9196 0.77116
0.635401 0.916915 0.761196
0.66949 0.914305 0.745083
0.731121 0.916304 0.720088
0.812467 0.918532 0.671443
0.918013 0.913863 0.591073
0.99855 0.894362 0.567269
0.99884 0.828412 0.550958
0.652277 0.935821 0.747982
0.652415 0.934905 0.744442
0.654521 0.935317 0.737514
0.67599 0.937987 0.73109
0.724132 0.945388 0.72491
0.795758 0.957153 0.712764
0.88307 0.97261 0.693355
0.985397 0.986664 0.614481
0.998184 0.93315 0.475029
0.654383 0.933486 0.71284
0.654994 0.933516 0.712657
0.658534 0.934264 0.710903
0.668849 0.93576 0.710781
0.688609 0.938476 0.711559
0.72398 0.94493 0.715419
0.768765 0.952193 0.710002
0.849683 0.966018 0.690272
0.995453 0.989517 0.538476
0.00030518 0.0342565 0.61941
0.157641 0.0531167 0.64445
0.361822 0.132235 0.694011
0.541329 0.201694 0.72607
0.687282 0.27155 0.748379
0.802991 0.343511 0.774227
0.860441 0.393698 0.799649
0.868803 0.409918 0.797299
0.900069 0.422553 0.741833
0.108278 0.23331 0.753994
0.134859 0.2262 0.745113
0.306737 0.24828 0.75317
0.511116 0.298253 0.771084
0.674907 0.34612 0.780316
0.798932 0.398383 0.791608
0.878706 0.443275 0.805875
0.884871 0.459037 0.808331
0.918639 0.471153 0.751537
0.109514 0.377508 0.790738
0.1131 0.364599 0.782269
0.261311 0.371115 0.798123
0.484749 0.39826 0.805203
0.67422 0.440665 0.812955
0.807095 0.473243 0.811017
0.899367 0.507439 0.814679
0.908186 0.518853 0.814496
0.941283 0.525979 0.759594
0.127443 0.523796 0.802792
0.126665 0.511589 0.794675
0.24303 0.513176 0.806531
0.453773 0.52697 0.832166
0.66894 0.552438 0.840833
0.822339 0.574151 0.835004
0.92575 0.59089 0.823728
0.94078 0.597604 0.822507
0.971328 0.588952 0.763455
0.20293 0.662058 0.801709
0.196094 0.652003 0.79382
0.259709 0.650553 0.799283
0.42829 0.661204 0.821042
0.649714 0.679362 0.83563
0.831907 0.689967 0.841077
0.95729 0.687709 0.825299
0.984298 0.684962 0.815488
0.994003 0.661753 0.75552
0.441245 0.798337 0.808347
0.434394 0.793256 0.800732
0.449287 0.788968 0.796078
0.509804 0.793515 0.803098
0.644221 0.811551 0.818692
0.811612 0.814328 0.81268
0.950195 0.800946 0.794415
0.998352 0.780941 0.774166
0.999008 0.736416 0.728283
0.57882 0.891188 0.826841
0.594339 0.900649 0.82858
0.596887 0.896605 0.821088
0.627848 0.898054 0.813413
0.692866 0.904189 0.80592
0.784298 0.907439 0.778332
0.90483 0.900282 0.734401
0.997879 0.878202 0.71194
0.998825 0.817166 0.678569
0.650752 0.936568 0.812634
0.650935 0.93611 0.808576
0.651026 0.936141 0.803769
0.66424 0.93962 0.799359
0.706844 0.946181 0.79353
0.780148 0.958373 0.785428
0.871626 0.973678 0.770306
0.979889 0.979751 0.690867
0.998566 0.916365 0.596918
0.651957 0.935683 0.756466
0.65214 0.935805 0.755184
0.653086 0.935546 0.752911
0.657984 0.936019 0.749996
0.674586 0.938903 0.748669
0.70808 0.943725 0.748898
0.765682 0.953765 0.754726
0.845335 0.967788 0.739803
0.994904 0.990768 0.581201
0.137804 0.109789 0.715068
0.2374 0.161089 0.761837
0.401236 0.221042 0.788159
0.583734 0.294621 0.815595
0.723781 0.35935 0.830518
0.828153 0.417807 0.842435
0.861708 0.443595 0.84828
0.868177 0.467658 0.855665
0.88658 0.472511 0.817166
0.15523 0.330098 0.815732
0.16141 0.319051 0.813611
0.307347 0.332113 0.823392
0.526467 0.375677 0.838712
0.699611 0.428672 0.855314
0.818509 0.473991 0.863111
0.878279 0.501945 0.866941
0.883497 0.518212 0.872129
0.901213 0.51606 0.828168
0.177707 0.461402 0.830991
0.176303 0.450492 0.830594
0.256474 0.444999 0.843885
0.474403 0.46566 0.868605
0.679866 0.506661 0.881498
0.81471 0.543832 0.888747
0.895064 0.56846 0.888411
0.898787 0.574548 0.889082
0.917693 0.56141 0.836683
0.212894 0.585473 0.845869
0.209613 0.574624 0.844755
0.251591 0.564218 0.850767
0.437064 0.573419 0.884688
0.64947 0.59379 0.906218
0.813153 0.628519 0.916274
0.909758 0.646006 0.911757
0.918212 0.639841 0.905455
0.938659 0.617929 0.843015
0.275685 0.689921 0.85658
0.268315 0.682536 0.856519
0.285374 0.675563 0.861799
0.418921 0.677699 0.88748
0.616953 0.690837 0.925948
0.800946 0.715267 0.945647
0.916991 0.723049 0.931716
0.94374 0.709636 0.911223
0.966079 0.678614 0.842908
0.411124 0.778561 0.86273
0.403174 0.773205 0.862516
0.396704 0.767071 0.864088
0.436301 0.763241 0.882628
0.578378 0.777646 0.914595
0.766583 0.796445 0.942916
0.918624 0.79498 0.927993
0.977218 0.779034 0.902342
0.992309 0.744259 0.831937
0.525078 0.850401 0.872862
0.52604 0.851514 0.86952
0.536568 0.857633 0.868406
0.559197 0.862089 0.869062
0.621332 0.8692 0.879499
0.726711 0.883803 0.892134
0.880018 0.881025 0.8804
0.998123 0.861463 0.852445
0.999405 0.810864 0.80238
0.644572 0.929747 0.874159
0.646113 0.930617 0.87187
0.64625 0.930861 0.86891
0.653178 0.934478 0.864637
0.685405 0.942611 0.862791
0.754955 0.956329 0.860975
0.845075 0.965835 0.845365
0.968704 0.96318 0.784543
0.998566 0.900404 0.731563
0.650599 0.935912 0.81004
0.65066 0.936431 0.807935
0.650706 0.936965 0.805829
0.651102 0.936492 0.802075
0.657221 0.937728 0.798016
0.684489 0.942779 0.796338
0.74403 0.952636 0.797757
0.841901 0.969818 0.800626
0.993561 0.991791 0.64332
0.166674 0.260761 0.795697
0.170871 0.288563 0.806073
0.353384 0.314366 0.817746
0.588373 0.381918 0.842466
0.746899 0.437964 0.855558
0.850965 0.484611 0.863294
0.876875 0.496742 0.865751
0.879088 0.506264 0.868498
0.883436 0.519677 0.872892
0.17055 0.430945 0.828336
0.170123 0.427924 0.828168
0.202777 0.426062 0.833112
0.456519 0.455207 0.865248
0.687007 0.504234 0.879957
0.82443 0.53727 0.884428
0.89308 0.552621 0.883528
0.891752 0.548409 0.882231
0.893233 0.555367 0.884321
0.192035 0.517922 0.837583
0.190661 0.513863 0.83653
0.195132 0.509422 0.836515
0.363226 0.519615 0.867567
0.614771 0.550835 0.89456
0.796109 0.58703 0.903273
0.899199 0.603357 0.899489
0.902953 0.591119 0.894484
0.903456 0.592569 0.89546
0.216358 0.596536 0.846693
0.214939 0.592966 0.846296
0.214694 0.588647 0.846342
0.310521 0.590051 0.863294
0.542412 0.609018 0.90573
0.757992 0.640558 0.922057
0.889036 0.657099 0.918837
0.91754 0.645869 0.910872
0.916701 0.642313 0.911025
0.256062 0.670787 0.856199
0.252506 0.667277 0.855955
0.250034 0.664698 0.855451
0.288609 0.659327 0.86247
0.483268 0.672724 0.899809
0.708461 0.696788 0.939239
0.873732 0.715785 0.94049
0.934936 0.708324 0.930236
0.933455 0.695781 0.920806
0.350515 0.743969 0.859953
0.344732 0.740963 0.859724
0.341787 0.738827 0.859846
0.340627 0.732464 0.864469
0.447089 0.737621 0.894194
0.656931 0.760861 0.943526
0.851438 0.77763 0.963546
0.952361 0.773907 0.950118
0.956405 0.751202 0.919997
0.463203 0.808957 0.86836
0.461631 0.80824 0.868025
0.461006 0.807477 0.868177
0.468254 0.811383 0.869886
0.497154 0.811475 0.88452
0.610162 0.830976 0.933898
0.807919 0.849271 0.982849
0.961944 0.845762 0.972625
0.986252 0.810941 0.905943
0.583749 0.887892 0.903151
0.584298 0.887846 0.903426
0.584344 0.887755 0.903761
0.582177 0.886412 0.902739
0.631846 0.916396 0.918959
0.674861 0.922759 0.92871
0.774258 0.93875 0.948531
0.936339 0.937713 0.936355
0.998596 0.890318 0.877058
0.651087 0.932662 0.883299
0.651637 0.933669 0.881788
0.651942 0.934524 0.879225
0.65127 0.934478 0.874495
0.651759 0.934081 0.870207
0.653788 0.935454 0.863935
0.696117 0.945663 0.862745
0.815122 0.96936 0.866651
0.995743 0.995377 0.744259
0.161685 0.388586 0.824048
0.16257 0.393011 0.824338
0.164355 0.400763 0.825452
0.234195 0.423667 0.838956
0.478676 0.479713 0.87248
0.671061 0.535958 0.889921
0.81323 0.581338 0.900053
0.902678 0.607126 0.900481
0.897429 0.570352 0.888441
0.176242 0.459251 0.830808
0.177035 0.459159 0.831144
0.177554 0.459968 0.830762
0.181338 0.466941 0.83154
0.339849 0.492607 0.861448
0.581125 0.546609 0.893492
0.764111 0.597787 0.908568
0.889738 0.63331 0.911269
0.906386 0.603906 0.89926
0.190997 0.5122 0.836942
0.190127 0.511086 0.836133
0.189914 0.510445 0.837095
0.190753 0.512337 0.836652
0.282475 0.52372 0.853437
0.531807 0.565972 0.89836
0.729213 0.616144 0.914122
0.870283 0.654002 0.920501
0.916197 0.641474 0.91043
0.208042 0.570809 0.843748
0.207187 0.568475 0.84358
0.207263 0.566979 0.843488
0.205188 0.564202 0.843076
0.25301 0.567285 0.85095
0.486427 0.595956 0.895354
0.698726 0.638544 0.92018
0.855116 0.6804 0.929671
0.927611 0.683589 0.923262
0.228977 0.631159 0.851286
0.228199 0.629694 0.850568
0.22681 0.626078 0.850935
0.225635 0.621851 0.850309
0.248463 0.617914 0.853178
0.451148 0.636851 0.891096
0.676448 0.674769 0.931746
0.847196 0.715084 0.942916
0.93753 0.720333 0.933822
0.285359 0.699611 0.857603
0.280385 0.695552 0.856458
0.27776 0.692119 0.856947
0.273838 0.68864 0.85713
0.274083 0.680537 0.857923
0.426535 0.690578 0.88986
0.659037 0.721187 0.940414
0.843839 0.755535 0.957382
0.948241 0.757687 0.945541
0.406592 0.774884 0.862501
0.401389 0.772625 0.861524
0.393774 0.768978 0.862425
0.385885 0.76379 0.861631
0.374914 0.756268 0.861677
0.431113 0.752697 0.886824
0.639246 0.779934 0.941695
0.846845 0.807187 0.974792
0.957748 0.793256 0.955901
0.520195 0.846067 0.882292
0.516381 0.844144 0.881651
0.514885 0.843427 0.881209
0.508507 0.838331 0.879042
0.50428 0.835767 0.878904
0.538338 0.848569 0.890898
0.634821 0.863478 0.93579
0.836637 0.882658 0.990921
0.976059 0.858915 0.975265
0.647059 0.927474 0.920592
0.646998 0.927398 0.920638
0.646983 0.927382 0.920638
0.646983 0.927382 0.920638
0.646983 0.927382 0.920653
0.646983 0.927047 0.922377
0.648188 0.928344 0.923888
0.718166 0.948318 0.940917
0.998047 0.998047 0.998047
