app/src/main/assets/luts/reala.cube
TITLE "Generated by Resolve"
LUT_3D_SIZE 5
0 0 0
0.181231 0.00337224 3.0518e-05
0.573327 0.00131228 0.000213626
0.839338 0.0990768 0.0803235
0.915389 0.218647 0.250751
0.0299382 0.275822 0.000656138
0.287648 0.277806 0.000228885
0.57319 0.270558 3.0518e-05
0.855146 0.309682 0.0242618
0.952895 0.391196 0.1841
0.265965 0.620706 0.184176
0.370703 0.612818 0.138155
0.61117 0.618112 0.000183108
0.903334 0.63682 0.000183108
0.982147 0.629526 0.0661631
0.670802 0.930297 0.592905
0.706889 0.933761 0.587366
0.806256 0.949111 0.567727
0.943832 0.956481 0.342962
0.991241 0.8719 0.0645914
0.668666 0.931105 0.624475
0.677195 0.93257 0.620996
0.7028 0.936751 0.617777
0.776516 0.948913 0.608606
0.995529 0.988052 0.459785
0.000320439 0.00642405 0.175525
0.299535 0.0105898 0.254704
0.62742 0.0028687 0.276036
0.88011 0.14493 0.350286
0.923873 0.251225 0.435584
0.0010071 0.276951 0.289372
0.301625 0.304677 0.302052
0.608057 0.288777 0.275776
0.903624 0.322087 0.316457
0.957732 0.40238 0.409781
0.252964 0.655238 0.373678
0.359762 0.6439 0.313588
0.647883 0.64007 0.270939
0.937362 0.646845 0.28542
0.994751 0.634058 0.355825
0.655421 0.927642 0.64564
0.689311 0.930236 0.63183
0.782101 0.933806 0.582238
0.934966 0.939651 0.363989
0.997833 0.853483 0.295689
0.662272 0.931868 0.655512
0.673564 0.933165 0.657252
0.701457 0.938247 0.656687
0.773404 0.949798 0.642817
0.995285 0.988617 0.485069
0.000183108 0.0177462 0.450065
0.340658 0.0520027 0.571023
0.665034 0.156085 0.604562
0.882628 0.311803 0.678126
0.918242 0.362707 0.656275
0.000213626 0.295293 0.634119
0.255894 0.320287 0.647318
0.66923 0.35906 0.670893
0.922072 0.423972 0.679835
0.965835 0.480476 0.667018
0.203723 0.652155 0.669734
0.293309 0.64979 0.660761
0.672038 0.675593 0.67303
0.96408 0.664286 0.6542
0.998444 0.645426 0.639078
0.621515 0.919066 0.777386
0.635401 0.916915 0.761196
0.731121 0.916304 0.720088
0.918013 0.913863 0.591073
0.99884 0.828412 0.550958
0.654383 0.933486 0.71284
0.658534 0.934264 0.710903
0.688609 0.938476 0.711559
0.768765 0.952193 0.710002
0.995453 0.989517 0.538476
0.137804 0.109789 0.715068
0.401236 0.221042 0.788159
0.723781 0.35935 0.830518
0.861708 0.443595 0.84828
0.88658 0.472511 0.817166
0.177707 0.461402 0.830991
0.256474 0.444999 0.843885
0.679866 0.506661 0.881498
0.895064 0.56846 0.888411
0.917693 0.56141 0.836683
0.275685 0.689921 0.85658
0.285374 0.675563 0.861799
0.616953 0.690837 0.925948
0.916991 0.723049 0.931716
0.966079 0.678614 0.842908
0.525078 0.850401 0.872862
0.536568 0.857633 0.868406
0.621332 0.8692 0.879499
0.880018 0.881025 0.8804
0.999405 0.810864 0.80238
0.650599 0.935912 0.81004
0.650706 0.936965 0.805829
0.657221 0.937728 0.798016
0.74403 0.952636 0.797757
0.993561 0.991791 0.64332
0.161685 0.388586 0.824048
0.164355 0.400763 0.825452
0.478676 0.479713 0.87248
0.81323 0.581338 0.900053
0.897429 0.570352 0.888441
0.190997 0.5122 0.836942
0.189914 0.510445 0.837095
0.282475 0.52372 0.853437
0.729213 0.616144 0.914122
0.916197 0.641474 0.91043
0.228977 0.631159 0.851286
0.22681 0.626078 0.850935
0.248463 0.617914 0.853178
0.676448 0.674769 0.931746
0.93753 0.720333 0.933822
0.406592 0.774884 0.862501
0.393774 0.768978 0.862425
0.374914 0.756268 0.861677
0.639246 0.779934 0.941695
0.957748 0.793256 0.955901
0.647059 0.927474 0.920592
0.646983 0.927382 0.920638
0.646983 0.927382 0.920653
0.648188 0.928344 0.923888
0.998047 0.998047 0.998047
