app/src/main/assets/luts/reala.cube
TITLE "Generated by Resolve"
LUT_3D_SIZE 33
0 0 0
0.024445 0.00105287 0.000335698
0.0360876 0.000656138 0.000228885
0.0494392 0.000686656 0.00030518
0.064332 0.00198367 0.000335698
0.0823072 0.00158694 0.000122072
0.10573 0.000915541 7.62951e-05
0.138186 0.00337224 0.000198367
0.181231 0.00337224 3.0518e-05
0.23798 0.00453193 0.000213626
0.290455 0.00440986 0.000381476
0.339147 0.00202945 3.0518e-05
0.389456 0.00323491 0.000167849
0.4365 0.000488289 4.57771e-05
0.483726 0.000457771 3.0518e-05
0.527687 0.000549325 0.000137331
0.573327 0.00131228 0.000213626
0.611612 7.62951e-05 0.000579843
0.645518 0.00268559 0.00105287
0.680827 0.00332647 0.00306706
0.714855 0.0146029 0.0170443
0.748135 0.0344701 0.0277562
0.780392 0.0525063 0.0411383
0.812512 0.0729229 0.0588998
0.839338 0.0990768 0.0803235
0.868864 0.13904 0.109957
0.894255 0.17171 0.141299
0.907271 0.190341 0.169055
0.909361 0.196582 0.195209
0.911376 0.203143 0.225803
0.912398 0.209689 0.256748
0.913359 0.213626 0.253758
0.915389 0.218647 0.250751
0.0047303 0.0374456 0.000335698
0.0436255 0.0430304 0.000228885
0.0645762 0.0459602 0.00015259
0.0816968 0.0486458 9.15541e-05
0.109102 0.0521096 0.00062562
0.142351 0.0545357 0.000534066
0.176745 0.0565652 0.00030518
0.219562 0.0568399 0.000167849
0.259602 0.0572671 0.000396735
0.301762 0.0577554 6.10361e-05
0.342382 0.0571298 1.5259e-05
0.384771 0.055436 6.10361e-05
0.425971 0.0536507 0.00015259
0.464363 0.0539406 6.10361e-05
0.502281 0.0539559 0
0.539101 0.0525063 0
0.574929 0.0514382 1.5259e-05
0.610239 0.0543832 1.5259e-05
0.645396 0.057496 1.5259e-05
0.680064 0.0641337 0.00140383
0.713664 0.0744793 0.0040589
0.747112 0.088426 0.0163729
0.779873 0.102495 0.0302281
0.810498 0.117052 0.0459754
0.839841 0.135531 0.0645457
0.869749 0.162081 0.0915084
0.899031 0.199329 0.126787
0.911589 0.21738 0.152071
0.917479 0.228077 0.178759
0.920012 0.237278 0.208881
0.921569 0.245563 0.233967
0.921248 0.247562 0.232578
0.922438 0.249363 0.230457
0.00817884 0.0596323 0.000259403
0.0558022 0.070573 0.000671397
0.0761273 0.0738537 0.000534066
0.099321 0.0764019 0.000961318
0.128191 0.0786297 0.000335698
0.160235 0.0788586 3.0518e-05
0.193942 0.0791028 7.62951e-05
0.232975 0.0818189 0.000106813
0.272206 0.0822156 0.000411994
0.314809 0.0802472 0.000167849
0.35201 0.0795911 1.5259e-05
0.393118 0.0776074 0.000534066
0.427573 0.0773022 0.000244144
0.464454 0.0771344 0.000167849
0.501411 0.0760815 0.000198367
0.537758 0.0752422 0.000137331
0.57525 0.0757 3.0518e-05
0.609781 0.0783246 1.5259e-05
0.645243 0.0820325 7.62951e-05
0.680537 0.088304 0.000274662
0.713542 0.0988479 0.00222782
0.74728 0.110521 0.0125582
0.779721 0.12163 0.0252537
0.810407 0.13547 0.040528
0.840131 0.153399 0.0598154
0.871077 0.175418 0.0866102
0.899443 0.210193 0.118715
0.913725 0.229511 0.14612
0.919936 0.240986 0.173175
0.922637 0.25098 0.20325
0.924468 0.259815 0.225879
0.92517 0.261769 0.226963
0.925566 0.263066 0.222019
0.0110323 0.0951095 0.000198367
0.0652781 0.100099 4.57771e-05
0.0868238 0.102358 0.000579843
0.11426 0.104829 0.000320439
0.141604 0.105547 0.00047303
0.172961 0.105348 0.000350958
0.208698 0.105791 0.000274662
0.244572 0.106538 0.000457771
0.282445 0.106111 0.000427253
0.320882 0.105608 0.000381476
0.357595 0.105608 1.5259e-05
0.39266 0.107774 1.5259e-05
0.428443 0.106188 0.000381476
0.46537 0.103838 0.000427253
0.502617 0.102632 0.000274662
0.540017 0.103105 0
0.574685 0.104417 0
0.609934 0.106386 7.62951e-05
0.645304 0.109331 3.0518e-05
0.679805 0.116152 1.5259e-05
0.714214 0.12546 0.00205997
0.74725 0.135317 0.0065919
0.779568 0.146105 0.0200046
0.810071 0.158068 0.035874
0.841093 0.173129 0.0555276
0.872099 0.193957 0.0801556
0.901976 0.2262 0.112215
0.916594 0.243915 0.14052
0.922927 0.256657 0.167834
0.925643 0.267796 0.196475
0.927749 0.275593 0.218036
0.929168 0.277821 0.220768
0.928969 0.279622 0.216159
0.0130922 0.128985 0.000350958
0.0693828 0.131914 0.000244144
0.0907301 0.134127 0.000289921
0.11664 0.137575 0.000518807
0.147875 0.139055 0.000610361
0.181628 0.138857 0.000106813
0.214511 0.137057 0.000122072
0.250294 0.136568 0.000488289
0.285161 0.13463 0.000457771
0.3205 0.132372 0.000274662
0.355474 0.132158 0.000183108
0.390082 0.134081 0.000122072
0.427512 0.135775 0.000122072
0.464698 0.133211 0.000244144
0.502586 0.133684 9.15541e-05
0.539193 0.134417 0
0.575463 0.13492 4.57771e-05
0.61178 0.135821 0
0.647044 0.139239 0
0.681575 0.145937 0
0.714626 0.154376 7.62951e-05
0.747845 0.16289 0.00189212
0.779751 0.170947 0.0153964
0.811154 0.181628 0.0304723
0.842268 0.195666 0.0489204
0.874067 0.214603 0.0734417
0.905074 0.242969 0.107027
0.921355 0.263432 0.138064
0.926986 0.275608 0.161883
0.929473 0.287053 0.189837
0.932006 0.294621 0.2103
0.933043 0.297292 0.215518
0.932662 0.29752 0.210925
0.0176547 0.164675 0.000198367
0.0740978 0.166934 4.57771e-05
0.0941939 0.168673 0.000228885
0.11986 0.17116 0.000396735
0.149538 0.172305 0.000335698
0.181842 0.172519 0.000274662
0.216419 0.172473 0.000228885
0.252354 0.170031 0.000106813
0.28484 0.168307 0.000366217
0.319448 0.168048 7.62951e-05
0.353841 0.167391 0.000534066
0.389075 0.166278 0.000488289
0.426047 0.165057 0.000106813
0.463752 0.164248 0.000122072
0.502007 0.165133 0.000717174
0.538842 0.1682 0.000701915
0.575341 0.169558 0.000335698
0.611719 0.169665 0
0.648753 0.171588 6.10361e-05
0.682368 0.177096 1.5259e-05
0.716426 0.18352 0
0.749035 0.190982 0.00227359
0.78143 0.198459 0.00817884
0.812558 0.208545 0.0247654
0.845563 0.220157 0.0447395
0.878202 0.237217 0.0686046
0.90721 0.262028 0.099321
0.92726 0.285954 0.133303
0.931487 0.297444 0.156542
0.934066 0.308385 0.183368
0.936736 0.316274 0.203708
0.937514 0.318318 0.209827
0.937133 0.317113 0.205539
0.0175631 0.205188 0.000106813
0.0746624 0.204166 0.000320439
0.0977035 0.204379 0.000427253
0.122621 0.204578 0.000396735
0.149142 0.205158 0.000137331
0.182071 0.205692 6.10361e-05
0.21648 0.208133 0
0.251759 0.206821 1.5259e-05
0.286458 0.203616 4.57771e-05
0.319875 0.202884 7.62951e-05
0.352911 0.199786 0.00062562
0.388724 0.198657 0.000289921
0.424964 0.198322 0.000106813
0.461799 0.198337 9.15541e-05
0.499733 0.198489 0.000167849
0.538125 0.199207 1.5259e-05
0.574502 0.200504 4.57771e-05
0.610803 0.20238 6.10361e-05
0.648188 0.204852 0.000213626
0.684169 0.207706 4.57771e-05
0.71812 0.213642 1.5259e-05
0.750576 0.220691 0
0.782483 0.227909 0.00285344
0.815641 0.236805 0.0214847
0.848569 0.248447 0.038941
0.8804 0.265003 0.0614023
0.910552 0.28542 0.0898909
0.934081 0.310628 0.128832
0.936599 0.320882 0.151278
0.93991 0.332692 0.177279
0.942184 0.340597 0.197528
0.942504 0.340764 0.203494
0.941665 0.33904 0.198795
0.0241855 0.240711 4.57771e-05
0.0778821 0.23856 0.000366217
0.0987259 0.238361 0.000320439
0.122301 0.238788 0.000167849
0.152026 0.239963 0.000122072
0.183032 0.240436 6.10361e-05
0.215244 0.239307 3.0518e-05
0.252155 0.239475 0.000213626
0.286473 0.24004 9.15541e-05
0.3205 0.238178 0.000122072
0.355016 0.235325 0.000213626
0.389639 0.235721 0.000228885
0.424765 0.234516 4.57771e-05
0.461692 0.233982 1.5259e-05
0.499474 0.233524 0.000183108
0.537499 0.233127 0.000610361
0.571832 0.234745 0.000106813
0.609583 0.236728 0.000167849
0.647135 0.238712 0.000167849
0.68275 0.239994 0
0.716869 0.243565 1.5259e-05
0.750454 0.249409 9.15541e-05
0.784344 0.257954 0.00390631
0.818479 0.266865 0.0132753
0.851225 0.278523 0.0317235
0.885374 0.293873 0.0558633
0.91693 0.314061 0.0885023
0.940185 0.337591 0.125612
0.942138 0.346181 0.144442
0.9458 0.359533 0.170413
0.947463 0.366293 0.192172
0.948135 0.366232 0.195941
0.946563 0.362768 0.192111
0.0299382 0.275822 0.000656138
0.0775616 0.274846 7.62951e-05
0.0992599 0.274739 4.57771e-05
0.123751 0.275486 6.10361e-05
0.1514 0.276204 0.000183108
0.184146 0.275914 0.000549325
0.217746 0.275196 0.00047303
0.252293 0.275792 0.000366217
0.287648 0.277806 0.000228885
0.322896 0.276081 9.15541e-05
0.356802 0.274922 4.57771e-05
0.391379 0.273381 4.57771e-05
0.427222 0.271778 3.0518e-05
0.463645 0.271794 0.000106813
0.49955 0.271382 7.62951e-05
0.53576 0.271183 3.0518e-05
0.57319 0.270558 3.0518e-05
0.610239 0.272572 7.62951e-05
0.646296 0.273198 0.000122072
0.681559 0.274266 0.000106813
0.716243 0.276646 0.000213626
0.751431 0.28159 7.62951e-05
0.785992 0.288151 0.000274662
0.819608 0.29749 0.00444038
0.855146 0.309682 0.0242618
0.890074 0.323339 0.0496223
0.922789 0.344564 0.0853437
0.944869 0.36466 0.119249
0.94757 0.374502 0.137209
0.951019 0.386801 0.162173
0.952895 0.395178 0.185672
0.953689 0.393454 0.185672
0.952895 0.391196 0.1841
0.0551766 0.31397 0.00183108
0.0899062 0.313878 0.000686656
0.109026 0.312398 0.000320439
0.130617 0.311101 0.000183108
0.157015 0.311101 0.000198367
0.186755 0.311101 0.000335698
0.219486 0.311727 0.000717174
0.25362 0.311208 0.00062562
0.288151 0.312306 0.000396735
0.323033 0.31368 0.000183108
0.357778 0.313619 0.000137331
0.393484 0.312078 4.57771e-05
0.429404 0.31043 3.0518e-05
0.465583 0.308843 4.57771e-05
0.50016 0.308049 0.00015259
0.535729 0.307927 0.00015259
0.572564 0.307912 0.000183108
0.610742 0.307591 0.000228885
0.645823 0.308019 0.000122072
0.68098 0.309285 9.15541e-05
0.716304 0.311269 4.57771e-05
0.752926 0.314519 0
0.787198 0.320485 0.000137331
0.822003 0.329412 0.00456245
0.859022 0.341497 0.0164034
0.894469 0.354864 0.0411231
0.928481 0.376318 0.0799725
0.946654 0.392798 0.109209
0.952331 0.404623 0.130266
0.955718 0.41593 0.152941
0.958526 0.426352 0.173648
0.958755 0.422446 0.174655
0.957351 0.418173 0.175875
0.0859693 0.353704 0.0238956
0.112642 0.352026 0.0115358
0.125917 0.351385 0.00781262
0.143343 0.34963 0.00476081
0.165377 0.349142 0.00280766
0.191623 0.349996 0.00163272
0.222217 0.35021 0.000946059
0.254566 0.350454 0.000274662
0.289464 0.350439 0.000198367
0.324544 0.351644 0.000106813
0.360021 0.352087 6.10361e-05
0.396399 0.350332 1.5259e-05
0.432273 0.349111 0.000274662
0.467353 0.347906 0.000366217
0.501732 0.346273 4.57771e-05
0.537545 0.345647 0.000228885
0.57377 0.345403 0.000274662
0.610147 0.345052 0.000122072
0.645441 0.345861 4.57771e-05
0.681117 0.346349 1.5259e-05
0.717891 0.347784 3.0518e-05
0.756069 0.352178 0
0.790845 0.357244 1.5259e-05
0.827054 0.364874 0.0015259
0.863478 0.375479 0.00828565
0.899931 0.38999 0.031632
0.933196 0.409522 0.0727092
0.950088 0.424277 0.101595
0.957259 0.436942 0.123278
0.960571 0.449409 0.142947
0.962722 0.456306 0.159365
0.961959 0.450828 0.162417
0.961334 0.446174 0.164645
0.112291 0.393133 0.0489815
0.135576 0.390768 0.0361639
0.147265 0.390814 0.0311437
0.162264 0.390326 0.0239109
0.179507 0.389746 0.0153506
0.203235 0.388205 0.00979629
0.229541 0.386511 0.00445563
0.260456 0.388617 0.00213626
0.292363 0.389593 0.000198367
0.325505 0.389288 0.000122072
0.361013 0.388952 0.000122072
0.396948 0.388663 0.000335698
0.433539 0.388159 0.000839246
0.470512 0.387442 0.000396735
0.505943 0.386419 0.000183108
0.538643 0.384115 0.000335698
0.574197 0.382483 0.000106813
0.611032 0.383093 1.5259e-05
0.648081 0.38468 0
0.684398 0.384894 3.0518e-05
0.722271 0.388312 1.5259e-05
0.76025 0.392493 1.5259e-05
0.796506 0.396216 3.0518e-05
0.832822 0.402975 0.000427253
0.869368 0.413581 0.00959792
0.905547 0.427955 0.0300908
0.939315 0.444892 0.0686503
0.955398 0.457862 0.0950179
0.961685 0.470207 0.112215
0.964843 0.481621 0.13019
0.965972 0.485145 0.143481
0.965042 0.48011 0.149752
0.96463 0.47393 0.151293
0.139742 0.435752 0.0747845
0.159243 0.432792 0.0647288
0.170336 0.432044 0.0592813
0.182391 0.431357 0.0536049
0.199771 0.430091 0.0423896
0.218875 0.428672 0.0299229
0.242481 0.428855 0.019852
0.268025 0.42855 0.0105745
0.296971 0.427878 0.00671397
0.328115 0.427466 0.00318914
0.3608 0.427085 0.000442512
0.396765 0.427146 0.000686656
0.433677 0.427634 0.000610361
0.471672 0.428092 9.15541e-05
0.506645 0.427054 6.10361e-05
0.542596 0.426246 4.57771e-05
0.578012 0.425422 4.57771e-05
0.614603 0.426398 1.5259e-05
0.651316 0.427588 1.5259e-05
0.687968 0.429297 0
0.727611 0.432685 7.62951e-05
0.765682 0.435859 9.15541e-05
0.802518 0.439689 3.0518e-05
0.838788 0.445518 9.15541e-05
0.874937 0.455817 0.00451667
0.910567 0.467887 0.0243076
0.942779 0.481315 0.0591745
0.963058 0.494575 0.0874037
0.965667 0.504219 0.0981765
0.969467 0.515435 0.116335
0.97023 0.515938 0.130617
0.970138 0.510826 0.136919
0.968139 0.502693 0.138399
0.168917 0.477119 0.0994125
0.188006 0.475578 0.0909895
0.197101 0.474937 0.0869612
0.208942 0.474098 0.0816663
0.221912 0.472953 0.0754864
0.239445 0.471672 0.0640726
0.25835 0.470726 0.05243
0.281453 0.469612 0.0372931
0.306569 0.468421 0.0237125
0.334752 0.467948 0.013901
0.365576 0.468055 0.00671397
0.397665 0.468238 0.000350958
0.434882 0.468284 0.000106813
0.472465 0.468681 3.0518e-05
0.510918 0.470146 9.15541e-05
0.54696 0.470085 3.0518e-05
0.583474 0.470527 0.000106813
0.621485 0.471336 0.000427253
0.657649 0.47361 0.000244144
0.695033 0.475944 0.000198367
0.733913 0.47863 0.000381476
0.771359 0.481727 0.000167849
0.808225 0.486061 3.0518e-05
0.845258 0.49221 9.15541e-05
0.882353 0.498909 0.000839246
0.918151 0.509499 0.0185855
0.948547 0.521614 0.0441749
0.968978 0.532815 0.0717479
0.971008 0.54107 0.0828412
0.973861 0.55053 0.099443
0.974655 0.548272 0.113802
0.973938 0.541878 0.117891
0.971725 0.533089 0.120729
0.199542 0.521843 0.124941
0.215732 0.519875 0.118105
0.222766 0.518517 0.114885
0.232654 0.51751 0.110445
0.24625 0.516823 0.10428
0.26128 0.51606 0.0971389
0.28043 0.514839 0.0854963
0.300923 0.51397 0.0726482
0.323369 0.513451 0.0547189
0.347906 0.512825 0.0379797
0.37467 0.512459 0.0234226
0.406912 0.512413 0.0124666
0.44184 0.512398 0.000411994
0.47895 0.514214 0.000183108
0.516152 0.515618 4.57771e-05
0.553521 0.51667 0.000137331
0.592447 0.518624 0.000167849
0.630793 0.520668 0.00015259
0.668193 0.521645 0.000183108
0.705898 0.523674 0.000274662
0.743252 0.52665 0.000350958
0.7794 0.530053 0.000122072
0.815869 0.535119 0.000122072
0.852888 0.539208 0.000167849
0.889448 0.543221 0.00102235
0.925002 0.552178 0.00932326
0.957641 0.562676 0.0344091
0.974136 0.571176 0.0515602
0.975875 0.577646 0.0603037
0.977752 0.584741 0.0755932
0.977142 0.580499 0.0903792
0.976623 0.572656 0.0971695
0.97644 0.56582 0.103944
0.231418 0.569329 0.152667
0.245869 0.567956 0.147311
0.25388 0.566735 0.143984
0.262837 0.565652 0.140566
0.274189 0.564614 0.135714
0.288609 0.564004 0.129305
0.304646 0.563546 0.122026
0.323949 0.562371 0.110811
0.34432 0.561685 0.0986801
0.367346 0.561502 0.0821393
0.393103 0.561227 0.0616007
0.422187 0.561166 0.035462
0.455024 0.562219 0.0226291
0.490211 0.563607 0.0137942
0.526284 0.563928 0.00642405
0.562997 0.565087 6.10361e-05
0.601328 0.568704 0
0.639597 0.570855 0
0.678309 0.572564 1.5259e-05
0.716747 0.573907 7.62951e-05
0.752758 0.576761 0.000244144
0.788464 0.579873 0.000457771
0.826154 0.582391 0.000457771
0.861204 0.586084 0.00030518
0.896162 0.590616 0.000213626
0.932326 0.595193 0.00198367
0.967544 0.604883 0.0203555
0.97644 0.60914 0.0264591
0.97908 0.61532 0.0388037
0.980026 0.618555 0.0548562
0.980209 0.613596 0.0661936
0.98085 0.605509 0.0751049
0.979904 0.597864 0.0830854
0.265965 0.620706 0.184176
0.280522 0.617731 0.177401
0.286595 0.616617 0.174655
0.296117 0.615747 0.171145
0.306828 0.614832 0.167315
0.319463 0.614191 0.162448
0.334493 0.614069 0.156161
0.35082 0.613642 0.148821
0.370703 0.612818 0.138155
0.391913 0.612192 0.126238
0.417334 0.613077 0.111116
0.444327 0.614084 0.0923323
0.474159 0.615274 0.0670024
0.505699 0.614984 0.0449683
0.538643 0.613962 0.0235752
0.57438 0.616159 0.0114443
0.61117 0.618112 0.000183108
0.650324 0.619791 6.10361e-05
0.689006 0.621515 0
0.727337 0.624109 3.0518e-05
0.762142 0.626123 0.000335698
0.798154 0.628702 0.000335698
0.834897 0.631601 7.62951e-05
0.869001 0.634546 0.000350958
0.903334 0.63682 0.000183108
0.939086 0.640955 0.00183108
0.971954 0.646067 0.00679026
0.979034 0.649027 0.0116426
0.980865 0.654734 0.0240177
0.982086 0.655756 0.0408484
0.982818 0.649638 0.0548409
0.982635 0.641093 0.062974
0.982147 0.629526 0.0661631
0.316747 0.672145 0.228763
0.326696 0.66952 0.219806
0.331868 0.668894 0.216419
0.337697 0.668223 0.212512
0.347265 0.667765 0.207797
0.3579 0.667597 0.202869
0.370169 0.667063 0.196246
0.385214 0.666392 0.187091
0.401648 0.665995 0.177356
0.421576 0.666194 0.166278
0.443549 0.666377 0.154742
0.470756 0.667552 0.138903
0.498009 0.668116 0.1196
0.526818 0.668177 0.0939193
0.557168 0.668086 0.0652781
0.588998 0.667964 0.0336614
0.624491 0.668742 0.0210727
0.660426 0.669657 0.00981155
0.698146 0.671885 0.00329595
0.734356 0.673609 0.000122072
0.770153 0.675105 0.00030518
0.806287 0.678126 9.15541e-05
0.840864 0.680095 6.10361e-05
0.874907 0.680995 0.000122072
0.910079 0.683482 3.0518e-05
0.944839 0.685191 0
0.96997 0.687495 0
0.981811 0.690944 0.00244144
0.981506 0.694041 0.0131991
0.983978 0.694316 0.0341955
0.984085 0.686763 0.0472267
0.984253 0.67808 0.0555734
0.983902 0.66656 0.0596323
0.380743 0.72398 0.289174
0.387137 0.721187 0.281193
0.391714 0.720638 0.277684
0.396674 0.71986 0.273503
0.402365 0.71931 0.26923
0.410819 0.718914 0.262669
0.420569 0.718746 0.255192
0.431479 0.718517 0.246265
0.445884 0.718944 0.23508
0.460716 0.719265 0.222827
0.478935 0.719203 0.205478
0.497673 0.719249 0.187488
0.52343 0.720424 0.170855
0.550027 0.721416 0.151904
0.578927 0.720867 0.12459
0.608728 0.720806 0.0954452
0.639719 0.721401 0.0639048
0.673396 0.721721 0.0409247
0.707897 0.72221 0.019379
0.742458 0.723064 0.00857557
0.777478 0.724437 0.00132753
0.81268 0.725795 0
0.847227 0.726604 0.000167849
0.881727 0.72752 0.00015259
0.916182 0.728298 0
0.949828 0.728283 0
0.972519 0.729641 0.000106813
0.982193 0.731929 0.00241093
0.983536 0.733318 0.0138399
0.984924 0.731563 0.0311284
0.985306 0.723491 0.0438087
0.985428 0.714351 0.0523537
0.98497 0.700954 0.0599985
0.443168 0.772122 0.352331
0.450111 0.770489 0.345739
0.452873 0.76994 0.343359
0.456962 0.769253 0.339422
0.462425 0.768658 0.334386
0.468406 0.768109 0.329107
0.47686 0.767926 0.323033
0.487297 0.767971 0.316121
0.498589 0.768078 0.308583
0.511986 0.768109 0.296483
0.525933 0.768322 0.284367
0.544198 0.768978 0.268025
0.563058 0.770016 0.251286
0.584787 0.770947 0.229557
0.60763 0.771664 0.206729
0.633234 0.771481 0.173602
0.659953 0.771359 0.137865
0.689158 0.771725 0.0980545
0.720195 0.771801 0.0660716
0.752605 0.771862 0.0365301
0.784237 0.771176 0.0149538
0.817319 0.771099 4.57771e-05
0.852064 0.771878 7.62951e-05
0.886046 0.772366 1.5259e-05
0.919905 0.772763 0
0.953353 0.772534 3.0518e-05
0.984314 0.771725 9.15541e-05
0.985382 0.772335 0.00102235
0.985626 0.773129 0.0144961
0.985809 0.76817 0.0304417
0.986648 0.760418 0.0429236
0.986465 0.750149 0.0530709
0.98674 0.734417 0.0633555
0.504829 0.816922 0.414328
0.509636 0.815076 0.408057
0.512367 0.81445 0.405249
0.515251 0.813642 0.401968
0.518944 0.812848 0.398199
0.525078 0.812528 0.393317
0.531472 0.812039 0.387869
0.5393 0.81178 0.381674
0.550042 0.812009 0.374441
0.561288 0.812421 0.367468
0.575433 0.812634 0.356207
0.590051 0.812863 0.344778
0.606729 0.813519 0.330129
0.624109 0.814481 0.315114
0.642771 0.816114 0.291142
0.662333 0.818006 0.265843
0.685664 0.818112 0.227344
0.710002 0.818402 0.190158
0.737057 0.818753 0.153536
0.76466 0.817945 0.106676
0.792721 0.816724 0.0507973
0.824628 0.815396 0.0309453
0.856107 0.814435 0.0123445
0.887892 0.813336 4.57771e-05
0.922286 0.812818 1.5259e-05
0.955856 0.812253 0
0.980056 0.811536 7.62951e-05
0.986114 0.810422 0.0015259
0.986511 0.810834 0.0108492
0.986877 0.805539 0.0269322
0.988678 0.797269 0.043946
0.987716 0.783505 0.0556954
0.987839 0.764218 0.0623941
0.559716 0.85568 0.470649
0.562783 0.853468 0.46508
0.564858 0.852903 0.462928
0.568383 0.852583 0.460121
0.572442 0.852323 0.457191
0.576913 0.851957 0.453803
0.583734 0.852277 0.450217
0.591409 0.852674 0.446067
0.599527 0.852934 0.441291
0.61004 0.852689 0.433402
0.620798 0.85243 0.425345
0.633738 0.852934 0.416022
0.647669 0.853513 0.405829
0.663523 0.854688 0.393011
0.680659 0.856062 0.378836
0.698741 0.857282 0.360342
0.717006 0.858045 0.338842
0.738476 0.859312 0.307759
0.760739 0.860227 0.270863
0.784237 0.859464 0.209995
0.808637 0.858305 0.153582
0.833631 0.857176 0.0986954
0.861723 0.854765 0.0578164
0.891325 0.853101 0.0254826
0.92282 0.852277 0.00624094
0.957031 0.850874 0.00122072
0.978988 0.850095 0.00102235
0.988113 0.849515 0.00544747
0.988251 0.847135 0.0145266
0.988602 0.840497 0.0283055
0.988602 0.82919 0.0428779
0.98912 0.813321 0.0540627
0.988586 0.792874 0.0638743
0.609216 0.889677 0.524987
0.613809 0.888747 0.520317
0.615595 0.888304 0.518273
0.617655 0.887861 0.516014
0.621042 0.887541 0.513481
0.625544 0.887282 0.510674
0.630274 0.8869 0.507515
0.636316 0.886717 0.503838
0.643977 0.886793 0.499367
0.652079 0.886946 0.494881
0.662425 0.887297 0.488655
0.673625 0.8878 0.482078
0.686198 0.888502 0.474113
0.699748 0.889097 0.464698
0.714687 0.890028 0.45391
0.731517 0.891539 0.442451
0.74966 0.892958 0.425391
0.768673 0.894194 0.404242
0.78822 0.895293 0.370764
0.807736 0.895964 0.333425
0.827268 0.895491 0.282963
0.849165 0.894774 0.226688
0.873167 0.894026 0.164309
0.90071 0.893111 0.118273
0.929152 0.891508 0.0753185
0.957626 0.889357 0.0349432
0.98735 0.887098 0.00108339
0.98854 0.886381 0.00297551
0.98851 0.88101 0.0142672
0.988922 0.871763 0.0268864
0.99025 0.859586 0.0392767
0.990188 0.841627 0.0535439
0.989242 0.819333 0.0649882
0.6533 0.91809 0.571878
0.657084 0.918166 0.569955
0.659602 0.918257 0.568963
0.662608 0.918441 0.567971
0.666041 0.918746 0.566995
0.670054 0.919142 0.565972
0.675227 0.918883 0.563287
0.680705 0.918456 0.560189
0.686824 0.918196 0.557275
0.695109 0.918547 0.553643
0.703975 0.918975 0.550057
0.714107 0.919509 0.545373
0.725139 0.920012 0.539742
0.737346 0.920729 0.533562
0.75082 0.921401 0.525628
0.76492 0.922332 0.516747
0.780041 0.923308 0.504784
0.795972 0.924071 0.48986
0.81265 0.924498 0.471412
0.830274 0.925551 0.447425
0.848814 0.926925 0.420706
0.869856 0.927901 0.378378
0.891508 0.928771 0.327626
0.913863 0.929961 0.269764
0.936782 0.929137 0.195209
0.962707 0.926177 0.112444
0.981201 0.922148 0.0384833
0.98764 0.918013 0.00254826
0.988342 0.911971 0.00866712
0.990356 0.901122 0.0241855
0.98999 0.88603 0.0370184
0.989914 0.868833 0.0518502
0.990158 0.845502 0.064271
0.670802 0.930297 0.592905
0.675563 0.930617 0.591913
0.677424 0.930755 0.591562
0.67982 0.930922 0.591119
0.683589 0.931121 0.590326
0.687861 0.931395 0.589548
0.692622 0.931807 0.588876
0.69897 0.932586 0.588159
0.706889 0.933761 0.587366
0.71548 0.93521 0.586954
0.725872 0.937072 0.586053
0.73753 0.9393 0.585367
0.750576 0.941909 0.585107
0.765682 0.94519 0.585977
0.780514 0.947906 0.585
0.793042 0.948516 0.576761
0.806256 0.949111 0.567727
0.820005 0.949096 0.555779
0.835309 0.949996 0.543694
0.852415 0.951888 0.531395
0.869764 0.953429 0.514458
0.887312 0.955062 0.495201
0.90544 0.955764 0.458259
0.923949 0.956344 0.407019
0.943832 0.956481 0.342962
0.966781 0.954482 0.256733
0.988159 0.951843 0.17641
0.994934 0.948974 0.138842
0.992844 0.940307 0.0846265
0.990997 0.927703 0.0512703
0.990616 0.912627 0.0469215
0.98996 0.894728 0.0471504
0.991241 0.8719 0.0645914
0.669413 0.930098 0.593561
0.673793 0.930755 0.59353
0.676158 0.93109 0.5935
0.678874 0.931456 0.593469
0.681895 0.931884 0.593423
0.685969 0.932494 0.593286
0.691615 0.93344 0.593011
0.697765 0.934462 0.592706
0.704616 0.935592 0.592386
0.713863 0.937163 0.591959
0.723735 0.938842 0.591501
0.734874 0.940841 0.590707
0.747707 0.943221 0.589471
0.761135 0.945663 0.588251
0.775692 0.947936 0.587076
0.790738 0.950362 0.585733
0.805692 0.952956 0.583001
0.821622 0.955764 0.580072
0.839033 0.958877 0.576562
0.856123 0.961807 0.571389
0.872694 0.964645 0.563821
0.88954 0.96669 0.549859
0.907439 0.969131 0.534188
0.925704 0.971756 0.516304
0.945464 0.974136 0.484611
0.965057 0.97525 0.437415
0.983032 0.974044 0.3691
0.997177 0.97258 0.307637
0.997436 0.967178 0.260471
0.995132 0.955688 0.191882
0.994217 0.941054 0.11516
0.991867 0.921843 0.0685283
0.991348 0.89604 0.0614939
