app/src/main/assets/luts/srgbto709.cube
TITLE "Generated by Resolve"
LUT_3D_SIZE 9
0 0 0
0.0645609 0 0
0.188678 0 0
0.317891 0 0
0.450187 0 0
0.584894 0 0
0.721614 0 0
0.860059 0 0
1 0 0
0 0.0645609 0
0.0645609 0.0645609 0
0.188678 0.0645609 0
0.317891 0.0645609 0
0.450187 0.0645609 0
0.584894 0.0645609 0
0.721614 0.0645609 0
0.860059 0.0645609 0
1 0.0645609 0
0 0.188678 0
0.0645609 0.188678 0
0.188678 0.188678 0
0.317891 0.188678 0
0.450187 0.188678 0
0.584894 0.188678 0
0.721614 0.188678 0
0.860059 0.188678 0
1 0.188678 0
0 0.317891 0
0.0645609 0.317891 0
0.188678 0.317891 0
0.317891 0.317891 0
0.450187 0.317891 0
0.584894 0.317891 0
0.721614 0.317891 0
0.860059 0.317891 0
1 0.317891 0
0 0.450187 0
0.0645609 0.450187 0
0.188678 0.450187 0
0.317891 0.450187 0
0.450187 0.450187 0
0.584894 0.450187 0
0.721614 0.450187 0
0.860059 0.450187 0
1 0.450187 0
0 0.584894 0
0.0645609 0.584894 0
0.188678 0.584894 0
0.317891 0.584894 0
0.450187 0.584894 0
0.584894 0.584894 0
0.721614 0.584894 0
0.860059 0.584894 0
1 0.584894 0
0 0.721614 0
0.0645609 0.721614 0
0.188678 0.721614 0
0.317891 0.721614 0
0.450187 0.721614 0
0.584894 0.721614 0
0.721614 0.721614 0
0.860059 0.721614 0
1 0.721614 0
0 0.860059 0
0.0645609 0.860059 0
0.188678 0.860059 0
0.317891 0.860059 0
0.450187 0.860059 0
0.584894 0.860059 0
0.721614 0.860059 0
0.860059 0.860059 0
1 0.860059 0
0 1 0
0.0645609 1 0
0.188678 1 0
0.317891 1 0
0.450187 1 0
0.584894 1 0
0.721614 1 0
0.860059 1 0
1 1 0
0 0 0.0645609
0.0645609 0 0.0645609
0.188678 0 0.0645609
0.317891 0 0.0645609
0.450187 0 0.0645609
0.584894 0 0.0645609
0.721614 0 0.0645609
0.860059 0 0.0645609
1 0 0.0645609
0 0.0645609 0.0645609
0.0645609 0.0645609 0.0645609
0.188678 0.0645609 0.0645609
0.317891 0.0645609 0.0645609
0.450187 0.0645609 0.0645609
0.584894 0.0645609 0.0645609
0.721614 0.0645609 0.0645609
0.860059 0.0645609 0.0645609
1 0.0645609 0.0645609
0 0.188678 0.0645609
0.0645609 0.188678 0.0645609
0.188678 0.188678 0.0645609
0.317891 0.188678 0.0645609
0.450187 0.188678 0.0645609
0.584894 0.188678 0.0645609
0.721614 0.188678 0.0645609
0.860059 0.188678 0.0645609
1 0.188678 0.0645609
0 0.317891 0.0645609
0.0645609 0.317891 0.0645609
0.188678 0.317891 0.0645609
0.317891 0.317891 0.0645609
0.450187 0.317891 0.0645609
0.584894 0.317891 0.0645609
0.721614 0.317891 0.0645609
0.860059 0.317891 0.0645609
1 0.317891 0.0645609
0 0.450187 0.0645609
0.0645609 0.450187 0.0645609
0.188678 0.450187 0.0645609
0.317891 0.450187 0.0645609
0.450187 0.450187 0.0645609
0.584894 0.450187 0.0645609
0.721614 0.450187 0.0645609
0.860059 0.450187 0.0645609
1 0.450187 0.0645609
0 0.584894 0.0645609
0.0645609 0.584894 0.0645609
0.188678 0.584894 0.0645609
0.317891 0.584894 0.0645609
0.450187 0.584894 0.0645609
0.584894 0.584894 0.0645609
0.721614 0.584894 0.0645609
0.860059 0.584894 0.0645609
1 0.584894 0.0645609
0 0.721614 0.0645609
0.0645609 0.721614 0.0645609
0.188678 0.721614 0.0645609
0.317891 0.721614 0.0645609
0.450187 0.721614 0.0645609
0.584894 0.721614 0.0645609
0.721614 0.721614 0.0645609
0.860059 0.721614 0.0645609
1 0.721614 0.0645609
0 0.860059 0.0645609
0.0645609 0.860059 0.0645609
0.188678 0.860059 0.0645609
0.317891 0.860059 0.0645609
0.450187 0.860059 0.0645609
0.584894 0.860059 0.0645609
0.721614 0.860059 0.0645609
0.860059 0.860059 0.0645609
1 0.860059 0.0645609
0 1 0.0645609
0.0645609 1 0.0645609
0.188678 1 0.0645609
0.317891 1 0.0645609
0.450187 1 0.0645609
0.584894 1 0.0645609
0.721614 1 0.0645609
0.860059 1 0.0645609
1 1 0.0645609
0 0 0.188678
0.0645609 0 0.188678
0.188678 0 0.188678
0.317891 0 0.188678
0.450187 0 0.188678
0.584894 0 0.188678
0.721614 0 0.188678
0.860059 0 0.188678
1 0 0.188678
0 0.0645609 0.188678
0.0645609 0.0645609 0.188678
0.188678 0.0645609 0.188678
0.317891 0.0645609 0.188678
0.450187 0.0645609 0.188678
0.584894 0.0645609 0.188678
0.721614 0.0645609 0.188678
0.860059 0.0645609 0.188678
1 0.0645609 0.188678
0 0.188678 0.188678
0.0645609 0.188678 0.188678
0.188678 0.188678 0.188678
0.317891 0.188678 0.188678
0.450187 0.188678 0.188678
0.584894 0.188678 0.188678
0.721614 0.188678 0.188678
0.860059 0.188678 0.188678
1 0.188678 0.188678
0 0.317891 0.188678
0.0645609 0.317891 0.188678
0.188678 0.317891 0.188678
0.317891 0.317891 0.188678
0.450187 0.317891 0.188678
0.584894 0.317891 0.188678
0.721614 0.317891 0.188678
0.860059 0.317891 0.188678
1 0.317891 0.188678
0 0.450187 0.188678
0.0645609 0.450187 0.188678
0.188678 0.450187 0.188678
0.317891 0.450187 0.188678
0.450187 0.450187 0.188678
0.584894 0.450187 0.188678
0.721614 0.450187 0.188678
0.860059 0.450187 0.188678
1 0.450187 0.188678
0 0.584894 0.188678
0.0645609 0.584894 0.188678
0.188678 0.584894 0.188678
0.317891 0.584894 0.188678
0.450187 0.584894 0.188678
0.584894 0.584894 0.188678
0.721614 0.584894 0.188678
0.860059 0.584894 0.188678
1 0.584894 0.188678
0 0.721614 0.188678
0.0645609 0.721614 0.188678
0.188678 0.721614 0.188678
0.317891 0.721614 0.188678
0.450187 0.721614 0.188678
0.584894 0.721614 0.188678
0.721614 0.721614 0.188678
0.860059 0.721614 0.188678
1 0.721614 0.188678
0 0.860059 0.188678
0.0645609 0.860059 0.188678
0.188678 0.860059 0.188678
0.317891 0.860059 0.188678
0.450187 0.860059 0.188678
0.584894 0.860059 0.188678
0.721614 0.860059 0.188678
0.860059 0.860059 0.188678
1 0.860059 0.188678
0 1 0.188678
0.0645609 1 0.188678
0.188678 1 0.188678
0.317891 1 0.188678
0.450187 1 0.188678
0.584894 1 0.188678
0.721614 1 0.188678
0.860059 1 0.188678
1 1 0.188678
0 0 0.317891
0.0645609 0 0.317891
0.188678 0 0.317891
0.317891 0 0.317891
0.450187 0 0.317891
0.584894 0 0.317891
0.721614 0 0.317891
0.860059 0 0.317891
1 0 0.317891
0 0.0645609 0.317891
0.0645609 0.0645609 0.317891
0.188678 0.0645609 0.317891
0.317891 0.0645609 0.317891
0.450187 0.0645609 0.317891
0.584894 0.0645609 0.317891
0.721614 0.0645609 0.317891
0.860059 0.0645609 0.317891
1 0.0645609 0.317891
0 0.188678 0.317891
0.0645609 0.188678 0.317891
0.188678 0.188678 0.317891
0.317891 0.188678 0.317891
0.450187 0.188678 0.317891
0.584894 0.188678 0.317891
0.721614 0.188678 0.317891
0.860059 0.188678 0.317891
1 0.188678 0.317891
0 0.317891 0.317891
0.0645609 0.317891 0.317891
0.188678 0.317891 0.317891
0.317891 0.317891 0.317891
0.450187 0.317891 0.317891
0.584894 0.317891 0.317891
0.721614 0.317891 0.317891
0.860059 0.317891 0.317891
1 0.317891 0.317891
0 0.450187 0.317891
0.0645609 0.450187 0.317891
0.188678 0.450187 0.317891
0.317891 0.450187 0.317891
0.450187 0.450187 0.317891
0.584894 0.450187 0.317891
0.721614 0.450187 0.317891
0.860059 0.450187 0.317891
1 0.450187 0.317891
0 0.584894 0.317891
0.0645609 0.584894 0.317891
0.188678 0.584894 0.317891
0.317891 0.584894 0.317891
0.450187 0.584894 0.317891
0.584894 0.584894 0.317891
0.721614 0.584894 0.317891
0.860059 0.584894 0.317891
1 0.584894 0.317891
0 0.721614 0.317891
0.0645609 0.721614 0.317891
0.188678 0.721614 0.317891
0.317891 0.721614 0.317891
0.450187 0.721614 0.317891
0.584894 0.721614 0.317891
0.721614 0.721614 0.317891
0.860059 0.721614 0.317891
1 0.721614 0.317891
0 0.860059 0.317891
0.0645609 0.860059 0.317891
0.188678 0.860059 0.317891
0.317891 0.860059 0.317891
0.450187 0.860059 0.317891
0.584894 0.860059 0.317891
0.721614 0.860059 0.317891
0.860059 0.860059 0.317891
1 0.860059 0.317891
0 1 0.317891
0.0645609 1 0.317891
0.188678 1 0.317891
0.317891 1 0.317891
0.450187 1 0.317891
0.584894 1 0.317891
0.721614 1 0.317891
0.860059 1 0.317891
1 1 0.317891
0 0 0.450187
0.0645609 0 0.450187
0.188678 0 0.450187
0.317891 0 0.450187
0.450187 0 0.450187
0.584894 0 0.450187
0.721614 0 0.450187
0.860059 0 0.450187
1 0 0.450187
0 0.0645609 0.450187
0.0645609 0.0645609 0.450187
0.188678 0.0645609 0.450187
0.317891 0.0645609 0.450187
0.450187 0.0645609 0.450187
0.584894 0.0645609 0.450187
0.721614 0.0645609 0.450187
0.860059 0.0645609 0.450187
1 0.0645609 0.450187
0 0.188678 0.450187
0.0645609 0.188678 0.450187
0.188678 0.188678 0.450187
0.317891 0.188678 0.450187
0.450187 0.188678 0.450187
0.584894 0.188678 0.450187
0.721614 0.188678 0.450187
0.860059 0.188678 0.450187
1 0.188678 0.450187
0 0.317891 0.450187
0.0645609 0.317891 0.450187
0.188678 0.317891 0.450187
0.317891 0.317891 0.450187
0.450187 0.317891 0.450187
0.584894 0.317891 0.450187
0.721614 0.317891 0.450187
0.860059 0.317891 0.450187
1 0.317891 0.450187
0 0.450187 0.450187
0.0645609 0.450187 0.450187
0.188678 0.450187 0.450187
0.317891 0.450187 0.450187
0.450187 0.450187 0.450187
0.584894 0.450187 0.450187
0.721614 0.450187 0.450187
0.860059 0.450187 0.450187
1 0.450187 0.450187
0 0.584894 0.450187
0.0645609 0.584894 0.450187
0.188678 0.584894 0.450187
0.317891 0.584894 0.450187
0.450187 0.584894 0.450187
0.584894 0.584894 0.450187
0.721614 0.584894 0.450187
0.860059 0.584894 0.450187
1 0.584894 0.450187
0 0.721614 0.450187
0.0645609 0.721614 0.450187
0.188678 0.721614 0.450187
0.317891 0.721614 0.450187
0.450187 0.721614 0.450187
0.584894 0.721614 0.450187
0.721614 0.721614 0.450187
0.860059 0.721614 0.450187
1 0.721614 0.450187
0 0.860059 0.450187
0.0645609 0.860059 0.450187
0.188678 0.860059 0.450187
0.317891 0.860059 0.450187
0.450187 0.860059 0.450187
0.584894 0.860059 0.450187
0.721614 0.860059 0.450187
0.860059 0.860059 0.450187
1 0.860059 0.450187
0 1 0.450187
0.0645609 1 0.450187
0.188678 1 0.450187
0.317891 1 0.450187
0.450187 1 0.450187
0.584894 1 0.450187
0.721614 1 0.450187
0.860059 1 0.450187
1 1 0.450187
0 0 0.584894
0.0645609 0 0.584894
0.188678 0 0.584894
0.317891 0 0.584894
0.450187 0 0.584894
0.584894 0 0.584894
0.721614 0 0.584894
0.860059 0 0.584894
1 0 0.584894
0 0.0645609 0.584894
0.0645609 0.0645609 0.584894
0.188678 0.0645609 0.584894
0.317891 0.0645609 0.584894
0.450187 0.0645609 0.584894
0.584894 0.0645609 0.584894
0.721614 0.0645609 0.584894
0.860059 0.0645609 0.584894
1 0.0645609 0.584894
0 0.188678 0.584894
0.0645609 0.188678 0.584894
0.188678 0.188678 0.584894
0.317891 0.188678 0.584894
0.450187 0.188678 0.584894
0.584894 0.188678 0.584894
0.721614 0.188678 0.584894
0.860059 0.188678 0.584894
1 0.188678 0.584894
0 0.317891 0.584894
0.0645609 0.317891 0.584894
0.188678 0.317891 0.584894
0.317891 0.317891 0.584894
0.450187 0.317891 0.584894
0.584894 0.317891 0.584894
0.721614 0.317891 0.584894
0.860059 0.317891 0.584894
1 0.317891 0.584894
0 0.450187 0.584894
0.0645609 0.450187 0.584894
0.188678 0.450187 0.584894
0.317891 0.450187 0.584894
0.450187 0.450187 0.584894
0.584894 0.450187 0.584894
0.721614 0.450187 0.584894
0.860059 0.450187 0.584894
1 0.450187 0.584894
0 0.584894 0.584894
0.0645609 0.584894 0.584894
0.188678 0.584894 0.584894
0.317891 0.584894 0.584894
0.450187 0.584894 0.584894
0.584894 0.584894 0.584894
0.721614 0.584894 0.584894
0.860059 0.584894 0.584894
1 0.584894 0.584894
0 0.721614 0.584894
0.0645609 0.721614 0.584894
0.188678 0.721614 0.584894
0.317891 0.721614 0.584894
0.450187 0.721614 0.584894
0.584894 0.721614 0.584894
0.721614 0.721614 0.584894
0.860059 0.721614 0.584894
1 0.721614 0.584894
0 0.860059 0.584894
0.0645609 0.860059 0.584894
0.188678 0.860059 0.584894
0.317891 0.860059 0.584894
0.450187 0.860059 0.584894
0.584894 0.860059 0.584894
0.721614 0.860059 0.584894
0.860059 0.860059 0.584894
1 0.860059 0.584894
0 1 0.584894
0.0645609 1 0.584894
0.188678 1 0.584894
0.317891 1 0.584894
0.450187 1 0.584894
0.584894 1 0.584894
0.721614 1 0.584894
0.860059 1 0.584894
1 1 0.584894
0 0 0.721614
0.0645609 0 0.721614
0.188678 0 0.721614
0.317891 0 0.721614
0.450187 0 0.721614
0.584894 0 0.721614
0.721614 0 0.721614
0.860059 0 0.721614
1 0 0.721614
0 0.0645609 0.721614
0.0645609 0.0645609 0.721614
0.188678 0.0645609 0.721614
0.317891 0.0645609 0.721614
0.450187 0.0645609 0.721614
0.584894 0.0645609 0.721614
0.721614 0.0645609 0.721614
0.860059 0.0645609 0.721614
1 0.0645609 0.721614
0 0.188678 0.721614
0.0645609 0.188678 0.721614
0.188678 0.188678 0.721614
0.317891 0.188678 0.721614
0.450187 0.188678 0.721614
0.584894 0.188678 0.721614
0.721614 0.188678 0.721614
0.860059 0.188678 0.721614
1 0.188678 0.721614
0 0.317891 0.721614
0.0645609 0.317891 0.721614
0.188678 0.317891 0.721614
0.317891 0.317891 0.721614
0.450187 0.317891 0.721614
0.584894 0.317891 0.721614
0.721614 0.317891 0.721614
0.860059 0.317891 0.721614
1 0.317891 0.721614
0 0.450187 0.721614
0.0645609 0.450187 0.721614
0.188678 0.450187 0.721614
0.317891 0.450187 0.721614
0.450187 0.450187 0.721614
0.584894 0.450187 0.721614
0.721614 0.450187 0.721614
0.860059 0.450187 0.721614
1 0.450187 0.721614
0 0.584894 0.721614
0.0645609 0.584894 0.721614
0.188678 0.584894 0.721614
0.317891 0.584894 0.721614
0.450187 0.584894 0.721614
0.584894 0.584894 0.721614
0.721614 0.584894 0.721614
0.860059 0.584894 0.721614
1 0.584894 0.721614
0 0.721614 0.721614
0.0645609 0.721614 0.721614
0.188678 0.721614 0.721614
0.317891 0.721614 0.721614
0.450187 0.721614 0.721614
0.584894 0.721614 0.721614
0.721614 0.721614 0.721614
0.860059 0.721614 0.721614
1 0.721614 0.721614
0 0.860059 0.721614
0.0645609 0.860059 0.721614
0.188678 0.860059 0.721614
0.317891 0.860059 0.721614
0.450187 0.860059 0.721614
0.584894 0.860059 0.721614
0.721614 0.860059 0.721614
0.860059 0.860059 0.721614
1 0.860059 0.721614
0 1 0.721614
0.0645609 1 0.721614
0.188678 1 0.721614
0.317891 1 0.721614
0.450187 1 0.721614
0.584894 1 0.721614
0.721614 1 0.721614
0.860059 1 0.721614
1 1 0.721614
0 0 0.860059
0.0645609 0 0.860059
0.188678 0 0.860059
0.317891 0 0.860059
0.450187 0 0.860059
0.584894 0 0.860059
0.721614 0 0.860059
0.860059 0 0.860059
1 0 0.860059
0 0.0645609 0.860059
0.0645609 0.0645609 0.860059
0.188678 0.0645609 0.860059
0.317891 0.0645609 0.860059
0.450187 0.0645609 0.860059
0.584894 0.0645609 0.860059
0.721614 0.0645609 0.860059
0.860059 0.0645609 0.860059
1 0.0645609 0.860059
0 0.188678 0.860059
0.0645609 0.188678 0.860059
0.188678 0.188678 0.860059
0.317891 0.188678 0.860059
0.450187 0.188678 0.860059
0.584894 0.188678 0.860059
0.721614 0.188678 0.860059
0.860059 0.188678 0.860059
1 0.188678 0.860059
0 0.317891 0.860059
0.0645609 0.317891 0.860059
0.188678 0.317891 0.860059
0.317891 0.317891 0.860059
0.450187 0.317891 0.860059
0.584894 0.317891 0.860059
0.721614 0.317891 0.860059
0.860059 0.317891 0.860059
1 0.317891 0.860059
0 0.450187 0.860059
0.0645609 0.450187 0.860059
0.188678 0.450187 0.860059
0.317891 0.450187 0.860059
0.450187 0.450187 0.860059
0.584894 0.450187 0.860059
0.721614 0.450187 0.860059
0.860059 0.450187 0.860059
1 0.450187 0.860059
0 0.584894 0.860059
0.0645609 0.584894 0.860059
0.188678 0.584894 0.860059
0.317891 0.584894 0.860059
0.450187 0.584894 0.860059
0.584894 0.584894 0.860059
0.721614 0.584894 0.860059
0.860059 0.584894 0.860059
1 0.584894 0.860059
0 0.721614 0.860059
0.0645609 0.721614 0.860059
0.188678 0.721614 0.860059
0.317891 0.721614 0.860059
0.450187 0.721614 0.860059
0.584894 0.721614 0.860059
0.721614 0.721614 0.860059
0.860059 0.721614 0.860059
1 0.721614 0.860059
0 0.860059 0.860059
0.0645609 0.860059 0.860059
0.188678 0.860059 0.860059
0.317891 0.860059 0.860059
0.450187 0.860059 0.860059
0.584894 0.860059 0.860059
0.721614 0.860059 0.860059
0.860059 0.860059 0.860059
1 0.860059 0.860059
0 1 0.860059
0.0645609 1 0.860059
0.188678 1 0.860059
0.317891 1 0.860059
0.450187 1 0.860059
0.584894 1 0.860059
0.721614 1 0.860059
0.860059 1 0.860059
1 1 0.860059
0 0 1
0.0645609 0 1
0.188678 0 1
0.317891 0 1
0.450187 0 1
0.584894 0 1
0.721614 0 1
0.860059 0 1
1 0 1
0 0.0645609 1
0.0645609 0.0645609 1
0.188678 0.0645609 1
0.317891 0.0645609 1
0.450187 0.0645609 1
0.584894 0.0645609 1
0.721614 0.0645609 1
0.860059 0.0645609 1
1 0.0645609 1
0 0.188678 1
0.0645609 0.188678 1
0.188678 0.188678 1
0.317891 0.188678 1
0.450187 0.188678 1
0.584894 0.188678 1
0.721614 0.188678 1
0.860059 0.188678 1
1 0.188678 1
0 0.317891 1
0.0645609 0.317891 1
0.188678 0.317891 1
0.317891 0.317891 1
0.450187 0.317891 1
0.584894 0.317891 1
0.721614 0.317891 1
0.860059 0.317891 1
1 0.317891 1
0 0.450187 1
0.0645609 0.450187 1
0.188678 0.450187 1
0.317891 0.450187 1
0.450187 0.450187 1
0.584894 0.450187 1
0.721614 0.450187 1
0.860059 0.450187 1
1 0.450187 1
0 0.584894 1
0.0645609 0.584894 1
0.188678 0.584894 1
0.317891 0.584894 1
0.450187 0.584894 1
0.584894 0.584894 1
0.721614 0.584894 1
0.860059 0.584894 1
1 0.584894 1
0 0.721614 1
0.0645609 0.721614 1
0.188678 0.721614 1
0.317891 0.721614 1
0.450187 0.721614 1
0.584894 0.721614 1
0.721614 0.721614 1
0.860059 0.721614 1
1 0.721614 1
0 0.860059 1
0.0645609 0.860059 1
0.188678 0.860059 1
0.317891 0.860059 1
0.450187 0.860059 1
0.584894 0.860059 1
0.721614 0.860059 1
0.860059 0.860059 1
1 0.860059 1
0 1 1
0.0645609 1 1
0.188678 1 1
0.317891 1 1
0.450187 1 1
0.584894 1 1
0.721614 1 1
0.860059 1 1
1 1 1
