app/src/main/assets/luts/srgbto709.cube
TITLE "Generated by Resolve"
LUT_3D_SIZE 5
0 0 0
0.188678 0 0
0.450187 0 0
0.721614 0 0
1 0 0
0 0.188678 0
0.188678 0.188678 0
0.450187 0.188678 0
0.721614 0.188678 0
1 0.188678 0
0 0.450187 0
0.188678 0.450187 0
0.450187 0.450187 0
0.721614 0.450187 0
1 0.450187 0
0 0.721614 0
0.188678 0.721614 0
0.450187 0.721614 0
0.721614 0.721614 0
1 0.721614 0
0 1 0
0.188678 1 0
0.450187 1 0
0.721614 1 0
1 1 0
0 0 0.188678
0.188678 0 0.188678
0.450187 0 0.188678
0.721614 0 0.188678
1 0 0.188678
0 0.188678 0.188678
0.188678 0.188678 0.188678
0.450187 0.188678 0.188678
0.721614 0.188678 0.188678
1 0.188678 0.188678
0 0.450187 0.188678
0.188678 0.450187 0.188678
0.450187 0.450187 0.188678
0.721614 0.450187 0.188678
1 0.450187 0.188678
0 0.721614 0.188678
0.188678 0.721614 0.188678
0.450187 0.721614 0.188678
0.721614 0.721614 0.188678
1 0.721614 0.188678
0 1 0.188678
0.188678 1 0.188678
0.450187 1 0.188678
0.721614 1 0.188678
1 1 0.188678
0 0 0.450187
0.188678 0 0.450187
0.450187 0 0.450187
0.721614 0 0.450187
1 0 0.450187
0 0.188678 0.450187
0.188678 0.188678 0.450187
0.450187 0.188678 0.450187
0.721614 0.188678 0.450187
1 0.188678 0.450187
0 0.450187 0.450187
0.188678 0.450187 0.450187
0.450187 0.450187 0.450187
0.721614 0.450187 0.450187
1 0.450187 0.450187
0 0.721614 0.450187
0.188678 0.721614 0.450187
0.450187 0.721614 0.450187
0.721614 0.721614 0.450187
1 0.721614 0.450187
0 1 0.450187
0.188678 1 0.450187
0.450187 1 0.450187
0.721614 1 0.450187
1 1 0.450187
0 0 0.721614
0.188678 0 0.721614
0.450187 0 0.721614
0.721614 0 0.721614
1 0 0.721614
0 0.188678 0.721614
0.188678 0.188678 0.721614
0.450187 0.188678 0.721614
0.721614 0.188678 0.721614
1 0.188678 0.721614
0 0.450187 0.721614
0.188678 0.450187 0.721614
0.450187 0.450187 0.721614
0.721614 0.450187 0.721614
1 0.450187 0.721614
0 0.721614 0.721614
0.188678 0.721614 0.721614
0.450187 0.721614 0.721614
0.721614 0.721614 0.721614
1 0.721614 0.721614
0 1 0.721614
0.188678 1 0.721614
0.450187 1 0.721614
0.721614 1 0.721614
1 1 0.721614
0 0 1
0.188678 0 1
0.450187 0 1
0.721614 0 1
1 0 1
0 0.188678 1
0.188678 0.188678 1
0.450187 0.188678 1
0.721614 0.188678 1
1 0.188678 1
0 0.450187 1
0.188678 0.450187 1
0.450187 0.450187 1
0.721614 0.450187 1
1 0.450187 1
0 0.721614 1
0.188678 0.721614 1
0.450187 0.721614 1
0.721614 0.721614 1
1 0.721614 1
0 1 1
0.188678 1 1
0.450187 1 1
0.721614 1 1
1 1 1
