app/src/main/assets/luts/srgbto709.cube
TITLE "Generated by Resolve"
LUT_3D_SIZE 33
0 0 0
0.0108797 0 0
0.0231937 0 0
0.0408484 0 0
0.0645609 0 0
0.0944839 0 0
0.125566 0 0
0.156985 0 0
0.188678 0 0
0.220645 0 0
0.252842 0 0
0.285267 0 0
0.317891 0 0
0.350698 0 0
0.383703 0 0
0.416861 0 0
0.450187 0 0
0.48365 0 0
0.517266 0 0
0.551019 0 0
0.584894 0 0
0.618906 0 0
0.653025 0 0
0.687266 0 0
0.721614 0 0
0.756085 0 0
0.790646 0 0
0.825299 0 0
0.860059 0 0
0.894911 0 0
0.929854 0 0
0.964889 0 0
1 0 0
0 0.0108797 0
0.0108797 0.0108797 0
0.0231937 0.0108797 0
0.0408484 0.0108797 0
0.0645609 0.0108797 0
0.0944839 0.0108797 0
0.125566 0.0108797 0
0.156985 0.0108797 0
0.188678 0.0108797 0
0.220645 0.0108797 0
0.252842 0.0108797 0
0.285267 0.0108797 0
0.317891 0.0108797 0
0.350698 0.0108797 0
0.383703 0.0108797 0
0.416861 0.0108797 0
0.450187 0.0108797 0
0.48365 0.0108797 0
0.517266 0.0108797 0
0.551019 0.0108797 0
0.584894 0.0108797 0
0.618906 0.0108797 0
0.653025 0.0108797 0
0.687266 0.0108797 0
0.721614 0.0108797 0
0.756085 0.0108797 0
0.790646 0.0108797 0
0.825299 0.0108797 0
0.860059 0.0108797 0
0.894911 0.0108797 0
0.929854 0.0108797 0
0.964889 0.0108797 0
1 0.0108797 0
0 0.0231937 0
0.0108797 0.0231937 0
0.0231937 0.0231937 0
0.0408484 0.0231937 0
0.0645609 0.0231937 0
0.0944839 0.0231937 0
0.125566 0.0231937 0
0.156985 0.0231937 0
0.188678 0.0231937 0
0.220645 0.0231937 0
0.252842 0.0231937 0
0.285267 0.0231937 0
0.317891 0.0231937 0
0.350698 0.0231937 0
0.383703 0.0231937 0
0.416861 0.0231937 0
0.450187 0.0231937 0
0.48365 0.0231937 0
0.517266 0.0231937 0
0.551019 0.0231937 0
0.584894 0.0231937 0
0.618906 0.0231937 0
0.653025 0.0231937 0
0.687266 0.0231937 0
0.721614 0.0231937 0
0.756085 0.0231937 0
0.790646 0.0231937 0
0.825299 0.0231937 0
0.860059 0.0231937 0
0.894911 0.0231937 0
0.929854 0.0231937 0
0.964889 0.0231937 0
1 0.0231937 0
0 0.0408484 0
0.0108797 0.0408484 0
0.0231937 0.0408484 0
0.0408484 0.0408484 0
0.0645609 0.0408484 0
0.0944839 0.0408484 0
0.125566 0.0408484 0
0.156985 0.0408484 0
0.188678 0.0408484 0
0.220645 0.0408484 0
0.252842 0.0408484 0
0.285267 0.0408484 0
0.317891 0.0408484 0
0.350698 0.0408484 0
0.383703 0.0408484 0
0.416861 0.0408484 0
0.450187 0.0408484 0
0.48365 0.0408484 0
0.517266 0.0408484 0
0.551019 0.0408484 0
0.584894 0.0408484 0
0.618906 0.0408484 0
0.653025 0.0408484 0
0.687266 0.0408484 0
0.721614 0.0408484 0
0.756085 0.0408484 0
0.790646 0.0408484 0
0.825299 0.0408484 0
0.860059 0.0408484 0
0.894911 0.0408484 0
0.929854 0.0408484 0
0.964889 0.0408484 0
1 0.0408484 0
0 0.0645609 0
0.0108797 0.0645609 0
0.0231937 0.0645609 0
0.0408484 0.0645609 0
0.0645609 0.0645609 0
0.0944839 0.0645609 0
0.125566 0.0645609 0
0.156985 0.0645609 0
0.188678 0.0645609 0
0.220645 0.0645609 0
0.252842 0.0645609 0
0.285267 0.0645609 0
0.317891 0.0645609 0
0.350698 0.0645609 0
0.383703 0.0645609 0
0.416861 0.0645609 0
0.450187 0.0645609 0
0.48365 0.0645609 0
0.517266 0.0645609 0
0.551019 0.0645609 0
0.584894 0.0645609 0
0.618906 0.0645609 0
0.653025 0.0645609 0
0.687266 0.0645609 0
0.721614 0.0645609 0
0.756085 0.0645609 0
0.790646 0.0645609 0
0.825299 0.0645609 0
0.860059 0.0645609 0
0.894911 0.0645609 0
0.929854 0.0645609 0
0.964889 0.0645609 0
1 0.0645609 0
0 0.0944839 0
0.0108797 0.0944839 0
0.0231937 0.0944839 0
0.0408484 0.0944839 0
0.0645609 0.0944839 0
0.0944839 0.0944839 0
0.125566 0.0944839 0
0.156985 0.0944839 0
0.188678 0.0944839 0
0.220645 0.0944839 0
0.252842 0.0944839 0
0.285267 0.0944839 0
0.317891 0.0944839 0
0.350698 0.0944839 0
0.383703 0.0944839 0
0.416861 0.0944839 0
0.450187 0.0944839 0
0.48365 0.0944839 0
0.517266 0.0944839 0
0.551019 0.0944839 0
0.584894 0.0944839 0
0.618906 0.0944839 0
0.653025 0.0944839 0
0.687266 0.0944839 0
0.721614 0.0944839 0
0.756085 0.0944839 0
0.790646 0.0944839 0
0.825299 0.0944839 0
0.860059 0.0944839 0
0.894911 0.0944839 0
0.929854 0.0944839 0
0.964889 0.0944839 0
1 0.0944839 0
0 0.125566 0
0.0108797 0.125566 0
0.0231937 0.125566 0
0.0408484 0.125566 0
0.0645609 0.125566 0
0.0944839 0.125566 0
0.125566 0.125566 0
0.156985 0.125566 0
0.188678 0.125566 0
0.220645 0.125566 0
0.252842 0.125566 0
0.285267 0.125566 0
0.317891 0.125566 0
0.350698 0.125566 0
0.383703 0.125566 0
0.416861 0.125566 0
0.450187 0.125566 0
0.48365 0.125566 0
0.517266 0.125566 0
0.551019 0.125566 0
0.584894 0.125566 0
0.618906 0.125566 0
0.653025 0.125566 0
0.687266 0.125566 0
0.721614 0.125566 0
0.756085 0.125566 0
0.790646 0.125566 0
0.825299 0.125566 0
0.860059 0.125566 0
0.894911 0.125566 0
0.929854 0.125566 0
0.964889 0.125566 0
1 0.125566 0
0 0.156985 0
0.0108797 0.156985 0
0.0231937 0.156985 0
0.0408484 0.156985 0
0.0645609 0.156985 0
0.0944839 0.156985 0
0.125566 0.156985 0
0.156985 0.156985 0
0.188678 0.156985 0
0.220645 0.156985 0
0.252842 0.156985 0
0.285267 0.156985 0
0.317891 0.156985 0
0.350698 0.156985 0
0.383703 0.156985 0
0.416861 0.156985 0
0.450187 0.156985 0
0.48365 0.156985 0
0.517266 0.156985 0
0.551019 0.156985 0
0.584894 0.156985 0
0.618906 0.156985 0
0.653025 0.156985 0
0.687266 0.156985 0
0.721614 0.156985 0
0.756085 0.156985 0
0.790646 0.156985 0
0.825299 0.156985 0
0.860059 0.156985 0
0.894911 0.156985 0
0.929854 0.156985 0
0.964889 0.156985 0
1 0.156985 0
0 0.188678 0
0.0108797 0.188678 0
0.0231937 0.188678 0
0.0408484 0.188678 0
0.0645609 0.188678 0
0.0944839 0.188678 0
0.125566 0.188678 0
0.156985 0.188678 0
0.188678 0.188678 0
0.220645 0.188678 0
0.252842 0.188678 0
0.285267 0.188678 0
0.317891 0.188678 0
0.350698 0.188678 0
0.383703 0.188678 0
0.416861 0.188678 0
0.450187 0.188678 0
0.48365 0.188678 0
0.517266 0.188678 0
0.551019 0.188678 0
0.584894 0.188678 0
0.618906 0.188678 0
0.653025 0.188678 0
0.687266 0.188678 0
0.721614 0.188678 0
0.756085 0.188678 0
0.790646 0.188678 0
0.825299 0.188678 0
0.860059 0.188678 0
0.894911 0.188678 0
0.929854 0.188678 0
0.964889 0.188678 0
1 0.188678 0
0 0.220645 0
0.0108797 0.220645 0
0.0231937 0.220645 0
0.0408484 0.220645 0
0.0645609 0.220645 0
0.0944839 0.220645 0
0.125566 0.220645 0
0.156985 0.220645 0
0.188678 0.220645 0
0.220645 0.220645 0
0.252842 0.220645 0
0.285267 0.220645 0
0.317891 0.220645 0
0.350698 0.220645 0
0.383703 0.220645 0
0.416861 0.220645 0
0.450187 0.220645 0
0.48365 0.220645 0
0.517266 0.220645 0
0.551019 0.220645 0
0.584894 0.220645 0
0.618906 0.220645 0
0.653025 0.220645 0
0.687266 0.220645 0
0.721614 0.220645 0
0.756085 0.220645 0
0.790646 0.220645 0
0.825299 0.220645 0
0.860059 0.220645 0
0.894911 0.220645 0
0.929854 0.220645 0
0.964889 0.220645 0
1 0.220645 0
0 0.252842 0
0.0108797 0.252842 0
0.0231937 0.252842 0
0.0408484 0.252842 0
0.0645609 0.252842 0
0.0944839 0.252842 0
0.125566 0.252842 0
0.156985 0.252842 0
0.188678 0.252842 0
0.220645 0.252842 0
0.252842 0.252842 0
0.285267 0.252842 0
0.317891 0.252842 0
0.350698 0.252842 0
0.383703 0.252842 0
0.416861 0.252842 0
0.450187 0.252842 0
0.48365 0.252842 0
0.517266 0.252842 0
0.551019 0.252842 0
0.584894 0.252842 0
0.618906 0.252842 0
0.653025 0.252842 0
0.687266 0.252842 0
0.721614 0.252842 0
0.756085 0.252842 0
0.790646 0.252842 0
0.825299 0.252842 0
0.860059 0.252842 0
0.894911 0.252842 0
0.929854 0.252842 0
0.964889 0.252842 0
1 0.252842 0
0 0.285267 0
0.0108797 0.285267 0
0.0231937 0.285267 0
0.0408484 0.285267 0
0.0645609 0.285267 0
0.0944839 0.285267 0
0.125566 0.285267 0
0.156985 0.285267 0
0.188678 0.285267 0
0.220645 0.285267 0
0.252842 0.285267 0
0.285267 0.285267 0
0.317891 0.285267 0
0.350698 0.285267 0
0.383703 0.285267 0
0.416861 0.285267 0
0.450187 0.285267 0
0.48365 0.285267 0
0.517266 0.285267 0
0.551019 0.285267 0
0.584894 0.285267 0
0.618906 0.285267 0
0.653025 0.285267 0
0.687266 0.285267 0
0.721614 0.285267 0
0.756085 0.285267 0
0.790646 0.285267 0
0.825299 0.285267 0
0.860059 0.285267 0
0.894911 0.285267 0
0.929854 0.285267 0
0.964889 0.285267 0
1 0.285267 0
0 0.317891 0
0.0108797 0.317891 0
0.0231937 0.317891 0
0.0408484 0.317891 0
0.0645609 0.317891 0
0.0944839 0.317891 0
0.125566 0.317891 0
0.156985 0.317891 0
0.188678 0.317891 0
0.220645 0.317891 0
0.252842 0.317891 0
0.285267 0.317891 0
0.317891 0.317891 0
0.350698 0.317891 0
0.383703 0.317891 0
0.416861 0.317891 0
0.450187 0.317891 0
0.48365 0.317891 0
0.517266 0.317891 0
0.551019 0.317891 0
0.584894 0.317891 0
0.618906 0.317891 0
0.653025 0.317891 0
0.687266 0.317891 0
0.721614 0.317891 0
0.756085 0.317891 0
0.790646 0.317891 0
0.825299 0.317891 0
0.860059 0.317891 0
0.894911 0.317891 0
0.929854 0.317891 0
0.964889 0.317891 0
1 0.317891 0
0 0.350698 0
0.0108797 0.350698 0
0.0231937 0.350698 0
0.0408484 0.350698 0
0.0645609 0.350698 0
0.0944839 0.350698 0
0.125566 0.350698 0
0.156985 0.350698 0
0.188678 0.350698 0
0.220645 0.350698 0
0.252842 0.350698 0
0.285267 0.350698 0
0.317891 0.350698 0
0.350698 0.350698 0
0.383703 0.350698 0
0.416861 0.350698 0
0.450187 0.350698 0
0.48365 0.350698 0
0.517266 0.350698 0
0.551019 0.350698 0
0.584894 0.350698 0
0.618906 0.350698 0
0.653025 0.350698 0
0.687266 0.350698 0
0.721614 0.350698 0
0.756085 0.350698 0
0.790646 0.350698 0
0.825299 0.350698 0
0.860059 0.350698 0
0.894911 0.350698 0
0.929854 0.350698 0
0.964889 0.350698 0
1 0.350698 0
0 0.383703 0
0.0108797 0.383703 0
0.0231937 0.383703 0
0.0408484 0.383703 0
0.0645609 0.383703 0
0.0944839 0.383703 0
0.125566 0.383703 0
0.156985 0.383703 0
0.188678 0.383703 0
0.220645 0.383703 0
0.252842 0.383703 0
0.285267 0.383703 0
0.317891 0.383703 0
0.350698 0.383703 0
0.383703 0.383703 0
0.416861 0.383703 0
0.450187 0.383703 0
0.48365 0.383703 0
0.517266 0.383703 0
0.551019 0.383703 0
0.584894 0.383703 0
0.618906 0.383703 0
0.653025 0.383703 0
0.687266 0.383703 0
0.721614 0.383703 0
0.756085 0.383703 0
0.790646 0.383703 0
0.825299 0.383703 0
0.860059 0.383703 0
0.894911 0.383703 0
0.929854 0.383703 0
0.964889 0.383703 0
1 0.383703 0
0 0.416861 0
0.0108797 0.416861 0
0.0231937 0.416861 0
0.0408484 0.416861 0
0.0645609 0.416861 0
0.0944839 0.416861 0
0.125566 0.416861 0
0.156985 0.416861 0
0.188678 0.416861 0
0.220645 0.416861 0
0.252842 0.416861 0
0.285267 0.416861 0
0.317891 0.416861 0
0.350698 0.416861 0
0.383703 0.416861 0
0.416861 0.416861 0
0.450187 0.416861 0
0.48365 0.416861 0
0.517266 0.416861 0
0.551019 0.416861 0
0.584894 0.416861 0
0.618906 0.416861 0
0.653025 0.416861 0
0.687266 0.416861 0
0.721614 0.416861 0
0.756085 0.416861 0
0.790646 0.416861 0
0.825299 0.416861 0
0.860059 0.416861 0
0.894911 0.416861 0
0.929854 0.416861 0
0.964889 0.416861 0
1 0.416861 0
0 0.450187 0
0.0108797 0.450187 0
0.0231937 0.450187 0
0.0408484 0.450187 0
0.0645609 0.450187 0
0.0944839 0.450187 0
0.125566 0.450187 0
0.156985 0.450187 0
0.188678 0.450187 0
0.220645 0.450187 0
0.252842 0.450187 0
0.285267 0.450187 0
0.317891 0.450187 0
0.350698 0.450187 0
0.383703 0.450187 0
0.416861 0.450187 0
0.450187 0.450187 0
0.48365 0.450187 0
0.517266 0.450187 0
0.551019 0.450187 0
0.584894 0.450187 0
0.618906 0.450187 0
0.653025 0.450187 0
0.687266 0.450187 0
0.721614 0.450187 0
0.756085 0.450187 0
0.790646 0.450187 0
0.825299 0.450187 0
0.860059 0.450187 0
0.894911 0.450187 0
0.929854 0.450187 0
0.964889 0.450187 0
1 0.450187 0
0 0.48365 0
0.0108797 0.48365 0
0.0231937 0.48365 0
0.0408484 0.48365 0
0.0645609 0.48365 0
0.0944839 0.48365 0
0.125566 0.48365 0
0.156985 0.48365 0
0.188678 0.48365 0
0.220645 0.48365 0
0.252842 0.48365 0
0.285267 0.48365 0
0.317891 0.48365 0
0.350698 0.48365 0
0.383703 0.48365 0
0.416861 0.48365 0
0.450187 0.48365 0
0.48365 0.48365 0
0.517266 0.48365 0
0.551019 0.48365 0
0.584894 0.48365 0
0.618906 0.48365 0
0.653025 0.48365 0
0.687266 0.48365 0
0.721614 0.48365 0
0.756085 0.48365 0
0.790646 0.48365 0
0.825299 0.48365 0
0.860059 0.48365 0
0.894911 0.48365 0
0.929854 0.48365 0
0.964889 0.48365 0
1 0.48365 0
0 0.517266 0
0.0108797 0.517266 0
0.0231937 0.517266 0
0.0408484 0.517266 0
0.0645609 0.517266 0
0.0944839 0.517266 0
0.125566 0.517266 0
0.156985 0.517266 0
0.188678 0.517266 0
0.220645 0.517266 0
0.252842 0.517266 0
0.285267 0.517266 0
0.317891 0.517266 0
0.350698 0.517266 0
0.383703 0.517266 0
0.416861 0.517266 0
0.450187 0.517266 0
0.48365 0.517266 0
0.517266 0.517266 0
0.551019 0.517266 0
0.584894 0.517266 0
0.618906 0.517266 0
0.653025 0.517266 0
0.687266 0.517266 0
0.721614 0.517266 0
0.756085 0.517266 0
0.790646 0.517266 0
0.825299 0.517266 0
0.860059 0.517266 0
0.894911 0.517266 0
0.929854 0.517266 0
0.964889 0.517266 0
1 0.517266 0
0 0.551019 0
0.0108797 0.551019 0
0.0231937 0.551019 0
0.0408484 0.551019 0
0.0645609 0.551019 0
0.0944839 0.551019 0
0.125566 0.551019 0
0.156985 0.551019 0
0.188678 0.551019 0
0.220645 0.551019 0
0.252842 0.551019 0
0.285267 0.551019 0
0.317891 0.551019 0
0.350698 0.551019 0
0.383703 0.551019 0
0.416861 0.551019 0
0.450187 0.551019 0
0.48365 0.551019 0
0.517266 0.551019 0
0.551019 0.551019 0
0.584894 0.551019 0
0.618906 0.551019 0
0.653025 0.551019 0
0.687266 0.551019 0
0.721614 0.551019 0
0.756085 0.551019 0
0.790646 0.551019 0
0.825299 0.551019 0
0.860059 0.551019 0
0.894911 0.551019 0
0.929854 0.551019 0
0.964889 0.551019 0
1 0.551019 0
0 0.584894 0
0.0108797 0.584894 0
0.0231937 0.584894 0
0.0408484 0.584894 0
0.0645609 0.584894 0
0.0944839 0.584894 0
0.125566 0.584894 0
0.156985 0.584894 0
0.188678 0.584894 0
0.220645 0.584894 0
0.252842 0.584894 0
0.285267 0.584894 0
0.317891 0.584894 0
0.350698 0.584894 0
0.383703 0.584894 0
0.416861 0.584894 0
0.450187 0.584894 0
0.48365 0.584894 0
0.517266 0.584894 0
0.551019 0.584894 0
0.584894 0.584894 0
0.618906 0.584894 0
0.653025 0.584894 0
0.687266 0.584894 0
0.721614 0.584894 0
0.756085 0.584894 0
0.790646 0.584894 0
0.825299 0.584894 0
0.860059 0.584894 0
0.894911 0.584894 0
0.929854 0.584894 0
0.964889 0.584894 0
1 0.584894 0
0 0.618906 0
0.0108797 0.618906 0
0.0231937 0.618906 0
0.0408484 0.618906 0
0.0645609 0.618906 0
0.0944839 0.618906 0
0.125566 0.618906 0
0.156985 0.618906 0
0.188678 0.618906 0
0.220645 0.618906 0
0.252842 0.618906 0
0.285267 0.618906 0
0.317891 0.618906 0
0.350698 0.618906 0
0.383703 0.618906 0
0.416861 0.618906 0
0.450187 0.618906 0
0.48365 0.618906 0
0.517266 0.618906 0
0.551019 0.618906 0
0.584894 0.618906 0
0.618906 0.618906 0
0.653025 0.618906 0
0.687266 0.618906 0
0.721614 0.618906 0
0.756085 0.618906 0
0.790646 0.618906 0
0.825299 0.618906 0
0.860059 0.618906 0
0.894911 0.618906 0
0.929854 0.618906 0
0.964889 0.618906 0
1 0.618906 0
0 0.653025 0
0.0108797 0.653025 0
0.0231937 0.653025 0
0.0408484 0.653025 0
0.0645609 0.653025 0
0.0944839 0.653025 0
0.125566 0.653025 0
0.156985 0.653025 0
0.188678 0.653025 0
0.220645 0.653025 0
0.252842 0.653025 0
0.285267 0.653025 0
0.317891 0.653025 0
0.350698 0.653025 0
0.383703 0.653025 0
0.416861 0.653025 0
0.450187 0.653025 0
0.48365 0.653025 0
0.517266 0.653025 0
0.551019 0.653025 0
0.584894 0.653025 0
0.618906 0.653025 0
0.653025 0.653025 0
0.687266 0.653025 0
0.721614 0.653025 0
0.756085 0.653025 0
0.790646 0.653025 0
0.825299 0.653025 0
0.860059 0.653025 0
0.894911 0.653025 0
0.929854 0.653025 0
0.964889 0.653025 0
1 0.653025 0
0 0.687266 0
0.0108797 0.687266 0
0.0231937 0.687266 0
0.0408484 0.687266 0
0.0645609 0.687266 0
0.0944839 0.687266 0
0.125566 0.687266 0
0.156985 0.687266 0
0.188678 0.687266 0
0.220645 0.687266 0
0.252842 0.687266 0
0.285267 0.687266 0
0.317891 0.687266 0
0.350698 0.687266 0
0.383703 0.687266 0
0.416861 0.687266 0
0.450187 0.687266 0
0.48365 0.687266 0
0.517266 0.687266 0
0.551019 0.687266 0
0.584894 0.687266 0
0.618906 0.687266 0
0.653025 0.687266 0
0.687266 0.687266 0
0.721614 0.687266 0
0.756085 0.687266 0
0.790646 0.687266 0
0.825299 0.687266 0
0.860059 0.687266 0
0.894911 0.687266 0
0.929854 0.687266 0
0.964889 0.687266 0
1 0.687266 0
0 0.721614 0
0.0108797 0.721614 0
0.0231937 0.721614 0
0.0408484 0.721614 0
0.0645609 0.721614 0
0.0944839 0.721614 0
0.125566 0.721614 0
0.156985 0.721614 0
0.188678 0.721614 0
0.220645 0.721614 0
0.252842 0.721614 0
0.285267 0.721614 0
0.317891 0.721614 0
0.350698 0.721614 0
0.383703 0.721614 0
0.416861 0.721614 0
0.450187 0.721614 0
0.48365 0.721614 0
0.517266 0.721614 0
0.551019 0.721614 0
0.584894 0.721614 0
0.618906 0.721614 0
0.653025 0.721614 0
0.687266 0.721614 0
0.721614 0.721614 0
0.756085 0.721614 0
0.790646 0.721614 0
0.825299 0.721614 0
0.860059 0.721614 0
0.894911 0.721614 0
0.929854 0.721614 0
0.964889 0.721614 0
1 0.721614 0
0 0.756085 0
0.0108797 0.756085 0
0.0231937 0.756085 0
0.0408484 0.756085 0
0.0645609 0.756085 0
0.0944839 0.756085 0
0.125566 0.756085 0
0.156985 0.756085 0
0.188678 0.756085 0
0.220645 0.756085 0
0.252842 0.756085 0
0.285267 0.756085 0
0.317891 0.756085 0
0.350698 0.756085 0
0.383703 0.756085 0
0.416861 0.756085 0
0.450187 0.756085 0
0.48365 0.756085 0
0.517266 0.756085 0
0.551019 0.756085 0
0.584894 0.756085 0
0.618906 0.756085 0
0.653025 0.756085 0
0.687266 0.756085 0
0.721614 0.756085 0
0.756085 0.756085 0
0.790646 0.756085 0
0.825299 0.756085 0
0.860059 0.756085 0
0.894911 0.756085 0
0.929854 0.756085 0
0.964889 0.756085 0
1 0.756085 0
0 0.790646 0
0.0108797 0.790646 0
0.0231937 0.790646 0
0.0408484 0.790646 0
0.0645609 0.790646 0
0.0944839 0.790646 0
0.125566 0.790646 0
0.156985 0.790646 0
0.188678 0.790646 0
0.220645 0.790646 0
0.252842 0.790646 0
0.285267 0.790646 0
0.317891 0.790646 0
0.350698 0.790646 0
0.383703 0.790646 0
0.416861 0.790646 0
0.450187 0.790646 0
0.48365 0.790646 0
0.517266 0.790646 0
0.551019 0.790646 0
0.584894 0.790646 0
0.618906 0.790646 0
0.653025 0.790646 0
0.687266 0.790646 0
0.721614 0.790646 0
0.756085 0.790646 0
0.790646 0.790646 0
0.825299 0.790646 0
0.860059 0.790646 0
0.894911 0.790646 0
0.929854 0.790646 0
0.964889 0.790646 0
1 0.790646 0
0 0.825299 0
0.0108797 0.825299 0
0.0231937 0.825299 0
0.0408484 0.825299 0
0.0645609 0.825299 0
0.0944839 0.825299 0
0.125566 0.825299 0
0.156985 0.825299 0
0.188678 0.825299 0
