app/src/main/assets/luts/velvia.cube
TITLE "Generated by Resolve"
LUT_3D_SIZE 33
0 0 0
0.00251774 0.000610361 0
0.00669871 0.000320439 0.000244144
0.012604 0.000946059 0.000320439
0.023209 0.00114443 1.5259e-05
0.0359503 0.00122072 0.000167849
0.0532845 0.00123598 0.000183108
0.0731518 0.00181582 0.000381476
0.0939345 0.00175479 0.000106813
0.123812 0.00181582 7.62951e-05
0.157855 0.0010071 0.000701915
0.195224 0.000411994 0.00077821
0.234318 0.000289921 0.00030518
0.277668 7.62951e-05 0.000167849
0.323537 7.62951e-05 0.000183108
0.37145 0.000198367 1.5259e-05
0.419516 7.62951e-05 6.10361e-05
0.469352 4.57771e-05 0
0.519158 9.15541e-05 1.5259e-05
0.572564 7.62951e-05 1.5259e-05
0.626001 4.57771e-05 0
0.675883 0 0
0.718624 9.15541e-05 7.62951e-05
0.766537 4.57771e-05 0.000137331
0.810727 9.15541e-05 0.00015259
0.85301 0.00494392 0.000381476
0.89987 0.00993362 0.00117494
0.950713 0.0155642 0.00508125
0.991699 0.0281834 0.0119631
0.999481 0.0450446 0.0239567
0.999832 0.0704509 0.0445716
0.999985 0.090837 0.077821
0.999695 0.107103 0.117357
0.000137331 0.00515755 0.0010071
0.00419623 0.00564584 0
0.0084535 0.00607309 0
0.015671 0.00611887 0
0.0275731 0.00666819 3.0518e-05
0.0438697 0.00775158 0.000274662
0.0622873 0.00831617 1.5259e-05
0.0843824 0.00959792 4.57771e-05
0.109712 0.0107271 0.000335698
0.140902 0.0116884 0.000350958
0.175372 0.0118257 0.000137331
0.214252 0.0115816 1.5259e-05
0.260166 0.0121462 0
0.304372 0.0116121 0
0.350896 0.0110018 1.5259e-05
0.401892 0.0107424 0.000137331
0.449393 0.0115663 3.0518e-05
0.498253 0.0112459 0.000381476
0.544594 0.0116274 0.000457771
0.58735 0.0142977 9.15541e-05
0.630381 0.0161746 0.00015259
0.674693 0.0181277 0.000228885
0.720378 0.0221714 0.000198367
0.761593 0.0271 6.10361e-05
0.80206 0.0340124 1.5259e-05
0.843381 0.0416114 6.10361e-05
0.890913 0.0486763 0.000213626
0.940719 0.0590829 4.57771e-05
0.978882 0.0701305 0.000976577
0.999847 0.0846571 0.0037232
0.999619 0.102266 0.0175631
0.99939 0.123751 0.0455177
0.999619 0.140597 0.0842298
0 0.00941482 0.000213626
0.00358587 0.0117494 0.00015259
0.00949111 0.0125124 0.000823987
0.0179751 0.0133211 0.000823987
0.0300298 0.0139773 0.000366217
0.0457618 0.014786 0.000137331
0.0653239 0.0162356 0
0.086305 0.0174258 1.5259e-05
0.112688 0.0184634 0.00030518
0.147631 0.0193027 0.000106813
0.185306 0.0196078 0
0.224338 0.0198825 4.57771e-05
0.267643 0.0199741 9.15541e-05
0.313787 0.0213321 0.000259403
0.361944 0.0209964 0.000366217
0.409918 0.0205539 0.000259403
0.458396 0.021561 0
0.503578 0.0231327 0.000198367
0.547311 0.0253452 0.000183108
0.590341 0.0289158 0.00030518
0.631769 0.0296025 0.000259403
0.675181 0.0323186 0.000213626
0.719432 0.0363012 3.0518e-05
0.758236 0.041413 1.5259e-05
0.799786 0.0501869 0.000122072
0.840635 0.0590677 0.000289921
0.886839 0.0677348 6.10361e-05
0.937362 0.0773785 4.57771e-05
0.976425 0.0889296 9.15541e-05
0.999435 0.102296 0.00228885
0.999222 0.114717 0.00480659
0.999405 0.137682 0.0348669
0.999664 0.154589 0.0720684
0.000442512 0.0188602 0.000335698
0.00476081 0.0211948 0.000320439
0.00996414 0.02121 0.000640879
0.0202335 0.022034 1.5259e-05
0.0314488 0.0238041 0
0.0477302 0.0255283 0
0.0684977 0.0271763 0
0.0927291 0.027924 0.00015259
0.120195 0.0272679 0.000549325
0.152544 0.0283207 0.000137331
0.188479 0.0300298 0.000259403
0.230762 0.0315099 0.000244144
0.277058 0.0319982 0.00015259
0.322957 0.033463 0.000274662
0.370169 0.0339818 0.000198367
0.417334 0.0347753 0.000122072
0.462196 0.0370642 1.5259e-05
0.506249 0.0389105 1.5259e-05
0.547738 0.0414893 0.000183108
0.589822 0.0433814 0.000396735
0.632074 0.0454414 0.000457771
0.676295 0.0493172 0.00030518
0.71664 0.0544594 0.000320439
0.757259 0.0601053 0.000106813
0.796613 0.0694438 0.000350958
0.837995 0.0799115 0.000274662
0.881621 0.0897231 0.000381476
0.934218 0.098436 0.000183108
0.974456 0.109407 1.5259e-05
0.999115 0.122423 0.000442512
0.999161 0.134722 0.00354009
0.999557 0.155367 0.0213474
0.999649 0.170016 0.059266
1.5259e-05 0.0314946 4.57771e-05
0.00521859 0.0341802 1.5259e-05
0.0114748 0.0352331 1.5259e-05
0.0198825 0.0360876 1.5259e-05
0.0324254 0.0376135 0
0.0514076 0.0401007 3.0518e-05
0.0725261 0.0415808 0.000259403
0.0973373 0.0419318 0.000289921
0.126116 0.0433661 0.000198367
0.159442 0.0455482 0.00030518
0.19852 0.0467536 0.000320439
0.241794 0.0478218 0.00015259
0.285908 0.0484321 7.62951e-05
0.330938 0.0497902 0.000167849
0.374319 0.0534981 0.000106813
0.419944 0.0548257 6.10361e-05
0.46424 0.0559091 9.15541e-05
0.507622 0.0571145 0.00015259
0.549508 0.0589151 0.000274662
0.592508 0.0615244 0.000183108
0.634607 0.0644388 0.000122072
0.676081 0.0695659 0.000457771
0.715633 0.0764019 0.000366217
0.753552 0.0834669 7.62951e-05
0.792401 0.0940108 0.000106813
0.834684 0.104189 0.000274662
0.878279 0.113512 0.000747692
0.930068 0.122606 0.000274662
0.973465 0.134859 0.000122072
0.999115 0.146319 0.000335698
0.999191 0.1579 0.00172427
0.999573 0.177035 0.00918593
0.999649 0.192737 0.0463874
0.000244144 0.051194 1.5259e-05
0.00723278 0.0542458 0.000106813
0.0132601 0.0548409 9.15541e-05
0.0218051 0.0556039 3.0518e-05
0.0364538 0.0574502 0.000198367
0.0538186 0.0588846 0.000320439
0.0752422 0.0603037 0.000198367
0.101381 0.060853 3.0518e-05
0.131136 0.0634165 1.5259e-05
0.165484 0.0648814 0.000213626
0.205753 0.0652018 0.000579843
0.247974 0.0664836 0.000198367
0.292088 0.0683757 0.000198367
0.33518 0.0705119 0.000137331
0.378683 0.0737316 4.57771e-05
0.422187 0.0751202 0.000167849
0.465766 0.0758984 0.000350958
0.51043 0.0768749 0.000671397
0.553475 0.0800946 0.000228885
0.594675 0.0845502 9.15541e-05
0.635843 0.0894789 1.5259e-05
0.674403 0.0954452 9.15541e-05
0.71165 0.101915 0
0.749844 0.110414 1.5259e-05
0.788937 0.121096 1.5259e-05
0.831769 0.131044 0.000259403
0.875288 0.140093 0.000411994
0.925521 0.150011 0.000366217
0.973358 0.161379 0.000122072
0.997284 0.172717 7.62951e-05
0.999069 0.185977 0.00102235
0.999619 0.202747 0.0043183
0.999542 0.216999 0.0296483
0.00047303 0.07776 0.000167849
0.00701915 0.0789197 0.00015259
0.0139162 0.0793622 0.000167849
0.0234989 0.0799878 0.000228885
0.0361028 0.0813153 0.00030518
0.0547646 0.0830243 9.15541e-05
0.0771191 0.0848402 0.000198367
0.101991 0.0860456 0.000427253
0.134173 0.0865339 0.000289921
0.170962 0.0886091 0.000335698
0.209094 0.0903487 0.000335698
0.249683 0.0917067 0.000442512
0.295903 0.0924849 0.000183108
0.338613 0.0949111 0.00015259
0.38143 0.0981003 0.00015259
0.425406 0.101152 0.000442512
0.469902 0.102495 0.000381476
0.513161 0.102937 9.15541e-05
0.556863 0.107149 0.000198367
0.595972 0.112871 0.000122072
0.634272 0.119219 0.000106813
0.672618 0.125475 3.0518e-05
0.709987 0.13257 3.0518e-05
0.747524 0.141085 9.15541e-05
0.786374 0.150729 4.57771e-05
0.826856 0.160449 0.00015259
0.873259 0.170901 0.00015259
0.921447 0.17998 0.000183108
0.972717 0.19057 0.000106813
0.995132 0.202335 1.5259e-05
0.999268 0.215213 0
0.99939 0.229145 0.0031281
0.999557 0.243977 0.0167697
0.00062562 0.106996 7.62951e-05
0.00700389 0.108919 7.62951e-05
0.0135195 0.109651 7.62951e-05
0.0228275 0.10988 0.000213626
0.0377508 0.112276 0.000183108
0.0552529 0.114778 0.000198367
0.0759289 0.115129 0.000259403
0.104616 0.117464 0.000259403
0.136477 0.118746 0.000228885
0.174533 0.117723 0.000198367
0.212665 0.119905 0.000381476
0.255482 0.122728 0.000518807
0.299123 0.124651 0.000595102
0.340352 0.126543 0.000289921
0.383474 0.128389 0.000289921
0.432029 0.130785 0.000320439
0.474357 0.13228 7.62951e-05
0.517601 0.135515 1.5259e-05
0.558267 0.138491 1.5259e-05
0.595773 0.145769 0.000213626
0.632578 0.15256 0.000213626
0.671458 0.159045 1.5259e-05
0.707607 0.166796 7.62951e-05
0.743191 0.175525 7.62951e-05
0.783383 0.183536 3.0518e-05
0.824201 0.193622 0
0.869093 0.203586 7.62951e-05
0.91841 0.213169 0.00015259
0.971374 0.222461 3.0518e-05
0.992905 0.233265 0
0.99942 0.244663 0
0.999191 0.256962 7.62951e-05
0.999466 0.271153 0.00923171
0 0.14728 0.000289921
0.00563058 0.148714 0.000320439
0.0110628 0.14818 0.000427253
0.0222934 0.14966 0.000427253
0.0362554 0.152178 0.000396735
0.0565347 0.15256 0.000335698
0.0793317 0.152804 0.000244144
0.106844 0.153079 6.10361e-05
0.139284 0.154513 4.57771e-05
0.175311 0.156146 6.10361e-05
0.21622 0.156222 4.57771e-05
0.25919 0.157641 1.5259e-05
0.301274 0.160311 0.000259403
0.343984 0.160571 0.000503548
0.390295 0.162921 0.000381476
0.434363 0.165438 0.000289921
0.478569 0.168276 0.000183108
0.518044 0.172457 0.000106813
0.557244 0.178164 4.57771e-05
0.595697 0.182239 0.000228885
0.633768 0.187045 0.000167849
0.670375 0.193301 1.5259e-05
0.70425 0.204547 7.62951e-05
0.742153 0.212573 7.62951e-05
0.780072 0.220615 1.5259e-05
0.82121 0.229191 7.62951e-05
0.866453 0.2374 4.57771e-05
0.916152 0.246845 1.5259e-05
0.969787 0.254444 4.57771e-05
0.991882 0.264195 1.5259e-05
0.999481 0.275212 4.57771e-05
0.99939 0.286351 9.15541e-05
0.999329 0.299016 0.00732433
0.000228885 0.193133 0.000320439
0.00343328 0.19115 0.000595102
0.0121309 0.191989 0.000488289
0.0211185 0.192721 0.000335698
0.0366217 0.193042 0.000350958
0.0543679 0.193973 0.000320439
0.0793164 0.194659 0.000106813
0.107698 0.194949 9.15541e-05
0.13994 0.196048 0.000244144
0.177172 0.195331 0.000122072
0.21828 0.195712 0.00015259
0.26186 0.198535 0.000610361
0.305303 0.1991 0.00047303
0.349554 0.2009 0.000244144
0.39295 0.20351 0.000335698
0.436744 0.20621 0.000289921
0.478065 0.208606 0.000274662
0.517723 0.214633 0.000228885
0.556085 0.218631 0.000213626
0.593805 0.223346 0.000106813
0.63151 0.228794 7.62951e-05
0.667475 0.236301 0.00015259
0.703487 0.24332 0.000274662
0.739849 0.250797 0.000137331
0.77792 0.25687 0
0.819257 0.265461 0
0.863279 0.27332 7.62951e-05
0.912413 0.280369 0.000122072
0.963989 0.287282 0.00015259
0.994125 0.296101 3.0518e-05
0.99971 0.306355 0.000198367
0.999451 0.316442 0.000167849
0.999481 0.328038 0.00396735
9.15541e-05 0.240436 0.000350958
0.00476081 0.239475 0.000350958
0.00868238 0.239399 0.000198367
0.0205234 0.239734 0.000183108
0.033402 0.240314 0.000183108
0.0538949 0.240558 7.62951e-05
0.0772412 0.24181 3.0518e-05
0.107744 0.24332 0.000122072
0.141772 0.242954 0.000122072
0.179355 0.242512 1.5259e-05
0.220554 0.244373 0.000350958
0.264912 0.246891 0.000640879
0.311772 0.245777 0.000244144
0.355657 0.246723 1.5259e-05
0.398093 0.250248 0
0.436515 0.25243 0
0.477546 0.255665 0.000122072
0.517693 0.257664 0.000411994
0.55584 0.261723 0.000213626
0.593484 0.26569 3.0518e-05
0.630381 0.270848 0.000183108
0.666804 0.276081 0.000228885
0.700786 0.283116 6.10361e-05
0.735973 0.288518 1.5259e-05
0.775631 0.295445 4.57771e-05
0.816373 0.301808 1.5259e-05
0.860975 0.308873 0.000137331
0.910018 0.315099 0.00015259
0.958816 0.321996 0.000106813
0.999573 0.328283 1.5259e-05
0.999863 0.336934 0.000488289
0.999527 0.346944 0.000122072
0.999588 0.357122 0
0.00015259 0.292302 4.57771e-05
0.00347906 0.292851 0.000106813
0.00875868 0.291783 7.62951e-05
0.0155795 0.292103 6.10361e-05
0.0322881 0.292638 0.000122072
0.0497749 0.293248 0.000213626
0.0767376 0.293889 0.000289921
0.106416 0.294728 0.000350958
0.141665 0.294209 0.00030518
0.179339 0.293736 0.000335698
0.220951 0.294942 0.000366217
0.266438 0.294728 0.000213626
0.312795 0.29543 9.15541e-05
0.355398 0.295659 4.57771e-05
0.397848 0.295949 0
0.440482 0.298894 1.5259e-05
0.478233 0.300908 0.00015259
0.517098 0.30309 0.000183108
0.556191 0.305623 4.57771e-05
0.59234 0.308598 0.000106813
0.629099 0.312322 0.000244144
0.66424 0.317327 7.62951e-05
0.700587 0.322621 6.10361e-05
0.736477 0.327504 0.000274662
0.774853 0.33312 0.000167849
0.814939 0.338094 6.10361e-05
0.858259 0.344152 0.000183108
0.908415 0.349722 0.000137331
0.957 0.355749 7.62951e-05
0.995987 0.362585 4.57771e-05
0.99942 0.368566 0.000167849
0.999435 0.377279 1.5259e-05
0.999542 0.386069 0
0 0.348196 0.000381476
3.0518e-05 0.349142 0.000198367
0.00489815 0.348974 0.000228885
0.0136721 0.347356 0.000335698
0.0238651 0.34641 0.000427253
0.0461738 0.346624 0.000381476
0.069398 0.346761 0.000366217
0.102174 0.346014 0.000396735
0.137835 0.346151 0.000381476
0.179934 0.344945 0.000213626
0.22298 0.34374 0.000122072
0.267018 0.34493 0.000183108
0.311131 0.34435 0.00015259
0.355947 0.343008 1.5259e-05
0.397421 0.344198 1.5259e-05
0.438468 0.344137 1.5259e-05
0.47834 0.344808 0
0.516579 0.346502 0
0.55285 0.348653 1.5259e-05
0.58999 0.352178 6.10361e-05
0.625986 0.354971 7.62951e-05
0.662577 0.358877 3.0518e-05
0.698314 0.36231 9.15541e-05
0.734646 0.366857 0.000183108
0.772503 0.370657 4.57771e-05
0.812772 0.375433 1.5259e-05
0.856382 0.379477 7.62951e-05
0.907668 0.384787 0.000106813
0.959945 0.38996 4.57771e-05
0.991958 0.39556 1.5259e-05
0.999313 0.400671 3.0518e-05
0.999039 0.406836 0
0.999573 0.414664 3.0518e-05
6.10361e-05 0.404517 0.000213626
6.10361e-05 0.403021 7.62951e-05
0 0.40322 3.0518e-05
0.00582895 0.40296 1.5259e-05
0.0209812 0.401785 6.10361e-05
0.0363928 0.400366 0.000122072
0.0670634 0.399542 0.000198367
0.0989853 0.398825 0.000198367
0.137652 0.396399 0.000122072
0.178775 0.394644 4.57771e-05
0.222736 0.393927 0.000274662
0.267048 0.39237 0.000442512
0.31017 0.391745 0.000183108
0.35407 0.390936 1.5259e-05
0.396948 0.389746 0
0.438621 0.389242 1.5259e-05
0.47808 0.388876 4.57771e-05
0.515511 0.390021 0.00015259
0.553323 0.392035 0.000274662
0.589014 0.393545 0.00030518
0.625299 0.396246 0.000244144
0.660334 0.398627 4.57771e-05
0.695476 0.402335 4.57771e-05
0.732586 0.405478 1.5259e-05
0.770855 0.408103 1.5259e-05
0.812039 0.411734 7.62951e-05
0.85742 0.41561 0.000137331
0.906813 0.419196 9.15541e-05
0.95906 0.422629 1.5259e-05
0.988495 0.426505 0
0.999084 0.43238 0
0.999008 0.437186 1.5259e-05
0.99968 0.443366 3.0518e-05
0 0.456947 4.57771e-05
0.000274662 0.45597 6.10361e-05
0.00201419 0.455299 0.000213626
0.00331121 0.454978 0.000381476
0.0083772 0.454368 0.00047303
0.0334783 0.452232 0.000289921
0.0595102 0.449668 0.000106813
0.0958114 0.447044 4.57771e-05
0.135592 0.444465 1.5259e-05
0.17821 0.442741 0.000167849
0.221653 0.440574 0.000320439
0.265614 0.439063 0.000167849
0.310231 0.437552 4.57771e-05
0.352956 0.435462 3.0518e-05
0.397086 0.433799 3.0518e-05
0.436912 0.43267 0.000183108
0.477546 0.432532 0.000289921
0.516472 0.433234 0.000213626
0.552209 0.433982 0.000167849
0.588464 0.435096 0.00015259
0.623377 0.435904 0.000320439
0.658335 0.437903 0.000381476
0.696284 0.440208 7.62951e-05
0.733135 0.441703 4.57771e-05
0.770733 0.444694 7.62951e-05
0.811353 0.447791 0.00015259
0.856947 0.451499 0.000122072
0.905745 0.45388 4.57771e-05
0.960998 0.454749 0
0.989487 0.459663 0
0.999329 0.463706 4.57771e-05
0.999741 0.467582 4.57771e-05
0.99968 0.472679 3.0518e-05
3.0518e-05 0.505348 0.000335698
0.000320439 0.503517 0.000503548
0.000457771 0.50251 0.000579843
0.0078584 0.501122 0.000518807
0.0176547 0.499199 0.000381476
0.0274968 0.497627 0.000228885
0.0586557 0.495659 0.000183108
0.0934462 0.493477 0.000137331
0.131807 0.490822 9.15541e-05
0.17409 0.488807 3.0518e-05
0.218006 0.486412 7.62951e-05
0.263554 0.48278 0.000213626
0.309316 0.480064 0.000213626
0.355261 0.477745 9.15541e-05
0.39675 0.476387 0.000244144
0.437064 0.47599 0.000442512
0.47541 0.475975 0.000289921
0.513619 0.475578 0.000213626
0.550225 0.475166 0.000122072
0.58529 0.474998 7.62951e-05
0.621271 0.475761 0.000167849
0.657679 0.477287 0.000122072
0.693278 0.478111 4.57771e-05
0.729534 0.480201 4.57771e-05
0.768505 0.481834 3.0518e-05
0.810346 0.484535 1.5259e-05
0.85539 0.486412 1.5259e-05
0.906004 0.487678 1.5259e-05
0.956176 0.48867 0
0.997925 0.491585 6.10361e-05
0.999466 0.493446 7.62951e-05
0.999573 0.496452 3.0518e-05
0.999435 0.500771 1.5259e-05
0.000198367 0.550713 0.000579843
0.0018616 0.548272 0.000671397
0.00355535 0.547585 0.000518807
0.00535592 0.546563 0.000320439
0.0134127 0.545342 0.000183108
0.0342412 0.542901 0.000137331
0.0564126 0.540688 0.000122072
0.0883345 0.538186 0.000106813
0.126726 0.535256 0.000106813
0.169024 0.532128 0.000122072
0.213733 0.529168 0.00015259
0.260151 0.526711 0.000122072
0.306447 0.524376 6.10361e-05
0.350362 0.521263 6.10361e-05
0.392599 0.518273 0.000137331
0.434119 0.516838 0.000228885
0.473945 0.515923 0.000381476
0.511147 0.515526 0.000320439
0.547555 0.514168 7.62951e-05
0.583581 0.514458 6.10361e-05
0.6206 0.514656 9.15541e-05
0.655634 0.515007 3.0518e-05
0.692439 0.515984 4.57771e-05
0.728359 0.516716 0.000122072
0.767605 0.517998 7.62951e-05
0.809995 0.518761 6.10361e-05
0.855268 0.519982 0.000183108
0.906325 0.52105 0.000106813
0.958495 0.521752 9.15541e-05
0.997803 0.522148 0.000213626
0.999146 0.523445 0.000167849
0.999329 0.525322 0
0.999405 0.528984 3.0518e-05
0.000167849 0.593484 0.00047303
4.57771e-05 0.591928 0.000350958
0.000976577 0.591089 0.000320439
0.00863661 0.588663 0.000350958
0.0166629 0.586755 0.000381476
0.0247044 0.584772 0.000427253
0.0525673 0.5823 0.000411994
0.0836347 0.579385 0.000396735
0.120302 0.576379 0.000381476
0.163684 0.573938 0.000320439
0.208988 0.571252 0.000259403
0.252659 0.568276 0.000228885
0.299458 0.565728 0.000213626
0.342367 0.563363 0.000198367
0.387167 0.56022 0.000183108
0.428992 0.558053 0.000183108
0.471015 0.555718 0.000106813
0.509224 0.554177 6.10361e-05
0.5467 0.552865 4.57771e-05
0.581964 0.552056 1.5259e-05
0.61799 0.551629 7.62951e-05
0.655512 0.552468 0.000259403
0.690898 0.552743 0.000259403
0.728511 0.553002 0.00015259
0.767819 0.552621 3.0518e-05
0.809232 0.55288 9.15541e-05
0.855192 0.553765 0.00015259
0.906416 0.553582 1.5259e-05
0.959426 0.55407 4.57771e-05
0.990463 0.55407 0.000213626
0.999313 0.554253 0.000259403
0.999466 0.554543 1.5259e-05
0.999512 0.556298 4.57771e-05
7.62951e-05 0.634852 7.62951e-05
0.000106813 0.632837 7.62951e-05
0.000167849 0.631739 9.15541e-05
0.000259403 0.630472 9.15541e-05
0.00807202 0.628519 0.000122072
0.0248569 0.625925 0.000198367
0.0424048 0.623529 0.00030518
0.0708171 0.620737 0.000320439
0.11252 0.617746 0.000183108
0.154284 0.614359 1.5259e-05
0.200519 0.611337 9.15541e-05
0.248249 0.608286 0.00015259
0.293767 0.605447 0.00015259
0.338659 0.602197 0.00015259
0.381201 0.6 0.000137331
0.424628 0.597696 0.000183108
0.464912 0.594919 0.000320439
0.506203 0.592432 0.00047303
0.543496 0.590875 0.000274662
0.580652 0.589044 0
0.615351 0.589837 6.10361e-05
0.651438 0.589715 7.62951e-05
0.689479 0.589319 3.0518e-05
0.727474 0.588403 1.5259e-05
0.766781 0.586587 1.5259e-05
0.809293 0.586969 0
0.855482 0.586419 0
0.907027 0.585931 0
0.961044 0.584741 6.10361e-05
0.990005 0.584176 0.000106813
0.999435 0.583154 3.0518e-05
0.999802 0.583856 1.5259e-05
0.999527 0.586221 1.5259e-05
0 0.675303 0.000320439
0 0.673671 0.000198367
0.000320439 0.672541 0.000274662
0.000869764 0.671031 0.00047303
0.00149538 0.668894 0.000686656
0.00207523 0.667247 0.000839246
0.0292973 0.664897 0.000656138
0.0630961 0.661631 0.000427253
0.0995499 0.658763 0.000244144
0.144564 0.655375 0.000213626
0.19176 0.651881 0.000183108
0.238071 0.647837 0.000167849
0.285588 0.644297 0.000183108
0.331807 0.641306 0.000228885
0.375296 0.638575 0.000350958
0.418204 0.636072 0.000411994
0.459632 0.633738 0.000366217
0.498741 0.631373 0.000228885
0.537942 0.628992 6.10361e-05
0.575845 0.627726 0
0.613153 0.626612 0
0.650568 0.625864 0
0.687999 0.625223 0
0.72491 0.623102 7.62951e-05
0.764401 0.622339 0.000106813
0.807492 0.620859 0
0.856641 0.619486 0
0.907897 0.617029 7.62951e-05
0.957717 0.614878 0.00015259
0.998154 0.613001 0
0.999512 0.612558 0
0.99942 0.613642 1.5259e-05
0.999466 0.614374 0
0 0.715831 0.000167849
0.000137331 0.713863 0.000122072
0.000183108 0.713268 0.000106813
0.000244144 0.712367 7.62951e-05
0.00529488 0.710399 0.00015259
0.0147555 0.708476 0.00030518
0.0235752 0.706523 0.000488289
0.039704 0.704067 0.000671397
0.0826429 0.700572 0.00077821
0.127077 0.69633 0.0009308
0.175647 0.692332 0.000808728
0.22652 0.688167 0.000381476
0.276417 0.684291 3.0518e-05
0.320958 0.681285 1.5259e-05
0.367224 0.678584 3.0518e-05
0.4094 0.675898 7.62951e-05
0.452613 0.672541 9.15541e-05
0.492317 0.670085 9.15541e-05
0.532708 0.667735 7.62951e-05
0.568856 0.665324 3.0518e-05
0.607919 0.662959 0
0.646555 0.661097 4.57771e-05
0.683711 0.658732 7.62951e-05
0.721019 0.656809 9.15541e-05
0.761196 0.654704 6.10361e-05
0.804349 0.653132 3.0518e-05
0.852766 0.651194 0
0.906966 0.648112 1.5259e-05
0.959701 0.644816 1.5259e-05
0.995727 0.642451 3.0518e-05
0.999237 0.64152 1.5259e-05
0.999252 0.642313 0.000122072
0.999268 0.643809 3.0518e-05
7.62951e-05 0.755306 0.000762951
6.10361e-05 0.754131 0.000976577
0.00137331 0.753475 0.000976577
0.00282292 0.75256 0.000946059
0.00424201 0.751644 0.000915541
0.00567636 0.750301 0.000869764
0.0209964 0.747662 0.000900282
0.0427405 0.744778 0.000976577
0.0659953 0.741405 0.00108339
0.105837 0.737758 0.000808728
0.154437 0.733898 0.000381476
0.204547 0.72932 1.5259e-05
0.255344 0.725124 6.10361e-05
0.308293 0.720928 0.000106813
0.353674 0.717266 0.000167849
0.400061 0.713863 0.000228885
0.443 0.711009 0.000167849
0.484977 0.708019 0.000122072
0.523384 0.704845 7.62951e-05
0.562722 0.701411 1.5259e-05
0.600244 0.698192 4.57771e-05
0.639506 0.695308 0.000106813
0.677699 0.69218 4.57771e-05
0.716533 0.688533 1.5259e-05
0.756466 0.685359 3.0518e-05
0.801236 0.681773 3.0518e-05
0.849668 0.678828 4.57771e-05
0.904662 0.674876 0.000122072
0.959258 0.672633 0.000167849
0.989013 0.670192 6.10361e-05
0.999283 0.669902 1.5259e-05
0.999268 0.671626 3.0518e-05
0.999329 0.674098 0.000244144
9.15541e-05 0.796902 0.00077821
0.000106813 0.79498 0.000640879
0.000122072 0.794385 0.000595102
0.000122072 0.793484 0.000549325
0.00329595 0.792325 0.000518807
0.00910964 0.790372 0.000503548
0.014374 0.788724 0.000488289
0.0206455 0.786496 0.000442512
0.0529335 0.782818 0.000350958
0.0865339 0.779538 0.000274662
0.123919 0.776043 0.000274662
0.176822 0.771771 0.000442512
0.232242 0.766949 0.00062562
0.283986 0.762432 0.000518807
0.334264 0.758328 0.000198367
0.381704 0.754253 4.57771e-05
0.426627 0.750256 9.15541e-05
0.471092 0.746273 4.57771e-05
0.513176 0.741588 0
0.553735 0.736233 4.57771e-05
0.592538 0.731853 6.10361e-05
0.630625 0.727947 4.57771e-05
0.668925 0.724208 4.57771e-05
0.710033 0.720333 0.000106813
0.751629 0.716472 0.000137331
0.795895 0.713527 6.10361e-05
0.846464 0.709316 7.62951e-05
0.901686 0.705287 9.15541e-05
0.956863 0.701015 1.5259e-05
0.997711 0.699306 0
0.998901 0.698253 0.000335698
0.99971 0.702907 3.0518e-05
0.998962 0.704982 0.000350958
3.0518e-05 0.838911 0.000457771
3.0518e-05 0.837964 0.000503548
1.5259e-05 0.837385 0.000427253
1.5259e-05 0.836042 0.000350958
1.5259e-05 0.835096 0.000259403
0 0.834043 0.00015259
0.00666819 0.832395 0.000167849
0.0180819 0.830198 0.00030518
0.0290379 0.827741 0.00047303
0.0514076 0.82414 0.000564584
0.0957656 0.820188 0.000503548
0.142 0.816007 0.000366217
0.193668 0.811139 0.000335698
0.250996 0.805432 0.000396735
0.307622 0.799146 0.000411994
0.358083 0.793332 0.000213626
0.409842 0.787488 1.5259e-05
0.451743 0.782666 1.5259e-05
0.496406 0.778027 1.5259e-05
0.53724 0.772671 0
0.578393 0.767025 1.5259e-05
0.618631 0.762631 3.0518e-05
0.660273 0.757961 7.62951e-05
0.701274 0.754452 0.000183108
0.743984 0.75082 0.000106813
0.789258 0.746487 4.57771e-05
0.842237 0.74255 0.000289921
0.897612 0.73753 0.000137331
0.95375 0.733211 0
0.991806 0.729747 3.0518e-05
0.9991 0.729488 6.10361e-05
0.999069 0.733333 7.62951e-05
0.999512 0.739849 0
1.5259e-05 0.88452 0.000183108
4.57771e-05 0.883604 0.000198367
4.57771e-05 0.883085 0.000198367
6.10361e-05 0.882399 0.000213626
7.62951e-05 0.881636 0.000259403
7.62951e-05 0.880064 0.000335698
7.62951e-05 0.878798 0.000411994
7.62951e-05 0.877684 0.00047303
0.0139162 0.874891 0.000366217
0.0313878 0.871656 0.000198367
0.0473793 0.86807 4.57771e-05
0.0931563 0.862379 6.10361e-05
0.152819 0.856123 0.000137331
0.212299 0.849744 0.000167849
0.268345 0.842725 0.00015259
0.328344 0.83563 0.00015259
0.377829 0.829389 7.62951e-05
0.42858 0.822858 1.5259e-05
0.474205 0.816342 0.000122072
0.52015 0.810498 0.00030518
0.561807 0.805722 0.000213626
0.6047 0.800198 3.0518e-05
0.64683 0.796384 0.00030518
0.688716 0.792157 0.000396735
