app/src/main/assets/luts/velvia.cube
TITLE "Generated by Resolve"
LUT_3D_SIZE 9
0 0 0
0.023209 0.00114443 1.5259e-05
0.0939345 0.00175479 0.000106813
0.234318 0.000289921 0.00030518
0.419516 7.62951e-05 6.10361e-05
0.626001 4.57771e-05 0
0.810727 9.15541e-05 0.00015259
0.991699 0.0281834 0.0119631
0.999695 0.107103 0.117357
1.5259e-05 0.0314946 4.57771e-05
0.0324254 0.0376135 0
0.126116 0.0433661 0.000198367
0.285908 0.0484321 7.62951e-05
0.46424 0.0559091 9.15541e-05
0.634607 0.0644388 0.000122072
0.792401 0.0940108 0.000106813
0.973465 0.134859 0.000122072
0.999649 0.192737 0.0463874
0 0.14728 0.000289921
0.0362554 0.152178 0.000396735
0.139284 0.154513 4.57771e-05
0.301274 0.160311 0.000259403
0.478569 0.168276 0.000183108
0.633768 0.187045 0.000167849
0.780072 0.220615 1.5259e-05
0.969787 0.254444 4.57771e-05
0.999329 0.299016 0.00732433
0 0.348196 0.000381476
0.0238651 0.34641 0.000427253
0.137835 0.346151 0.000381476
0.311131 0.34435 0.00015259
0.47834 0.344808 0
0.625986 0.354971 7.62951e-05
0.772503 0.370657 4.57771e-05
0.959945 0.38996 4.57771e-05
0.999573 0.414664 3.0518e-05
0.000198367 0.550713 0.000579843
0.0134127 0.545342 0.000183108
0.126726 0.535256 0.000106813
0.306447 0.524376 6.10361e-05
0.473945 0.515923 0.000381476
0.6206 0.514656 9.15541e-05
0.767605 0.517998 7.62951e-05
0.958495 0.521752 9.15541e-05
0.999405 0.528984 3.0518e-05
0 0.715831 0.000167849
0.00529488 0.710399 0.00015259
0.0826429 0.700572 0.00077821
0.276417 0.684291 3.0518e-05
0.452613 0.672541 9.15541e-05
0.607919 0.662959 0
0.761196 0.654704 6.10361e-05
0.959701 0.644816 1.5259e-05
0.999268 0.643809 3.0518e-05
1.5259e-05 0.88452 0.000183108
7.62951e-05 0.881636 0.000259403
0.0139162 0.874891 0.000366217
0.152819 0.856123 0.000137331
0.377829 0.829389 7.62951e-05
0.561807 0.805722 0.000213626
0.73344 0.787396 0.000106813
0.951736 0.767865 1.5259e-05
0.999466 0.775311 0.000137331
0 1 0.000289921
0 1 0.000289921
0 1 0.000289921
0 1 0.000289921
0.0673838 0.999786 0.000350958
0.381445 0.993637 0.000747692
0.628275 0.983276 0.000656138
0.885069 0.950912 6.10361e-05
0.998734 0.919219 6.10361e-05
0 1 0.000289921
0 1 0.000289921
0 1 0.000289921
0 1 0.000289921
0 1 0.000289921
0 1 0.000289921
0 1 0.000289921
0.218723 0.999374 0.00047303
0.905043 0.999832 0.00387579
0.000579843 0.000289921 0.0141451
0.0359197 0.000183108 0.0187533
0.128923 0.000274662 0.0276951
0.295583 0.000381476 0.0386206
0.484123 0.000183108 0.0491035
0.672831 0.000244144 0.0603799
0.841367 0.000411994 0.0785534
0.999878 0.0233463 0.135149
0.999863 0.096437 0.24181
0.000198367 0.0416419 0.0505837
0.045304 0.0474708 0.0457008
0.16022 0.0512856 0.0430304
0.332784 0.0518044 0.0377356
0.504936 0.0541085 0.0305028
0.669169 0.0636759 0.0252384
0.817182 0.0937514 0.0416419
0.984787 0.129961 0.0847944
0.999817 0.184207 0.183505
0.000122072 0.173098 0.0359045
0.0411841 0.170764 0.0278477
0.159655 0.171099 0.00976577
0.338582 0.172702 0.00349432
0.508476 0.178378 0.00187686
0.655192 0.194507 0.000106813
0.800122 0.220417 0.00518807
0.986603 0.250187 0.03122
0.999756 0.29189 0.131777
1.5259e-05 0.371618 0.000274662
0.0235904 0.364904 3.0518e-05
0.152926 0.358557 0.000701915
0.33138 0.3514 1.5259e-05
0.497124 0.349248 0
0.641245 0.35581 0.000137331
0.786587 0.368307 3.0518e-05
0.971756 0.381704 0.00354009
0.999481 0.404456 0.0872663
1.5259e-05 0.551034 0.000350958
0.0166476 0.543236 0.000137331
0.132906 0.532082 0.000442512
0.317006 0.519158 7.62951e-05
0.481224 0.511345 3.0518e-05
0.629664 0.507057 6.10361e-05
0.777111 0.508904 4.57771e-05
0.965209 0.511162 0.000198367
0.99939 0.51667 0.0525521
0 0.706538 0.000579843
0.00563058 0.702129 0.000335698
0.0825513 0.690593 0.000534066
0.277958 0.674769 0.000167849
0.458213 0.661997 0.000198367
0.611292 0.653101 0.000122072
0.765576 0.645685 0.000106813
0.963623 0.635508 7.62951e-05
0.999405 0.632349 0.0292668
4.57771e-05 0.870848 0.000244144
0 0.866636 0.000350958
0.0162356 0.859373 0.000228885
0.154986 0.843534 0.000167849
0.37705 0.825696 0.000411994
0.560937 0.811154 0.000167849
0.733883 0.798016 0.000259403
0.952193 0.781399 0
0.999008 0.768948 0.00910964
0 1 0.000289921
0 1 0.000289921
0 1 0.000289921
0 1 0.000289921
0.0727398 0.999985 0.000411994
0.386069 0.999512 9.15541e-05
0.628046 0.995026 3.0518e-05
0.885054 0.965087 7.62951e-05
0.99939 0.9281 0.00015259
0 1 0.000289921
0 1 0.000289921
0 1 0.000289921
0 1 0.000289921
0 1 0.000289921
0 1 0.000289921
0 1 0.000289921
0.22385 0.999924 0.000488289
0.914336 0.999512 0.00849927
0.00030518 9.15541e-05 0.0552224
0.047776 0.000106813 0.0778973
0.162676 0.000228885 0.105272
0.344549 7.62951e-05 0.138323
0.537316 0.00015259 0.174136
0.714534 9.15541e-05 0.213321
0.868681 0.000854505 0.254932
0.999985 0.0204623 0.311498
0.999893 0.0844587 0.401068
0.000534066 0.0534981 0.170993
0.0563668 0.0562753 0.173251
0.189212 0.0560006 0.17731
0.367544 0.0538643 0.177874
0.543618 0.0522621 0.184192
0.690669 0.0678721 0.194247
0.837339 0.0946212 0.218402
0.992218 0.128817 0.261585
0.999649 0.184146 0.34287
0.000518807 0.193957 0.213672
0.0421454 0.188113 0.194873
0.182132 0.184314 0.182177
0.365957 0.180407 0.163622
0.530221 0.184741 0.153948
0.669459 0.199817 0.160616
0.814725 0.221866 0.177401
0.994873 0.247425 0.212467
0.999573 0.286992 0.29279
0.000274662 0.38587 0.198154
0.0218357 0.376852 0.176669
0.161776 0.365713 0.154635
0.345464 0.355489 0.135653
0.508385 0.352346 0.122408
0.651514 0.355581 0.121263
0.796414 0.365682 0.133165
0.978546 0.377478 0.166247
0.999451 0.39794 0.242679
7.62951e-05 0.551431 0.172808
0.016144 0.54229 0.154574
0.134752 0.530785 0.13286
0.321279 0.517784 0.110994
0.487846 0.507698 0.0955673
0.636286 0.503334 0.0923323
0.784543 0.502403 0.0987716
0.970443 0.50251 0.12459
0.999619 0.508751 0.197726
0.000228885 0.700008 0.154849
0.00457771 0.695018 0.138872
0.0825971 0.682521 0.119921
0.280522 0.666194 0.0964065
0.4598 0.652277 0.0760815
0.614496 0.643198 0.0661784
0.767834 0.635462 0.0640574
0.967514 0.62414 0.0827649
0.999527 0.622293 0.16112
4.57771e-05 0.857923 0.113497
0.000137331 0.853941 0.103441
0.0176699 0.847272 0.088014
0.154437 0.831312 0.0622568
0.379248 0.812985 0.0372168
0.561349 0.79855 0.0220645
0.734585 0.786252 0.0227665
0.955001 0.769497 0.0342718
0.999374 0.758114 0.117922
7.62951e-05 0.999802 0.0265202
7.62951e-05 0.999619 0.0165103
0 1 0.00704967
0 1 0.000289921
0.0805219 0.999771 0.000366217
0.387533 0.999405 0.00131228
0.627543 0.998825 0.000167849
0.885359 0.976974 0.000106813
0.998932 0.929992 0.0164797
1.5259e-05 0.999985 0.000518807
0 0.999954 0.000549325
0 1 0.000289921
0 1 0.000289921
0 0.999985 0.00102235
0 0.999985 0.000885023
0 1 0.000503548
0.227741 0.999786 0.000137331
0.92813 0.999298 0.0154269
0.00015259 3.0518e-05 0.138537
0.0691997 0.00015259 0.189349
0.206867 9.15541e-05 0.244038
0.394629 1.5259e-05 0.307088
0.594766 4.57771e-05 0.383169
0.74641 0.000122072 0.423102
0.895827 0.0009308 0.457206
0.999741 0.0203098 0.495827
0.999771 0.0817273 0.556222
0.000701915 0.0648356 0.361959
0.0650187 0.0643168 0.379553
0.222324 0.0591135 0.388006
0.409628 0.0539406 0.394644
0.575006 0.0552224 0.402731
0.71368 0.07393 0.409735
0.860044 0.098558 0.420981
0.997574 0.133043 0.447059
0.999924 0.185626 0.498772
0.000320439 0.218921 0.440513
0.0428168 0.209277 0.423407
0.202792 0.198383 0.41178
0.389685 0.19408 0.390921
0.548241 0.197116 0.378714
0.686198 0.208255 0.373632
0.833021 0.224933 0.379019
0.99855 0.248753 0.398306
0.999603 0.286198 0.444785
6.10361e-05 0.400122 0.430655
0.0258488 0.38883 0.409522
0.17145 0.37554 0.384939
0.358801 0.363241 0.360265
0.522637 0.357992 0.342489
0.663951 0.358175 0.335241
0.810544 0.365469 0.333425
0.986099 0.37409 0.349065
0.999878 0.394324 0.396872
1.5259e-05 0.557031 0.398611
0.0155337 0.545678 0.380392
0.141238 0.531884 0.357427
0.333211 0.517662 0.33492
0.498894 0.505409 0.314733
0.643458 0.500267 0.300771
0.792844 0.498054 0.295811
0.976349 0.494514 0.306249
0.999527 0.502235 0.350393
0.000106813 0.695186 0.368429
0.00296025 0.689052 0.352682
0.0855421 0.676326 0.332784
0.281895 0.660197 0.306249
0.462104 0.645457 0.283421
0.616098 0.634577 0.265278
0.772686 0.625879 0.256718
0.973571 0.615106 0.258824
0.999023 0.614115 0.306722
0 0.849531 0.317052
0 0.84535 0.306386
0.0176242 0.838224 0.290013
0.152377 0.82031 0.265476
0.377127 0.801862 0.239246
0.562676 0.787045 0.215473
0.738231 0.773861 0.198795
0.959533 0.758022 0.200626
0.999283 0.746654 0.254704
3.0518e-05 0.99971 0.214359
4.57771e-05 0.999527 0.204761
0.000122072 0.999527 0.194553
0 0.999802 0.181476
0.0838788 0.999893 0.155734
0.388739 0.994614 0.122972
0.626001 0.994339 0.0978408
0.8878 0.968368 0.0857099
0.999344 0.912612 0.136263
0.000274662 0.999908 0.0937057
0.000183108 0.999924 0.0916762
3.0518e-05 0.999924 0.0884108
4.57771e-05 0.999817 0.0877241
1.5259e-05 0.999969 0.0957504
1.5259e-05 0.999786 0.0889296
0.000167849 0.999802 0.0807965
0.236057 0.999771 0.0484016
0.94583 0.999756 0.0254063
0.00189212 6.10361e-05 0.282109
0.0972 0.00015259 0.366155
0.257816 0.000350958 0.446159
0.460182 7.62951e-05 0.540444
0.643198 0.000228885 0.613886
0.774594 0.000259403 0.628351
0.924727 0.00216678 0.646815
0.999863 0.027863 0.6663
0.999542 0.0895705 0.697719
0.00015259 0.082002 0.586465
0.0824903 0.0786297 0.609384
0.260273 0.0681315 0.619928
0.449561 0.0602274 0.623072
0.599557 0.0683452 0.612741
0.734295 0.0847334 0.608194
0.884352 0.110933 0.608179
0.999847 0.144442 0.615534
0.999542 0.192416 0.644068
0.000350958 0.248035 0.659861
0.0420691 0.234913 0.644282
0.222782 0.220356 0.623087
0.409888 0.214435 0.597406
0.56701 0.213458 0.582086
0.704097 0.222705 0.570031
0.855085 0.237644 0.563989
0.999908 0.256855 0.568338
0.999985 0.289296 0.591669
0.000381476 0.419654 0.63035
0.0221408 0.406119 0.612634
0.183551 0.390036 0.588388
0.375616 0.376455 0.564263
0.536522 0.369451 0.542885
0.678401 0.367681 0.526986
0.827131 0.370855 0.518441
0.993896 0.376837 0.518395
0.999741 0.392721 0.544366
0.000259403 0.563897 0.595972
0.0125734 0.554376 0.577996
0.141436 0.538705 0.556146
0.34168 0.522393 0.530663
0.507698 0.509178 0.508156
0.651957 0.50248 0.489372
0.804105 0.496483 0.476738
0.983154 0.491646 0.469596
0.999527 0.497734 0.49633
3.0518e-05 0.695323 0.554314
0.00181582 0.688411 0.540322
0.0799268 0.673747 0.520943
0.28069 0.656748 0.495689
0.464591 0.642145 0.471229
0.621027 0.630274 0.449424
0.780209 0.620264 0.432929
0.980331 0.608606 0.421317
0.999405 0.607553 0.44921
0.00047303 0.844007 0.498848
0.000244144 0.839948 0.487861
0.0158083 0.832547 0.472953
0.142885 0.814771 0.449439
0.377356 0.795254 0.42153
0.565286 0.778958 0.396033
0.741329 0.764981 0.373297
0.962188 0.748638 0.362921
0.998947 0.734005 0.390448
4.57771e-05 0.998123 0.396689
0.000244144 0.998871 0.388205
0.000503548 0.999878 0.376623
0.000167849 0.999847 0.363027
0.0872206 0.998077 0.336416
0.384146 0.989731 0.299351
0.626093 0.977417 0.268894
0.89041 0.95021 0.245075
0.999207 0.893797 0.269123
6.10361e-05 0.999344 0.226368
7.62951e-05 0.999649 0.22092
0.00015259 0.999771 0.21442
0 0.999619 0.20705
1.5259e-05 0.999588 0.203754
0 0.999969 0.208042
6.10361e-05 0.999985 0.19704
0.246311 0.999847 0.152514
0.969314 0.999603 0.0740673
0.00875868 0.000183108 0.490578
0.139818 0.000289921 0.59176
0.323629 9.15541e-05 0.689082
0.526879 0.000320439 0.791714
0.677302 0.000137331 0.818479
0.804929 9.15541e-05 0.822873
0.958007 0.00933852 0.821241
0.999603 0.0438392 0.825544
0.999954 0.104585 0.835843
0.000656138 0.111864 0.815137
0.0990616 0.099382 0.832212
0.297017 0.0856489 0.838026
0.480079 0.0839857 0.818189
0.627161 0.0914626 0.802731
0.760082 0.106508 0.791241
0.913573 0.132174 0.778027
0.999985 0.158618 0.775937
0.999893 0.20354 0.784497
0.000396735 0.282414 0.858488
0.0484474 0.267796 0.836027
0.242054 0.251347 0.810803
0.435096 0.239475 0.787961
0.587518 0.238529 0.766827
0.725002 0.243931 0.749493
0.879591 0.253407 0.736095
0.99939 0.267704 0.726925
0.999786 0.297154 0.737743
0.000701915 0.4421 0.81886
0.0189975 0.428962 0.796979
0.192248 0.411475 0.774594
0.390509 0.394995 0.749554
0.552682 0.386084 0.724926
0.692653 0.380636 0.708202
0.845136 0.379767 0.688518
0.99971 0.379034 0.679332
0.999405 0.395727 0.691615
0.000396735 0.574365 0.777966
0.00358587 0.564324 0.760174
0.140627 0.54725 0.738399
0.345693 0.529152 0.713329
0.513787 0.515465 0.688518
0.660731 0.505562 0.667369
0.817304 0.497841 0.649439
0.991348 0.490486 0.635065
0.999557 0.496208 0.645945
0.000366217 0.697459 0.738705
0.000289921 0.690608 0.723751
0.0651865 0.676646 0.703868
0.278782 0.657786 0.675669
0.466468 0.641566 0.648905
0.62565 0.628534 0.626902
0.790219 0.616571 0.604898
0.988876 0.603815 0.587228
0.999374 0.603326 0.597055
0.000396735 0.842512 0.681361
0.000396735 0.838544 0.671794
0.00560006 0.831113 0.657725
0.129671 0.812146 0.630869
0.377417 0.790295 0.600504
0.567727 0.774029 0.572061
0.747875 0.758755 0.548974
0.967056 0.741558 0.527398
0.999863 0.720439 0.531518
7.62951e-05 0.985382 0.57557
0 0.985626 0.565972
3.0518e-05 0.984756 0.55346
6.10361e-05 0.984329 0.540764
0.0810101 0.991943 0.512154
0.378836 0.981247 0.47216
0.623636 0.959426 0.437919
0.889998 0.931701 0.405264
0.999649 0.872602 0.409522
0.000106813 0.999359 0.369696
0.000106813 0.999542 0.360006
6.10361e-05 0.999557 0.350088
3.0518e-05 0.999664 0.339086
1.5259e-05 0.999802 0.327901
4.57771e-05 0.999817 0.31635
1.5259e-05 0.999863 0.317082
0.259663 0.999496 0.265278
0.987243 0.999634 0.16112
0.0272068 0.000244144 0.743389
0.196567 9.15541e-05 0.856703
0.395041 7.62951e-05 0.961395
0.576715 0.00015259 0.999908
0.708293 0.000137331 0.999939
0.84007 0.00624094 0.99884
0.987182 0.0278019 0.989532
0.999893 0.0683604 0.980255
0.999771 0.128298 0.980529
0.000503548 0.157137 0.99942
0.112581 0.136629 1
0.324559 0.127428 0.999878
0.506539 0.122469 0.999649
0.651118 0.127306 0.986343
0.785779 0.141512 0.97174
0.941741 0.157855 0.957702
0.999954 0.181399 0.94139
0.999802 0.222065 0.945373
0.00015259 0.323705 0.999847
0.0382696 0.308965 0.999847
0.254475 0.291997 0.993622
0.449393 0.277012 0.975006
0.605478 0.269627 0.959121
0.743938 0.270298 0.937972
0.901808 0.274052 0.918044
0.999649 0.283375 0.902144
0.999847 0.308614 0.904112
0.000106813 0.465797 0.998611
0.020325 0.453239 0.986969
0.184466 0.434562 0.971359
0.39649 0.416205 0.949477
0.560845 0.403937 0.924697
0.70251 0.39707 0.900099
0.862181 0.392325 0.877607
0.999924 0.389181 0.860227
1 0.402396 0.862379
0.000228885 0.585672 0.981582
0.0084535 0.576822 0.973877
0.122652 0.560037 0.951766
0.34052 0.539834 0.920943
0.515358 0.524666 0.890562
0.666545 0.513466 0.866072
0.83154 0.502098 0.841535
0.999283 0.493385 0.821561
0.999802 0.497795 0.822309
0.0012665 0.701198 0.963317
0.000122072 0.696437 0.949966
0.0477455 0.682124 0.925429
0.263279 0.662242 0.891142
0.461341 0.64416 0.860716
0.627466 0.630121 0.830823
0.800595 0.615747 0.803494
0.994171 0.601846 0.780026
0.999832 0.599359 0.770245
0.000381476 0.835035 0.912474
0.00015259 0.833219 0.899825
0.000228885 0.829084 0.885756
0.101717 0.812787 0.854612
0.364736 0.789258 0.820218
0.56434 0.771038 0.784939
0.751492 0.753109 0.752026
0.970993 0.730816 0.717159
0.999542 0.703334 0.693233
0.000259403 0.951553 0.789761
6.10361e-05 0.952438 0.777508
1.5259e-05 0.952667 0.765927
0.000137331 0.952804 0.748486
0.0620432 0.972564 0.716014
0.359777 0.957366 0.672175
0.613748 0.936889 0.629755
0.886137 0.906523 0.586191
0.999252 0.848188 0.563409
0.00030518 0.999893 0.541085
0.000335698 0.999725 0.530541
0.000244144 0.999573 0.516121
9.15541e-05 0.999664 0.499702
0.000122072 0.999786 0.47895
1.5259e-05 0.999664 0.457191
0.000335698 0.999756 0.439872
0.277058 0.999313 0.399786
0.997787 0.999527 0.263844
0.0391394 0.0268101 0.922759
0.249226 0.0142214 0.99971
0.44596 0.0124056 0.999451
0.60206 0.0153658 0.999802
0.730068 0.0226444 0.999481
0.864958 0.0442512 0.999725
0.999985 0.0741436 0.9991
0.999969 0.112184 0.999756
0.999969 0.171786 0.999619
0.000701915 0.263233 0.999649
0.0857557 0.233402 1
0.321416 0.202197 0.999954
0.512871 0.182177 0.999512
0.661433 0.18143 0.999542
0.799878 0.189273 0.99939
0.960861 0.199573 0.999435
0.999786 0.218097 0.999725
1 0.251301 0.999985
0.00015259 0.3935 0.999573
0.0235447 0.373953 0.999542
0.222751 0.339284 0.999985
0.440848 0.320714 0.99968
0.606638 0.310979 0.999725
0.752926 0.306065 0.999619
0.9187 0.304234 0.998932
0.999741 0.308415 0.999252
0.999939 0.328374 0.999374
0.000259403 0.501183 0.999893
0.00205997 0.49102 0.999954
0.134051 0.466392 0.999863
0.371389 0.446036 0.999573
0.55378 0.430335 0.999466
0.70692 0.419226 0.999634
0.875822 0.410895 0.999268
0.999725 0.404974 0.999771
0.999924 0.410773 0.999054
0.000244144 0.605127 0.999634
0.000167849 0.598856 0.99942
0.0453498 0.581888 0.999969
0.30251 0.559396 0.999969
0.500313 0.541039 0.999863
0.665202 0.526421 0.99942
0.838972 0.512993 0.999756
0.998032 0.499886 0.99968
0.999969 0.491188 0.999878
0.000396735 0.704189 0.999832
0.00030518 0.700786 0.999786
0.0126955 0.691661 0.999741
0.196857 0.669123 0.999863
0.433799 0.648493 0.999985
0.612207 0.631754 0.999969
0.794415 0.613382 0.999359
0.986191 0.593256 0.999252
0.999908 0.579095 0.993194
0.000457771 0.800473 0.999893
0.000259403 0.799405 0.999786
0.000595102 0.798383 0.999741
0.0457465 0.792096 0.999619
0.297108 0.7691 0.999924
0.527108 0.747799 0.999817
0.72285 0.728511 0.999374
0.955795 0.702617 0.986984
0.999542 0.676844 0.931991
0.000106813 0.903105 0.999924
0.000259403 0.902419 1
0.000335698 0.902556 1
0.000610361 0.904265 0.99852
0.0239719 0.922362 0.989731
0.296101 0.919478 0.960204
0.578424 0.895781 0.916487
0.861921 0.866728 0.864546
0.999878 0.814008 0.795575
0.000289921 0.999588 0.822446
9.15541e-05 0.999878 0.808057
6.10361e-05 0.999802 0.790875
0.000183108 0.999634 0.765438
0.000259403 0.999695 0.728069
1.5259e-05 0.999771 0.685893
0.00015259 0.999786 0.638422
0.213092 0.999451 0.58027
0.999054 0.999832 0.42118
0.106432 0.191974 0.999878
0.135409 0.219364 1
0.356283 0.20589 0.999557
0.550546 0.198764 0.999557
0.696452 0.199283 0.998993
0.84416 0.194171 0.999008
0.978683 0.192767 0.999008
0.999588 0.206043 0.999222
0.999786 0.222843 0.999023
0.000396735 0.385077 0.999786
0.000289921 0.3841 0.999725
0.0404517 0.373938 0.999878
0.374365 0.334157 0.999985
0.580041 0.315541 1
0.73666 0.306844 0.99971
0.908324 0.295323 0.999619
0.999664 0.286793 0.999237
0.999542 0.284581 0.99942
0.00030518 0.472969 1
0.00030518 0.470832 0.999985
9.15541e-05 0.46804 0.999588
0.197986 0.427512 1
0.478828 0.398215 0.999649
0.659144 0.391913 0.999191
0.8309 0.380179 0.999176
0.999695 0.358694 0.999939
0.999985 0.34107 0.999481
0.000488289 0.536202 0.99968
0.000457771 0.534371 0.999756
0.000259403 0.532235 0.999786
0.0277409 0.514321 0.99971
0.361517 0.479637 0.999832
0.580438 0.467292 0.999634
0.757855 0.457649 0.999176
0.956558 0.435737 0.999573
0.999863 0.404898 0.999664
0.00115969 0.590631 0.999969
0.00062562 0.590021 0.999969
0.000793469 0.588205 0.999939
0.00387579 0.585885 0.999985
0.20676 0.557183 0.999619
0.492927 0.537926 0.999512
0.687709 0.527413 0.99971
0.898573 0.508797 0.999893
0.999542 0.46949 0.999329
0.000335698 0.655482 0.999969
0.000717174 0.653605 1
0.000137331 0.652873 1
0.000137331 0.650462 0.999725
0.0440223 0.637629 0.999924
0.370962 0.608988 0.999802
0.61622 0.592432 1
0.839323 0.578668 0.999771
0.999557 0.539086 0.999527
0.00030518 0.729961 0.999985
9.15541e-05 0.727687 0.999969
0.000213626 0.726635 0.999939
0.000167849 0.724193 0.999741
0.000411994 0.719402 0.999878
0.174334 0.695781 0.999741
0.520912 0.668589 0.999451
0.771923 0.654459 0.999252
0.999512 0.615274 0.999268
7.62951e-05 0.820401 0.999725
1.5259e-05 0.818784 0.999634
0.000122072 0.81706 0.999893
0.000549325 0.814588 0.999908
0.000442512 0.811414 0.999832
0.000183108 0.808072 1
0.302358 0.789181 0.99968
0.663401 0.759579 0.999451
0.999878 0.717174 0.999588
0.000320439 0.970184 1
6.10361e-05 0.97171 0.999908
4.57771e-05 0.972473 0.999619
0.000137331 0.974075 0.999985
0.000183108 0.976761 0.999802
0.000228885 0.980194 0.999634
0.000564584 0.985016 1
0.000579843 0.98674 0.99968
0.997726 0.999588 0.99852
