app/src/main/assets/luts/velvia.cube
TITLE "Generated by Resolve"
LUT_3D_SIZE 5
0 0 0
0.0939345 0.00175479 0.000106813
0.419516 7.62951e-05 6.10361e-05
0.810727 9.15541e-05 0.00015259
0.999695 0.107103 0.117357
0 0.14728 0.000289921
0.139284 0.154513 4.57771e-05
0.478569 0.168276 0.000183108
0.780072 0.220615 1.5259e-05
0.999329 0.299016 0.00732433
0.000198367 0.550713 0.000579843
0.126726 0.535256 0.000106813
0.473945 0.515923 0.000381476
0.767605 0.517998 7.62951e-05
0.999405 0.528984 3.0518e-05
1.5259e-05 0.88452 0.000183108
0.0139162 0.874891 0.000366217
0.377829 0.829389 7.62951e-05
0.73344 0.787396 0.000106813
0.999466 0.775311 0.000137331
0 1 0.000289921
0 1 0.000289921
0 1 0.000289921
0 1 0.000289921
0.905043 0.999832 0.00387579
0.00030518 9.15541e-05 0.0552224
0.162676 0.000228885 0.105272
0.537316 0.00015259 0.174136
0.868681 0.000854505 0.254932
0.999893 0.0844587 0.401068
0.000518807 0.193957 0.213672
0.182132 0.184314 0.182177
0.530221 0.184741 0.153948
0.814725 0.221866 0.177401
0.999573 0.286992 0.29279
7.62951e-05 0.551431 0.172808
0.134752 0.530785 0.13286
0.487846 0.507698 0.0955673
0.784543 0.502403 0.0987716
0.999619 0.508751 0.197726
4.57771e-05 0.857923 0.113497
0.0176699 0.847272 0.088014
0.379248 0.812985 0.0372168
0.734585 0.786252 0.0227665
0.999374 0.758114 0.117922
1.5259e-05 0.999985 0.000518807
0 1 0.000289921
0 0.999985 0.00102235
0 1 0.000503548
0.92813 0.999298 0.0154269
0.00189212 6.10361e-05 0.282109
0.257816 0.000350958 0.446159
0.643198 0.000228885 0.613886
0.924727 0.00216678 0.646815
0.999542 0.0895705 0.697719
0.000350958 0.248035 0.659861
0.222782 0.220356 0.623087
0.56701 0.213458 0.582086
0.855085 0.237644 0.563989
0.999985 0.289296 0.591669
0.000259403 0.563897 0.595972
0.141436 0.538705 0.556146
0.507698 0.509178 0.508156
0.804105 0.496483 0.476738
0.999527 0.497734 0.49633
0.00047303 0.844007 0.498848
0.0158083 0.832547 0.472953
0.377356 0.795254 0.42153
0.741329 0.764981 0.373297
0.998947 0.734005 0.390448
6.10361e-05 0.999344 0.226368
0.00015259 0.999771 0.21442
1.5259e-05 0.999588 0.203754
6.10361e-05 0.999985 0.19704
0.969314 0.999603 0.0740673
0.0272068 0.000244144 0.743389
0.395041 7.62951e-05 0.961395
0.708293 0.000137331 0.999939
0.987182 0.0278019 0.989532
0.999771 0.128298 0.980529
0.00015259 0.323705 0.999847
0.254475 0.291997 0.993622
0.605478 0.269627 0.959121
0.901808 0.274052 0.918044
0.999847 0.308614 0.904112
0.000228885 0.585672 0.981582
0.122652 0.560037 0.951766
0.515358 0.524666 0.890562
0.83154 0.502098 0.841535
0.999802 0.497795 0.822309
0.000381476 0.835035 0.912474
0.000228885 0.829084 0.885756
0.364736 0.789258 0.820218
0.751492 0.753109 0.752026
0.999542 0.703334 0.693233
0.00030518 0.999893 0.541085
0.000244144 0.999573 0.516121
0.000122072 0.999786 0.47895
0.000335698 0.999756 0.439872
0.997787 0.999527 0.263844
0.106432 0.191974 0.999878
0.356283 0.20589 0.999557
0.696452 0.199283 0.998993
0.978683 0.192767 0.999008
0.999786 0.222843 0.999023
0.00030518 0.472969 1
9.15541e-05 0.46804 0.999588
0.478828 0.398215 0.999649
0.8309 0.380179 0.999176
0.999985 0.34107 0.999481
0.00115969 0.590631 0.999969
0.000793469 0.588205 0.999939
0.20676 0.557183 0.999619
0.687709 0.527413 0.99971
0.999542 0.46949 0.999329
0.00030518 0.729961 0.999985
0.000213626 0.726635 0.999939
0.000411994 0.719402 0.999878
0.520912 0.668589 0.999451
0.999512 0.615274 0.999268
0.000320439 0.970184 1
4.57771e-05 0.972473 0.999619
0.000183108 0.976761 0.999802
0.000564584 0.985016 1
0.997726 0.999588 0.99852
